agilex5e-ed/a5e065b-mod-devkit/src/vds/test_luts/hlg_to_bt709.cube
# hdr-sdr-cubes 0.1.0
# input=hlg output=bt709 type=III matrix_comp=709
# chroma_gain=1.2 alpha=0.04 pq_peak=1000.0
# output=BT.709 BT.1886 (BT.2446 Method C + 2020->709)  interpolator=tetrahedral  legalise=AFTER LUT (R103 then 4-1019)
# DOMAIN 0-1 = 10-bit code/1023; output is narrow-range in a full 0-1023 container
# matrix_comp=709 is a locked variant: 709 YCbCr hardware on a BT.2100 SDI input
TITLE "hlg_to_bt709_typeIII_mtx709_cg120"
LUT_3D_SIZE 9
DOMAIN_MIN 0.0 0.0 0.0
DOMAIN_MAX 1.0 1.0 1.0
0.06256109 0.06256109 0.06256109
0.14369501 0.06256109 0.08797654
0.31573803 0.06256109 0.14076246
0.48680352 0.06256109 0.19354839
0.65884653 0.06256109 0.24633431
0.86608016 0.06256109 0.31085044
0.98631476 0.50537634 0.55425220
0.98631476 0.82404692 0.83479961
0.98631476 0.93548387 0.93841642
0.06256109 0.15151515 0.11534702
0.15151515 0.14662757 0.06256109
0.33626588 0.06256109 0.13098729
0.49560117 0.06256109 0.19648094
0.66764418 0.06256109 0.24926686
0.87878788 0.06256109 0.31476051
0.98631476 0.52492669 0.57086999
0.98631476 0.83088954 0.84164223
0.98631476 0.93939394 0.94232649
0.06256109 0.32355816 0.21700880
0.06256109 0.31964809 0.20136852
0.33040078 0.31867058 0.06256109
0.54056696 0.28641251 0.06256109
0.73900293 0.18768328 0.06256109
0.92277615 0.06256109 0.29032258
0.98631476 0.54643206 0.58846530
0.98631476 0.82502444 0.83577713
0.98631476 0.93646139 0.93939394
0.06256109 0.49560117 0.31867058
0.06256109 0.48778104 0.31280547
0.19745846 0.50537634 0.06256109
0.50928641 0.49071359 0.06256109
0.72336266 0.46529814 0.06256109
0.98240469 0.40175953 0.06256109
0.98631476 0.64809384 0.65395894
0.98631476 0.80547410 0.81720430
0.98631476 0.92179863 0.92668622
0.06256109 0.67057674 0.42130987
0.06256109 0.66080156 0.41642229
0.06256109 0.67057674 0.34799609
0.42619746 0.67937439 0.06256109
0.68914956 0.66275660 0.06256109
0.97067449 0.63245357 0.06256109
0.98631476 0.74975562 0.72043011
0.98631476 0.83284457 0.83577713
0.98631476 0.90029326 0.90518084
0.06256109 0.91202346 0.56402737
0.06256109 0.90029326 0.55718475
0.06256109 0.89540567 0.52394917
0.06256109 0.90713587 0.35386119
0.56598240 0.89149560 0.06256109
0.88465298 0.84359726 0.06256109
0.98631476 0.82502444 0.74682307
0.98631476 0.86608016 0.85826002
0.98631476 0.91593353 0.91788856
0.66373412 0.98631476 0.77614858
0.63147605 0.98631476 0.75855327
0.57184751 0.98631476 0.72727273
0.56891496 0.98631476 0.69599218
0.58553275 0.98631476 0.64418377
0.65689150 0.98631476 0.45943304
0.97849462 0.92570870 0.06256109
0.98631476 0.91300098 0.88563050
0.98631476 0.94232649 0.94037146
0.97360704 0.98631476 0.97751711
0.95894428 0.98631476 0.96676442
0.93646139 0.98631476 0.95112414
0.91104594 0.98631476 0.93255132
0.90322581 0.98631476 0.92375367
0.90127077 0.98631476 0.91202346
0.91300098 0.98631476 0.89051808
0.98631476 0.97262952 0.88856305
0.98631476 0.98044966 0.97849462
0.98631476 0.98631476 0.98631476
0.98631476 0.98631476 0.98631476
0.98631476 0.98631476 0.98631476
0.98631476 0.98631476 0.98631476
0.98631476 0.98631476 0.98631476
0.98631476 0.98631476 0.98631476
0.98631476 0.98631476 0.98631476
0.98631476 0.98631476 0.98631476
0.98631476 0.98631476 0.98631476
0.06256109 0.09090909 0.15640274
0.15151515 0.06256109 0.14858260
0.31867058 0.06256109 0.16422287
0.48973607 0.06256109 0.19452590
0.66080156 0.06256109 0.24731183
0.86803519 0.06256109 0.31182796
0.98631476 0.50830890 0.55718475
0.98631476 0.82404692 0.83577713
0.98631476 0.93548387 0.93939394
0.06256109 0.15640274 0.14858260
0.14956012 0.14956012 0.14956012
0.33822092 0.06256109 0.15640274
0.49853372 0.06256109 0.19745846
0.66959922 0.06256109 0.25024438
0.88074291 0.06256109 0.31573803
0.98631476 0.52785924 0.57282502
0.98631476 0.83186706 0.84164223
0.98631476 0.93939394 0.94232649
0.06256109 0.32746823 0.22580645
0.06256109 0.32258065 0.21212121
0.33137830 0.32258065 0.06256109
0.54154448 0.28934506 0.06256109
0.73998045 0.19257087 0.06256109
0.92570870 0.06256109 0.28934506
0.98631476 0.54936461 0.59042033
0.98631476 0.82600196 0.83675464
0.98631476 0.93646139 0.93939394
0.06256109 0.49853372 0.32062561
0.06256109 0.49071359 0.31573803
0.19257087 0.50830890 0.06256109
0.51026393 0.49364614 0.06256109
0.72434018 0.46823069 0.06256109
0.98435973 0.40566960 0.06256109
0.98631476 0.65102639 0.65689150
0.98631476 0.80547410 0.81818182
0.98631476 0.92277615 0.92668622
0.06256109 0.67350929 0.42326491
0.06256109 0.66373412 0.41837732
0.06256109 0.67350929 0.34995112
0.42424242 0.68230694 0.06256109
0.68914956 0.66568915 0.06256109
0.97262952 0.63538612 0.06256109
0.98631476 0.75073314 0.72140762
0.98631476 0.83382209 0.83675464
0.98631476 0.90029326 0.90518084
0.06256109 0.91495601 0.56598240
0.06256109 0.90322581 0.55913978
0.06256109 0.89833822 0.52688172
0.06256109 0.91006843 0.35972630
0.56304985 0.89442815 0.06256109
0.88269795 0.84555230 0.06256109
0.98631476 0.82600196 0.74780059
0.98631476 0.86705767 0.85826002
0.98631476 0.91593353 0.91886608
0.67057674 0.98631476 0.78005865
0.63831867 0.98631476 0.76246334
0.57966764 0.98631476 0.73118280
0.57673509 0.98631476 0.70087977
0.59237537 0.98631476 0.65004888
0.65982405 0.98631476 0.47702835
0.97556207 0.92864125 0.06256109
0.98631476 0.91397849 0.88660802
0.98631476 0.94232649 0.94037146
0.97653959 0.98631476 0.97947214
0.96285435 0.98631476 0.96969697
0.94037146 0.98631476 0.95307918
0.91495601 0.98631476 0.93548387
0.90713587 0.98631476 0.92668622
0.90420332 0.98631476 0.91593353
0.91593353 0.98631476 0.89442815
0.98631476 0.97360704 0.88758553
0.98631476 0.98142717 0.97947214
0.98631476 0.98631476 0.98631476
0.98631476 0.98631476 0.98631476
0.98631476 0.98631476 0.98631476
0.98631476 0.98631476 0.98631476
0.98631476 0.98631476 0.98631476
0.98631476 0.98631476 0.98631476
0.98631476 0.98631476 0.98631476
0.98631476 0.98631476 0.98631476
0.98631476 0.98631476 0.98631476
0.06256109 0.14565005 0.34213099
0.06256109 0.12316716 0.33626588
0.33724340 0.06256109 0.31867058
0.50342131 0.06256109 0.32649071
0.67155425 0.06256109 0.34506354
0.87683284 0.06256109 0.37145650
0.98631476 0.51515152 0.56500489
0.98631476 0.82502444 0.83577713
0.98631476 0.93548387 0.93841642
0.06256109 0.16324536 0.28347996
0.06256109 0.14173998 0.31378299
0.34213099 0.06256109 0.31476051
0.51124145 0.06256109 0.32551320
0.67937439 0.06256109 0.34408602
0.88954057 0.06256109 0.37145650
0.98631476 0.53372434 0.57869013
0.98631476 0.83186706 0.84261975
0.98631476 0.93939394 0.94232649
0.06256109 0.33528837 0.31769306
0.06256109 0.32649071 0.31476051
0.32453568 0.32453568 0.32453568
0.55913978 0.27468231 0.31867058
0.75953079 0.06256109 0.30498534
0.92864125 0.06256109 0.35483871
0.98631476 0.55522972 0.59628543
0.98631476 0.82502444 0.83675464
0.98631476 0.93646139 0.93939394
0.06256109 0.50537634 0.38416422
0.06256109 0.49657869 0.37927664
0.06256109 0.51417400 0.31769306
0.51026393 0.49853372 0.27565982
0.74389052 0.46138807 0.24340176
0.98631476 0.40664712 0.26588465
0.98631476 0.65395894 0.66080156
0.98631476 0.80449658 0.81622678
0.98631476 0.92179863 0.92570870
0.06256109 0.67839687 0.46334311
0.06256109 0.66959922 0.45845552
0.06256109 0.67741935 0.41348974
0.37145650 0.69403715 0.09090909
0.69110459 0.67057674 0.06256109
0.98142717 0.63538612 0.06256109
0.98631476 0.74975562 0.72140762
0.98631476 0.83186706 0.83577713
0.98631476 0.89931574 0.90518084
0.06256109 0.91788856 0.58162268
0.06256109 0.90713587 0.57575758
0.06256109 0.90029326 0.54643206
0.06256109 0.91104594 0.39784946
0.55034213 0.89736070 0.06256109
0.87878788 0.84652981 0.06256109
0.98631476 0.82502444 0.74486804
0.98631476 0.86608016 0.85728250
0.98631476 0.91593353 0.91788856
0.67155425 0.98631476 0.78103617
0.64027370 0.98631476 0.76344086
0.58064516 0.98631476 0.73216031
0.57575758 0.98631476 0.70185728
0.59042033 0.98631476 0.65200391
0.65689150 0.98631476 0.48289345
0.97165200 0.92961877 0.06256109
0.98631476 0.91397849 0.88563050
0.98631476 0.94232649 0.94037146
0.97849462 0.98631476 0.98044966
0.96383187 0.98631476 0.97067449
0.94134897 0.98631476 0.95503421
0.91593353 0.98631476 0.93548387
0.90713587 0.98631476 0.92668622
0.90420332 0.98631476 0.91593353
0.91593353 0.98631476 0.89638319
0.98631476 0.97458456 0.88172043
0.98631476 0.98142717 0.97947214
0.98631476 0.98631476 0.98631476
0.98631476 0.98631476 0.98631476
0.98631476 0.98631476 0.98631476
0.98631476 0.98631476 0.98631476
0.98631476 0.98631476 0.98631476
0.98631476 0.98631476 0.98631476
0.98631476 0.98631476 0.98631476
0.98631476 0.98631476 0.98631476
0.98631476 0.98631476 0.98631476
0.06256109 0.20039101 0.52785924
0.06256109 0.19159335 0.49853372
0.34506354 0.06256109 0.51319648
0.52297165 0.06256109 0.48875855
0.68817204 0.06256109 0.49364614
0.89149560 0.06256109 0.51221896
0.98631476 0.53274682 0.62170088
0.98631476 0.82697947 0.84066471
0.98631476 0.93450635 0.93841642
0.06256109 0.17693060 0.44672532
0.06256109 0.17595308 0.44477028
0.34897361 0.06256109 0.49951124
0.52883675 0.06256109 0.48484848
0.69599218 0.06256109 0.49266862
0.90420332 0.06256109 0.51124145
0.98631476 0.55131965 0.63245357
0.98631476 0.83284457 0.84555230
0.98631476 0.93841642 0.94134897
0.06256109 0.34506354 0.43988270
0.06256109 0.33626588 0.43792766
0.29912023 0.32258065 0.51612903
0.56304985 0.25806452 0.51612903
0.75366569 0.06256109 0.50733138
0.92864125 0.06256109 0.51026393
0.98631476 0.57086999 0.64320626
0.98631476 0.82600196 0.83870968
0.98631476 0.93548387 0.93841642
0.06256109 0.51417400 0.48680352
0.06256109 0.50537634 0.48289345
0.06256109 0.51515152 0.49560117
0.49951124 0.49951124 0.49951124
0.74486804 0.45845552 0.49462366
0.98631476 0.40664712 0.49951124
0.98631476 0.65982405 0.69208211
0.98631476 0.80058651 0.81524927
0.98631476 0.92082111 0.92473118
0.06256109 0.68719453 0.55034213
0.06256109 0.67741935 0.54643206
0.06256109 0.68132942 0.53372434
0.33626588 0.69892473 0.47311828
0.68621701 0.67350929 0.46432063
0.98631476 0.63440860 0.46823069
0.98631476 0.74975562 0.73802542
0.98631476 0.82893451 0.83284457
0.98631476 0.89833822 0.90420332
0.06256109 0.91984360 0.64711632
0.06256109 0.91006843 0.64320626
0.06256109 0.90224829 0.62658847
0.06256109 0.91006843 0.54740958
0.47605083 0.90713587 0.36950147
0.87487781 0.84750733 0.32160313
0.98631476 0.82306940 0.75464321
0.98631476 0.86314761 0.85434995
0.98631476 0.91397849 0.91593353
0.67350929 0.98631476 0.79374389
0.64125122 0.98631476 0.77810362
0.58064516 0.98631476 0.74877810
0.56793744 0.98631476 0.72043011
0.58162268 0.98631476 0.67350929
0.64613881 0.98631476 0.51906158
0.96676442 0.92961877 0.06256109
0.98631476 0.91202346 0.88269795
0.98631476 0.94134897 0.93939394
0.97751711 0.98631476 0.98044966
0.96383187 0.98631476 0.97067449
0.94134897 0.98631476 0.95405670
0.91300098 0.98631476 0.93450635
0.90518084 0.98631476 0.92570870
0.90224829 0.98631476 0.91495601
0.91397849 0.98631476 0.89442815
0.98631476 0.97458456 0.87096774
0.98631476 0.98044966 0.97849462
0.98631476 0.98631476 0.98631476
0.98631476 0.98631476 0.98631476
0.98631476 0.98631476 0.98631476
0.98631476 0.98631476 0.98631476
0.98631476 0.98631476 0.98631476
0.98631476 0.98631476 0.98631476
0.98631476 0.98631476 0.98631476
0.98631476 0.98631476 0.98631476
0.98631476 0.98631476 0.98631476
0.06256109 0.25610948 0.71456500
0.06256109 0.24926686 0.69012708
0.30498534 0.06256109 0.74193548
0.53665689 0.06256109 0.67546432
0.70869990 0.06256109 0.65982405
0.91104594 0.06256109 0.66471163
0.98631476 0.55718475 0.69305963
0.98631476 0.83284457 0.85337243
0.98631476 0.93548387 0.93939394
0.06256109 0.23167155 0.63343109
0.06256109 0.23069404 0.62952102
0.31476051 0.06256109 0.71749756
0.54252199 0.06256109 0.66764418
0.71554252 0.06256109 0.65689150
0.92277615 0.06256109 0.66373412
0.98631476 0.57478006 0.69892473
0.98631476 0.83870968 0.85826002
0.98631476 0.93939394 0.94232649
0.06256109 0.35288368 0.57869013
0.06256109 0.34310850 0.57673509
0.21896383 0.30596285 0.71260997
0.56109482 0.21016618 0.70967742
0.74095797 0.06256109 0.67253177
0.93157380 0.06256109 0.65982405
0.98631476 0.59237537 0.70576735
0.98631476 0.83088954 0.85043988
0.98631476 0.93450635 0.93841642
0.06256109 0.52394917 0.60606061
0.06256109 0.51515152 0.60312805
0.06256109 0.51515152 0.63734115
0.47996090 0.49853372 0.69208211
0.74389052 0.45161290 0.69208211
0.98631476 0.40273705 0.68035191
0.98631476 0.66568915 0.73704790
0.98631476 0.80449658 0.82697947
0.98631476 0.91984360 0.92473118
0.06256109 0.69599218 0.65689150
0.06256109 0.68621701 0.65298143
0.06256109 0.68523949 0.65689150
0.25904203 0.70283480 0.67741935
0.67546432 0.67546432 0.67546432
0.98631476 0.63343109 0.67350929
0.98631476 0.74877810 0.77028348
0.98631476 0.82795699 0.83968719
0.98631476 0.89736070 0.90322581
0.06256109 0.92179863 0.72922776
0.06256109 0.91202346 0.72727273
0.06256109 0.90127077 0.71945259
0.06256109 0.90713587 0.68719453
0.43304008 0.90518084 0.61485826
0.86119257 0.84457478 0.58651026
0.98631476 0.82111437 0.78201369
0.98631476 0.86217009 0.85923754
0.98631476 0.91104594 0.91300098
0.67448680 0.98631476 0.81524927
0.64222874 0.98631476 0.80254154
0.57966764 0.98631476 0.77908113
0.55425220 0.98631476 0.75464321
0.56500489 0.98631476 0.71749756
0.62561095 0.98631476 0.60117302
0.96089932 0.92961877 0.31867058
0.98631476 0.91104594 0.88465298
0.98631476 0.93939394 0.93646139
0.98044966 0.98631476 0.98240469
0.96578690 0.98631476 0.97262952
0.94428152 0.98631476 0.95796676
0.91397849 0.98631476 0.93743891
0.90518084 0.98631476 0.92864125
0.90127077 0.98631476 0.91788856
0.91202346 0.98631476 0.89638319
0.98631476 0.97458456 0.85434995
0.98631476 0.97947214 0.97751711
0.98631476 0.98631476 0.98631476
0.98631476 0.98631476 0.98631476
0.98631476 0.98631476 0.98631476
0.98631476 0.98631476 0.98631476
0.98631476 0.98631476 0.98631476
0.98631476 0.98631476 0.98631476
0.98631476 0.98631476 0.98631476
0.98631476 0.98631476 0.98631476
0.98631476 0.98631476 0.98631476
0.06256109 0.33235582 0.97262952
0.06256109 0.32649071 0.95307918
0.06256109 0.28347996 0.91300098
0.52394917 0.06256109 0.96969697
0.72825024 0.06256109 0.91593353
0.93743891 0.06256109 0.89442815
0.98631476 0.60019550 0.80156403
0.98631476 0.84359726 0.87683284
0.98631476 0.93939394 0.94428152
0.06256109 0.30987292 0.89736070
0.06256109 0.30889541 0.89247312
0.06256109 0.26197458 0.91202346
0.53176931 0.06256109 0.95405670
0.73411535 0.06256109 0.90811339
0.94916911 0.06256109 0.89051808
0.98631476 0.61681329 0.80156403
0.98631476 0.84848485 0.87976540
0.98631476 0.94232649 0.94721408
0.06256109 0.35288368 0.78299120
0.06256109 0.34017595 0.78103617
0.06256109 0.30205279 0.83088954
0.52003910 0.06256109 0.92766373
0.72629521 0.06256109 0.88563050
0.95307918 0.06256109 0.88074291
0.98631476 0.63147605 0.80058651
0.98631476 0.83870968 0.87096774
0.98631476 0.93841642 0.94330401
0.06256109 0.53665689 0.78592375
0.06256109 0.52688172 0.78396872
0.06256109 0.51612903 0.79765396
0.42033236 0.48680352 0.95210166
0.73607038 0.42619746 0.95112414
0.98631476 0.38220919 0.90811339
0.98631476 0.66862170 0.80742913
0.98631476 0.81133920 0.84848485
0.98631476 0.92375367 0.92961877
0.06256109 0.70967742 0.81818182
0.06256109 0.69990225 0.81524927
0.06256109 0.69012708 0.81622678
0.06256109 0.70087977 0.91202346
0.64809384 0.67253177 0.93450635
0.98631476 0.62365591 0.92277615
0.98631476 0.74486804 0.82502444
0.98631476 0.82404692 0.85239492
0.98631476 0.90029326 0.90909091
0.06256109 0.92082111 0.85337243
0.06256109 0.91202346 0.85337243
0.06256109 0.89736070 0.84946237
0.06256109 0.89833822 0.85532747
0.33137830 0.89833822 0.86217009
0.83382209 0.83382209 0.83382209
0.98631476 0.81622678 0.83186706
0.98631476 0.85923754 0.86999022
0.98631476 0.90909091 0.91495601
0.66862170 0.98631476 0.85239492
0.63440860 0.98631476 0.84457478
0.56793744 0.98631476 0.82893451
0.51710655 0.98631476 0.81133920
0.52101662 0.98631476 0.78885630
0.57575758 0.98631476 0.71847507
0.94330401 0.92375367 0.60606061
0.98631476 0.90909091 0.89247312
0.98631476 0.93743891 0.93646139
0.98338221 0.98631476 0.98435973
0.96969697 0.98631476 0.97556207
0.94721408 0.98631476 0.96187683
0.91495601 0.98631476 0.94232649
0.90322581 0.98631476 0.93352884
0.89833822 0.98631476 0.92375367
0.90811339 0.98631476 0.90420332
0.98631476 0.97556207 0.84457478
0.98631476 0.97849462 0.97556207
0.98631476 0.98631476 0.98631476
0.98631476 0.98631476 0.98631476
0.98631476 0.98631476 0.98631476
0.98631476 0.98631476 0.98631476
0.98631476 0.98631476 0.98631476
0.98631476 0.98631476 0.98631476
0.98631476 0.98631476 0.98631476
0.98631476 0.98631476 0.98631476
0.98631476 0.98631476 0.98631476
0.50439883 0.54936461 0.98631476
0.49560117 0.54252199 0.98631476
0.44574780 0.50244379 0.98631476
0.48484848 0.48191593 0.98631476
0.63245357 0.50342131 0.98631476
0.79569892 0.55131965 0.98631476
0.98631476 0.69012708 0.97360704
0.98631476 0.86314761 0.91984360
0.98631476 0.94721408 0.95601173
0.46529814 0.51808407 0.98631476
0.46236559 0.51612903 0.98631476
0.42228739 0.48484848 0.98631476
0.48484848 0.47409580 0.98631476
0.63734115 0.49951124 0.98631476
0.80547410 0.55131965 0.98631476
0.98631476 0.70381232 0.96383187
0.98631476 0.86705767 0.91984360
0.98631476 0.95014663 0.95796676
0.34701857 0.43108504 0.98631476
0.34799609 0.43206256 0.98631476
0.33333333 0.42228739 0.98631476
0.45259042 0.43304008 0.98631476
0.62952102 0.47214076 0.98631476
0.81133920 0.53763441 0.98631476
0.98631476 0.70087977 0.95405670
0.98631476 0.85532747 0.91104594
0.98631476 0.94525904 0.95405670
0.37438905 0.55327468 0.98631476
0.36754643 0.54349951 0.98631476
0.35288368 0.52688172 0.98631476
0.46138807 0.52003910 0.98631476
0.63343109 0.53079179 0.98631476
0.81915934 0.56402737 0.98631476
0.98631476 0.66373412 0.94134897
0.98631476 0.82600196 0.89247312
0.98631476 0.92961877 0.94134897
0.48778104 0.72043011 0.98631476
0.47800587 0.71065494 0.98631476
0.46529814 0.69892473 0.98631476
0.53567937 0.69403715 0.98631476
0.67644184 0.70087977 0.98631476
0.83186706 0.70869990 0.98631476
0.98631476 0.72727273 0.94232649
0.98631476 0.81524927 0.88172043
0.98631476 0.90615836 0.92179863
0.58944282 0.88660802 0.98631476
0.58651026 0.87878788 0.98631476
0.56402737 0.86608016 0.98631476
0.57869013 0.85239492 0.98631476
0.67448680 0.84066471 0.98631476
0.80938416 0.82209189 0.98631476
0.98631476 0.79765396 0.94819159
0.98631476 0.85141740 0.89345064
0.98631476 0.90518084 0.91788856
0.64125122 0.98631476 0.92961877
0.59921799 0.98631476 0.93157380
0.51515152 0.98631476 0.93255132
0.36070381 0.98631476 0.93352884
0.32844575 0.98631476 0.93939394
0.34799609 0.98631476 0.94721408
0.90811339 0.90811339 0.90811339
0.98631476 0.90322581 0.91104594
0.98631476 0.93450635 0.93841642
0.98631476 0.98631476 0.98631476
0.97165200 0.98631476 0.97849462
0.94819159 0.98631476 0.96774194
0.91593353 0.98631476 0.95307918
0.89247312 0.98631476 0.94134897
0.88660802 0.98631476 0.93450635
0.89540567 0.98631476 0.91984360
0.98631476 0.97556207 0.82306940
0.98631476 0.97653959 0.97458456
0.98631476 0.98631476 0.98631476
0.98631476 0.98631476 0.98631476
0.98631476 0.98631476 0.98631476
0.98631476 0.98631476 0.98631476
0.98631476 0.98631476 0.98631476
0.98631476 0.98631476 0.98631476
0.98631476 0.98631476 0.98631476
0.98631476 0.98631476 0.98631476
0.98631476 0.98631476 0.98631476
0.82795699 0.83773216 0.98631476
0.82209189 0.83186706 0.98631476
0.79081134 0.80351906 0.98631476
0.74584555 0.76148583 0.98631476
0.74877810 0.75366569 0.98631476
0.82502444 0.80058651 0.98631476
0.91202346 0.85826002 0.98631476
0.98631476 0.90029326 0.98631476
0.98631476 0.96480938 0.97458456
0.80254154 0.81427175 0.98631476
0.80058651 0.81231672 0.98631476
0.77321603 0.78787879 0.98631476
0.73313783 0.74975562 0.98631476
0.74584555 0.74877810 0.98631476
0.82697947 0.79960899 0.98631476
0.91495601 0.85826002 0.98631476
0.98631476 0.90224829 0.98338221
0.98631476 0.96676442 0.97556207
0.71652004 0.73607038 0.98631476
0.71749756 0.73607038 0.98631476
0.70478983 0.72434018 0.98631476
0.68230694 0.70478983 0.98631476
0.71652004 0.71945259 0.98631476
0.81036168 0.77712610 0.98631476
0.90615836 0.83382209 0.98631476
0.98631476 0.88758553 0.97849462
0.98631476 0.96089932 0.97165200
0.64027370 0.66666667 0.98631476
0.64125122 0.66764418 0.98631476
0.63636364 0.66275660 0.98631476
0.62756598 0.65493646 0.98631476
0.67448680 0.67546432 0.98631476
0.77223851 0.72531769 0.98631476
0.88856305 0.78592375 0.98631476
0.98631476 0.85337243 0.97067449
0.98631476 0.94428152 0.96089932
0.71945259 0.76441838 0.98631476
0.71260997 0.75659824 0.98631476
0.69501466 0.74095797 0.98631476
0.66862170 0.71749756 0.98631476
0.68817204 0.71065494 0.98631476
0.76344086 0.72629521 0.98631476
0.87487781 0.74975562 0.98631476
0.98631476 0.80645161 0.95894428
0.98631476 0.91984360 0.94525904
0.78983382 0.86021505 0.98631476
0.78396872 0.85337243 0.98631476
0.76832845 0.84164223 0.98631476
0.74486804 0.82306940 0.98631476
0.74780059 0.81133920 0.98631476
0.79765396 0.81133920 0.98631476
0.88660802 0.81427175 0.98631476
0.98631476 0.83088954 0.95796676
0.98631476 0.89442815 0.92864125
0.83968719 0.94330401 0.98631476
0.83479961 0.93841642 0.98631476
0.82111437 0.93059629 0.98631476
0.79863148 0.91984360 0.98631476
0.78787879 0.91006843 0.98631476
0.82111437 0.90322581 0.98631476
0.88758553 0.89442815 0.98631476
0.98631476 0.88758553 0.96578690
0.98631476 0.92668622 0.94428152
0.98631476 0.98631476 0.98631476
0.97165200 0.98631476 0.98338221
0.94721408 0.98631476 0.97947214
0.91006843 0.98631476 0.97458456
0.85923754 0.98631476 0.96969697
0.84750733 0.98631476 0.97067449
0.85043988 0.98631476 0.97360704
0.96383187 0.96383187 0.96383187
0.98631476 0.97165200 0.97262952
0.98631476 0.98631476 0.98631476
0.98631476 0.98631476 0.98631476
0.98631476 0.98631476 0.98631476
0.98631476 0.98631476 0.98631476
0.98631476 0.98631476 0.98631476
0.98631476 0.98631476 0.98631476
0.98631476 0.98631476 0.98631476
0.98631476 0.98631476 0.98631476
0.98631476 0.98631476 0.98631476
0.98631476 0.98631476 0.98631476
0.98631476 0.98631476 0.98631476
0.98631476 0.98631476 0.98631476
0.98631476 0.98631476 0.98631476
0.98631476 0.98631476 0.98631476
0.96578690 0.96676442 0.98631476
0.96676442 0.96480938 0.98631476
0.97849462 0.97360704 0.98631476
0.98631476 0.98631476 0.98631476
0.98631476 0.98631476 0.98631476
0.98631476 0.98631476 0.98631476
0.98631476 0.98631476 0.98631476
0.98631476 0.98631476 0.98631476
0.98631476 0.98631476 0.98631476
0.96187683 0.96285435 0.98631476
0.96480938 0.96285435 0.98631476
0.97751711 0.97262952 0.98631476
0.98631476 0.98631476 0.98631476
0.98631476 0.98631476 0.98631476
0.98631476 0.98631476 0.98631476
0.98631476 0.98631476 0.98631476
0.98631476 0.98631476 0.98631476
0.96871945 0.96969697 0.98631476
0.92473118 0.92668622 0.98631476
0.94330401 0.93841642 0.98631476
0.96969697 0.95796676 0.98631476
0.98631476 0.98631476 0.98631476
0.94819159 0.95112414 0.98631476
0.95112414 0.95307918 0.98631476
0.94037146 0.94330401 0.98631476
0.91788856 0.92179863 0.98631476
0.88465298 0.89051808 0.98631476
0.86217009 0.86608016 0.98631476
0.90420332 0.89247312 0.98631476
0.95307918 0.92766373 0.98631476
0.98631476 0.97458456 0.98533724
0.83088954 0.84066471 0.98631476
0.83479961 0.84359726 0.98631476
0.82893451 0.83870968 0.98631476
0.81524927 0.82600196 0.98631476
0.79374389 0.80547410 0.98631476
0.78983382 0.79569892 0.98631476
0.85630499 0.83577713 0.98631476
0.93352884 0.88563050 0.98631476
0.98631476 0.94819159 0.98142717
0.83284457 0.85337243 0.98631476
0.82697947 0.84848485 0.98631476
0.81427175 0.83577713 0.98631476
0.79472141 0.81720430 0.98631476
0.76832845 0.79276637 0.98631476
0.75659824 0.77321603 0.98631476
0.81720430 0.79081134 0.98631476
0.90615836 0.82209189 0.98631476
0.98631476 0.90518084 0.97360704
0.89833822 0.92766373 0.98631476
0.89345064 0.92277615 0.98631476
0.88269795 0.91495601 0.98631476
0.86803519 0.90322581 0.98631476
0.84750733 0.88660802 0.98631476
0.83088954 0.86999022 0.98631476
0.86412512 0.87292278 0.98631476
0.92375367 0.88074291 0.98631476
0.98631476 0.90518084 0.97067449
0.98533724 0.98631476 0.98631476
0.97751711 0.98338221 0.98631476
0.96578690 0.97947214 0.98631476
0.95014663 0.97360704 0.98631476
0.93157380 0.96480938 0.98631476
0.90615836 0.95307918 0.98631476
0.91886608 0.95112414 0.98631476
0.94819159 0.95112414 0.98631476
0.98631476 0.95894428 0.98044966
0.98631476 0.98631476 0.98631476
0.98631476 0.98631476 0.98631476
0.98631476 0.98631476 0.98631476
0.98631476 0.98631476 0.98631476
0.98631476 0.98631476 0.98631476
0.98631476 0.98631476 0.98631476
0.98631476 0.98631476 0.98631476
0.98631476 0.98631476 0.98631476
0.98631476 0.98631476 0.98631476
