agilex5e-ed/a5e065b-mod-devkit/src/vds/test_luts/hlg_to_bt709.cube
# hdr-sdr-cubes 0.1.0
# input=hlg output=bt709 type=III matrix_comp=709
# chroma_gain=1.2 alpha=0.04 pq_peak=1000.0
# output=BT.709 BT.1886 (BT.2446 Method C + 2020->709)  interpolator=tetrahedral  legalise=AFTER LUT (R103 then 4-1019)
# DOMAIN 0-1 = 10-bit code/1023; output is narrow-range in a full 0-1023 container
# matrix_comp=709 is a locked variant: 709 YCbCr hardware on a BT.2100 SDI input
TITLE "hlg_to_bt709_typeIII_mtx709_cg120"
LUT_3D_SIZE 5
DOMAIN_MIN 0.0 0.0 0.0
DOMAIN_MAX 1.0 1.0 1.0
0.06256109 0.06256109 0.06256109
0.31573803 0.06256109 0.14076246
0.65884653 0.06256109 0.24633431
0.98631476 0.50537634 0.55425220
0.98631476 0.93548387 0.93841642
0.06256109 0.32355816 0.21700880
0.33040078 0.31867058 0.06256109
0.73900293 0.18768328 0.06256109
0.98631476 0.54643206 0.58846530
0.98631476 0.93646139 0.93939394
0.06256109 0.67057674 0.42130987
0.06256109 0.67057674 0.34799609
0.68914956 0.66275660 0.06256109
0.98631476 0.74975562 0.72043011
0.98631476 0.90029326 0.90518084
0.66373412 0.98631476 0.77614858
0.57184751 0.98631476 0.72727273
0.58553275 0.98631476 0.64418377
0.97849462 0.92570870 0.06256109
0.98631476 0.94232649 0.94037146
0.98631476 0.98631476 0.98631476
0.98631476 0.98631476 0.98631476
0.98631476 0.98631476 0.98631476
0.98631476 0.98631476 0.98631476
0.98631476 0.98631476 0.98631476
0.06256109 0.14565005 0.34213099
0.33724340 0.06256109 0.31867058
0.67155425 0.06256109 0.34506354
0.98631476 0.51515152 0.56500489
0.98631476 0.93548387 0.93841642
0.06256109 0.33528837 0.31769306
0.32453568 0.32453568 0.32453568
0.75953079 0.06256109 0.30498534
0.98631476 0.55522972 0.59628543
0.98631476 0.93646139 0.93939394
0.06256109 0.67839687 0.46334311
0.06256109 0.67741935 0.41348974
0.69110459 0.67057674 0.06256109
0.98631476 0.74975562 0.72140762
0.98631476 0.89931574 0.90518084
0.67155425 0.98631476 0.78103617
0.58064516 0.98631476 0.73216031
0.59042033 0.98631476 0.65200391
0.97165200 0.92961877 0.06256109
0.98631476 0.94232649 0.94037146
0.98631476 0.98631476 0.98631476
0.98631476 0.98631476 0.98631476
0.98631476 0.98631476 0.98631476
0.98631476 0.98631476 0.98631476
0.98631476 0.98631476 0.98631476
0.06256109 0.25610948 0.71456500
0.30498534 0.06256109 0.74193548
0.70869990 0.06256109 0.65982405
0.98631476 0.55718475 0.69305963
0.98631476 0.93548387 0.93939394
0.06256109 0.35288368 0.57869013
0.21896383 0.30596285 0.71260997
0.74095797 0.06256109 0.67253177
0.98631476 0.59237537 0.70576735
0.98631476 0.93450635 0.93841642
0.06256109 0.69599218 0.65689150
0.06256109 0.68523949 0.65689150
0.67546432 0.67546432 0.67546432
0.98631476 0.74877810 0.77028348
0.98631476 0.89736070 0.90322581
0.67448680 0.98631476 0.81524927
0.57966764 0.98631476 0.77908113
0.56500489 0.98631476 0.71749756
0.96089932 0.92961877 0.31867058
0.98631476 0.93939394 0.93646139
0.98631476 0.98631476 0.98631476
0.98631476 0.98631476 0.98631476
0.98631476 0.98631476 0.98631476
0.98631476 0.98631476 0.98631476
0.98631476 0.98631476 0.98631476
0.50439883 0.54936461 0.98631476
0.44574780 0.50244379 0.98631476
0.63245357 0.50342131 0.98631476
0.98631476 0.69012708 0.97360704
0.98631476 0.94721408 0.95601173
0.34701857 0.43108504 0.98631476
0.33333333 0.42228739 0.98631476
0.62952102 0.47214076 0.98631476
0.98631476 0.70087977 0.95405670
0.98631476 0.94525904 0.95405670
0.48778104 0.72043011 0.98631476
0.46529814 0.69892473 0.98631476
0.67644184 0.70087977 0.98631476
0.98631476 0.72727273 0.94232649
0.98631476 0.90615836 0.92179863
0.64125122 0.98631476 0.92961877
0.51515152 0.98631476 0.93255132
0.32844575 0.98631476 0.93939394
0.90811339 0.90811339 0.90811339
0.98631476 0.93450635 0.93841642
0.98631476 0.98631476 0.98631476
0.98631476 0.98631476 0.98631476
0.98631476 0.98631476 0.98631476
0.98631476 0.98631476 0.98631476
0.98631476 0.98631476 0.98631476
0.98631476 0.98631476 0.98631476
0.98631476 0.98631476 0.98631476
0.98631476 0.98631476 0.98631476
0.96676442 0.96480938 0.98631476
0.98631476 0.98631476 0.98631476
0.98631476 0.98631476 0.98631476
0.98631476 0.98631476 0.98631476
0.96871945 0.96969697 0.98631476
0.94330401 0.93841642 0.98631476
0.98631476 0.98631476 0.98631476
0.83088954 0.84066471 0.98631476
0.82893451 0.83870968 0.98631476
0.79374389 0.80547410 0.98631476
0.85630499 0.83577713 0.98631476
0.98631476 0.94819159 0.98142717
0.89833822 0.92766373 0.98631476
0.88269795 0.91495601 0.98631476
0.84750733 0.88660802 0.98631476
0.86412512 0.87292278 0.98631476
0.98631476 0.90518084 0.97067449
0.98631476 0.98631476 0.98631476
0.98631476 0.98631476 0.98631476
0.98631476 0.98631476 0.98631476
0.98631476 0.98631476 0.98631476
0.98631476 0.98631476 0.98631476
