agilex5e-ed/a5e065b-mod-devkit/src/vds/test_luts/hlg_to_bt709.cube
# hdr-sdr-cubes 0.1.0
# input=hlg output=bt709 type=III matrix_comp=709
# chroma_gain=1.2 alpha=0.04 pq_peak=1000.0
# output=BT.709 BT.1886 (BT.2446 Method C + 2020->709)  interpolator=tetrahedral  legalise=AFTER LUT (R103 then 4-1019)
# DOMAIN 0-1 = 10-bit code/1023; output is narrow-range in a full 0-1023 container
# matrix_comp=709 is a locked variant: 709 YCbCr hardware on a BT.2100 SDI input
TITLE "hlg_to_bt709_typeIII_mtx709_cg120"
LUT_3D_SIZE 33
DOMAIN_MIN 0.0 0.0 0.0
DOMAIN_MAX 1.0 1.0 1.0
0.06256109 0.06256109 0.06256109
0.06256109 0.06256109 0.06256109
0.06256109 0.06256109 0.06256109
0.10068426 0.06256109 0.07429130
0.14369501 0.06256109 0.08797654
0.18670577 0.06256109 0.10068426
0.22971652 0.06256109 0.11436950
0.27272727 0.06256109 0.12707722
0.31573803 0.06256109 0.14076246
0.35874878 0.06256109 0.15347019
0.40078201 0.06256109 0.16715543
0.44379277 0.06256109 0.18084066
0.48680352 0.06256109 0.19354839
0.52981427 0.06256109 0.20723363
0.57282502 0.06256109 0.21994135
0.61583578 0.06256109 0.23362659
0.65884653 0.06256109 0.24633431
0.70185728 0.06256109 0.26001955
0.75073314 0.06256109 0.27468231
0.80547410 0.06256109 0.29227761
0.86608016 0.06256109 0.31085044
0.93450635 0.06256109 0.33235582
0.98631476 0.23655914 0.37927664
0.98631476 0.39491691 0.47018573
0.98631476 0.50537634 0.55425220
0.98631476 0.60508309 0.63831867
0.98631476 0.70185728 0.72336266
0.98631476 0.77712610 0.79178886
0.98631476 0.82404692 0.83479961
0.98631476 0.85923754 0.86705767
0.98631476 0.88758553 0.89442815
0.98631476 0.91300098 0.91788856
0.98631476 0.93548387 0.93841642
0.06256109 0.06256109 0.06256109
0.06256109 0.06256109 0.06256109
0.06256109 0.06256109 0.06256109
0.10263930 0.06256109 0.07526882
0.14565005 0.06256109 0.08797654
0.18866080 0.06256109 0.10166178
0.23167155 0.06256109 0.11436950
0.27468231 0.06256109 0.12805474
0.31769306 0.06256109 0.14173998
0.36070381 0.06256109 0.15444770
0.40371457 0.06256109 0.16813294
0.44574780 0.06256109 0.18084066
0.48875855 0.06256109 0.19452590
0.53176931 0.06256109 0.20723363
0.57478006 0.06256109 0.22091887
0.61779081 0.06256109 0.23362659
0.66080156 0.06256109 0.24731183
0.70478983 0.06256109 0.26099707
0.75268817 0.06256109 0.27565982
0.80742913 0.06256109 0.29227761
0.86901271 0.06256109 0.31182796
0.93841642 0.06256109 0.33333333
0.98631476 0.24731183 0.38416422
0.98631476 0.40078201 0.47409580
0.98631476 0.51026393 0.55913978
0.98631476 0.60899316 0.64222874
0.98631476 0.70674487 0.72825024
0.98631476 0.77908113 0.79374389
0.98631476 0.82600196 0.83675464
0.98631476 0.86021505 0.86901271
0.98631476 0.88954057 0.89540567
0.98631476 0.91397849 0.91886608
0.98631476 0.93646139 0.93939394
0.06256109 0.06549365 0.06451613
0.06256109 0.06353861 0.06353861
0.06256109 0.06256109 0.06256109
0.10459433 0.06256109 0.07526882
0.14760508 0.06256109 0.08895406
0.19061584 0.06256109 0.10263930
0.23362659 0.06256109 0.11534702
0.27663734 0.06256109 0.12903226
0.31964809 0.06256109 0.14173998
0.36265885 0.06256109 0.15542522
0.40566960 0.06256109 0.16813294
0.44868035 0.06256109 0.18181818
0.49071359 0.06256109 0.19452590
0.53372434 0.06256109 0.20821114
0.57673509 0.06256109 0.22189638
0.61974585 0.06256109 0.23460411
0.66275660 0.06256109 0.24828935
0.70674487 0.06256109 0.26099707
0.75562072 0.06256109 0.27663734
0.81036168 0.06256109 0.29325513
0.87194526 0.06256109 0.31280547
0.94134897 0.06256109 0.33431085
0.98631476 0.25806452 0.38905181
0.98631476 0.40664712 0.47898338
0.98631476 0.51515152 0.56304985
0.98631476 0.61388074 0.64613881
0.98631476 0.71163245 0.73216031
0.98631476 0.78201369 0.79667644
0.98631476 0.82697947 0.83773216
0.98631476 0.86217009 0.86999022
0.98631476 0.89051808 0.89638319
0.98631476 0.91495601 0.91984360
0.98631476 0.93743891 0.94037146
0.06256109 0.10850440 0.08993157
0.06256109 0.10654936 0.08895406
0.06256109 0.10459433 0.08699902
0.10752688 0.10361681 0.06256109
0.15835777 0.09188661 0.06256109
0.19843597 0.06256109 0.09775171
0.23655914 0.06256109 0.11632454
0.27859238 0.06256109 0.12903226
0.32160313 0.06256109 0.14271750
0.36461388 0.06256109 0.15542522
0.40762463 0.06256109 0.16911046
0.45063539 0.06256109 0.18279570
0.49364614 0.06256109 0.19550342
0.53567937 0.06256109 0.20918866
0.57869013 0.06256109 0.22189638
0.62170088 0.06256109 0.23558162
0.66471163 0.06256109 0.24828935
0.70869990 0.06256109 0.26197458
0.75757576 0.06256109 0.27761486
0.81329423 0.06256109 0.29423265
0.87585533 0.06256109 0.31378299
0.94525904 0.06256109 0.33528837
0.98631476 0.26783969 0.39296188
0.98631476 0.41251222 0.48289345
0.98631476 0.52003910 0.56695992
0.98631476 0.61876833 0.65004888
0.98631476 0.71554252 0.73607038
0.98631476 0.78494624 0.79863148
0.98631476 0.82893451 0.83968719
0.98631476 0.86314761 0.87096774
0.98631476 0.89149560 0.89736070
0.98631476 0.91593353 0.92082111
0.98631476 0.93841642 0.94134897
0.06256109 0.15151515 0.11534702
0.06256109 0.14956012 0.11436950
0.06256109 0.14760508 0.11241447
0.06256109 0.14956012 0.09384164
0.15151515 0.14662757 0.06256109
0.20430108 0.13978495 0.06256109
0.25513196 0.12414467 0.06256109
0.30303030 0.06256109 0.08308895
0.33626588 0.06256109 0.13098729
0.37047898 0.06256109 0.15444770
0.41055718 0.06256109 0.17008798
0.45356794 0.06256109 0.18279570
0.49560117 0.06256109 0.19648094
0.53861193 0.06256109 0.20918866
0.58162268 0.06256109 0.22287390
0.62463343 0.06256109 0.23558162
0.66764418 0.06256109 0.24926686
0.71163245 0.06256109 0.26295210
0.76050831 0.06256109 0.27859238
0.81622678 0.06256109 0.29521017
0.87878788 0.06256109 0.31476051
0.94916911 0.06256109 0.33626588
0.98631476 0.27663734 0.39784946
0.98631476 0.41739980 0.48680352
0.98631476 0.52492669 0.57086999
0.98631476 0.62365591 0.65395894
0.98631476 0.72043011 0.73998045
0.98631476 0.78690127 0.80058651
0.98631476 0.83088954 0.84164223
0.98631476 0.86412512 0.87292278
0.98631476 0.89247312 0.89833822
0.98631476 0.91691105 0.92179863
0.98631476 0.93939394 0.94232649
0.06256109 0.19452590 0.14076246
0.06256109 0.19257087 0.13978495
0.06256109 0.19061584 0.13782991
0.06256109 0.19061584 0.13098729
0.12805474 0.19354839 0.06256109
0.19648094 0.18963832 0.06256109
0.25024438 0.18377322 0.06256109
0.30107527 0.17302053 0.06256109
0.35092864 0.15640274 0.06256109
0.40078201 0.12316716 0.06256109
0.43988270 0.06256109 0.12903226
0.47311828 0.06256109 0.16422287
0.50830890 0.06256109 0.18866080
0.54349951 0.06256109 0.20918866
0.58455523 0.06256109 0.22385142
0.62756598 0.06256109 0.23655914
0.67057674 0.06256109 0.25024438
0.71456500 0.06256109 0.26392962
0.76344086 0.06256109 0.27956989
0.82013685 0.06256109 0.29618768
0.88269795 0.06256109 0.31573803
0.95307918 0.06256109 0.33724340
0.98631476 0.28641251 0.40273705
0.98631476 0.42424242 0.49169110
0.98631476 0.52981427 0.57478006
0.98631476 0.62854350 0.65884653
0.98631476 0.72434018 0.74389052
0.98631476 0.78787879 0.80254154
0.98631476 0.83088954 0.84164223
0.98631476 0.86510264 0.87292278
0.98631476 0.89345064 0.89931574
0.98631476 0.91788856 0.92179863
0.98631476 0.93939394 0.94232649
0.06256109 0.23753666 0.16617791
0.06256109 0.23558162 0.16520039
0.06256109 0.23362659 0.16324536
0.06256109 0.23264907 0.16031281
0.06256109 0.23753666 0.12609971
0.17790811 0.23753666 0.06256109
0.24144673 0.23264907 0.06256109
0.29618768 0.22678397 0.06256109
0.34701857 0.21896383 0.06256109
0.39784946 0.20625611 0.06256109
0.44672532 0.18866080 0.06256109
0.49657869 0.15933529 0.06256109
0.54545455 0.06256109 0.08895406
0.57771261 0.06256109 0.16520039
0.61094819 0.06256109 0.19843597
0.64516129 0.06256109 0.22287390
0.68035191 0.06256109 0.24437928
0.71749756 0.06256109 0.26490714
0.76735093 0.06256109 0.28054741
0.82404692 0.06256109 0.29716520
0.88660802 0.06256109 0.31671554
0.95698925 0.06256109 0.33919844
0.98631476 0.29618768 0.40860215
0.98631476 0.43010753 0.49560117
0.98631476 0.53567937 0.57966764
0.98631476 0.63343109 0.66275660
0.98631476 0.72727273 0.74682307
0.98631476 0.78787879 0.80254154
0.98631476 0.83088954 0.84066471
0.98631476 0.86412512 0.87194526
0.98631476 0.89247312 0.89833822
0.98631476 0.91691105 0.92082111
0.98631476 0.93939394 0.94232649
0.06256109 0.28054741 0.19159335
0.06256109 0.27859238 0.19061584
0.06256109 0.27663734 0.18866080
0.06256109 0.27468231 0.18768328
0.06256109 0.27761486 0.16911046
0.13098729 0.28347996 0.06256109
0.22482893 0.28054741 0.06256109
0.28641251 0.27565982 0.06256109
0.34115347 0.27077224 0.06256109
0.39296188 0.26295210 0.06256109
0.44379277 0.25317693 0.06256109
0.49364614 0.23949169 0.06256109
0.54349951 0.21994135 0.06256109
0.59335288 0.19354839 0.06256109
0.64222874 0.14565005 0.06256109
0.68230694 0.06256109 0.15151515
0.71456500 0.06256109 0.19941349
0.74975562 0.06256109 0.23264907
0.78983382 0.06256109 0.26197458
0.83675464 0.06256109 0.29032258
0.89149560 0.06256109 0.31867058
0.96187683 0.06256109 0.34017595
0.98631476 0.30694037 0.41348974
0.98631476 0.43695015 0.50048876
0.98631476 0.54056696 0.58357771
0.98631476 0.63831867 0.66764418
0.98631476 0.72922776 0.74780059
0.98631476 0.78690127 0.80058651
0.98631476 0.82893451 0.83870968
0.98631476 0.86217009 0.86999022
0.98631476 0.89051808 0.89638319
0.98631476 0.91495601 0.91984360
0.98631476 0.93841642 0.94134897
0.06256109 0.32355816 0.21700880
0.06256109 0.32160313 0.21603128
0.06256109 0.31964809 0.21407625
0.06256109 0.31769306 0.21309873
0.06256109 0.31964809 0.20136852
0.06256109 0.32551320 0.15933529
0.19354839 0.32649071 0.06256109
0.26979472 0.32355816 0.06256109
0.33040078 0.31867058 0.06256109
0.38611926 0.31378299 0.06256109
0.43890518 0.30694037 0.06256109
0.48973607 0.29814272 0.06256109
0.54056696 0.28641251 0.06256109
0.59042033 0.27174976 0.06256109
0.63929619 0.25219941 0.06256109
0.68914956 0.22678397 0.06256109
0.73900293 0.18768328 0.06256109
0.78885630 0.06256109 0.10361681
0.82697947 0.06256109 0.20234604
0.87194526 0.06256109 0.25024438
0.92277615 0.06256109 0.29032258
0.98240469 0.06256109 0.32746823
0.98631476 0.32258065 0.42033236
0.98631476 0.44281525 0.50537634
0.98631476 0.54643206 0.58846530
0.98631476 0.64418377 0.67253177
0.98631476 0.72922776 0.74877810
0.98631476 0.78396872 0.79863148
0.98631476 0.82502444 0.83577713
0.98631476 0.85923754 0.86705767
0.98631476 0.88758553 0.89442815
0.98631476 0.91300098 0.91788856
0.98631476 0.93646139 0.93939394
0.06256109 0.36656891 0.24242424
0.06256109 0.36461388 0.24144673
0.06256109 0.36265885 0.23949169
0.06256109 0.36070381 0.23851417
0.06256109 0.36168133 0.23069404
0.06256109 0.36559140 0.20430108
0.10752688 0.37243402 0.06256109
0.24437928 0.36950147 0.06256109
0.31573803 0.36656891 0.06256109
0.37536657 0.36168133 0.06256109
0.43108504 0.35679374 0.06256109
0.48387097 0.34995112 0.06256109
0.53567937 0.34213099 0.06256109
0.58651026 0.33137830 0.06256109
0.63636364 0.31964809 0.06256109
0.68621701 0.30400782 0.06256109
0.73607038 0.28445748 0.06256109
0.78787879 0.25806452 0.06256109
0.84652981 0.21505376 0.06256109
0.91202346 0.06256109 0.08602151
0.96089932 0.06256109 0.22678397
0.98631476 0.25317693 0.33333333
0.98631476 0.37438905 0.43499511
0.98631476 0.46823069 0.51808407
0.98631476 0.55425220 0.59433040
0.98631476 0.65004888 0.67741935
0.98631476 0.72825024 0.74780059
0.98631476 0.78005865 0.79472141
0.98631476 0.82111437 0.83186706
0.98631476 0.85434995 0.86314761
0.98631476 0.88367546 0.89051808
0.98631476 0.91006843 0.91495601
0.98631476 0.93352884 0.93646139
0.06256109 0.40957967 0.26783969
0.06256109 0.40762463 0.26686217
0.06256109 0.40566960 0.26490714
0.06256109 0.40371457 0.26392962
0.06256109 0.40371457 0.25806452
0.06256109 0.40664712 0.23949169
0.06256109 0.41348974 0.19159335
0.19941349 0.41642229 0.06256109
0.29227761 0.41348974 0.06256109
0.36070381 0.40957967 0.06256109
0.42033236 0.40469208 0.06256109
0.47605083 0.39980450 0.06256109
0.52883675 0.39393939 0.06256109
0.58064516 0.38611926 0.06256109
0.63245357 0.37634409 0.06256109
0.68230694 0.36559140 0.06256109
0.73313783 0.35190616 0.06256109
0.78592375 0.33528837 0.06256109
0.84457478 0.31182796 0.06256109
0.91104594 0.27663734 0.06256109
0.98533724 0.21603128 0.06256109
0.98631476 0.33431085 0.34701857
0.98631476 0.42326491 0.45063539
0.98631476 0.50439883 0.53470186
0.98631476 0.58455523 0.61192571
0.98631476 0.66471163 0.68817204
0.98631476 0.72531769 0.74486804
0.98631476 0.77517107 0.78983382
0.98631476 0.81524927 0.82697947
0.98631476 0.84946237 0.85923754
0.98631476 0.87976540 0.88660802
0.98631476 0.90615836 0.91104594
0.98631476 0.93059629 0.93352884
0.06256109 0.45259042 0.29325513
0.06256109 0.45063539 0.29227761
0.06256109 0.44868035 0.29032258
0.06256109 0.44672532 0.28934506
0.06256109 0.44574780 0.28641251
0.06256109 0.44868035 0.27077224
0.06256109 0.45356794 0.23851417
0.06256109 0.46138807 0.13391984
0.25806452 0.45943304 0.06256109
0.34017595 0.45650049 0.06256109
0.40566960 0.45259042 0.06256109
0.46529814 0.44770283 0.06256109
0.52101662 0.44281525 0.06256109
0.57478006 0.43695015 0.06256109
0.62658847 0.42913001 0.06256109
0.67839687 0.42130987 0.06256109
0.72825024 0.41055718 0.06256109
0.78201369 0.39882698 0.06256109
0.84261975 0.38220919 0.06256109
0.90909091 0.35874878 0.06256109
0.98435973 0.32551320 0.06256109
0.98631476 0.39882698 0.36168133
0.98631476 0.47116325 0.46920821
0.98631476 0.54252199 0.55425220
0.98631476 0.61485826 0.63245357
0.98631476 0.68621701 0.70381232
0.98631476 0.73411535 0.75073314
0.98631476 0.76930596 0.78494624
0.98631476 0.80938416 0.82111437
0.98631476 0.84359726 0.85337243
0.98631476 0.87390029 0.88172043
0.98631476 0.90127077 0.90713587
0.98631476 0.92668622 0.93059629
0.06256109 0.49560117 0.31867058
0.06256109 0.49364614 0.31769306
0.06256109 0.49169110 0.31573803
0.06256109 0.48973607 0.31476051
0.06256109 0.48778104 0.31280547
0.06256109 0.49071359 0.30009775
0.06256109 0.49462366 0.27565982
0.06256109 0.50146628 0.22385142
0.19745846 0.50537634 0.06256109
0.30987292 0.50244379 0.06256109
0.38611926 0.49951124 0.06256109
0.45063539 0.49560117 0.06256109
0.50928641 0.49071359 0.06256109
0.56598240 0.48582600 0.06256109
0.61974585 0.47996090 0.06256109
0.67155425 0.47311828 0.06256109
0.72336266 0.46529814 0.06256109
0.77810362 0.45552297 0.06256109
0.83870968 0.44183773 0.06256109
0.90713587 0.42521994 0.06256109
0.98240469 0.40175953 0.06256109
0.98631476 0.45552297 0.37732160
0.98631476 0.51612903 0.48875855
0.98631476 0.58064516 0.57575758
0.98631476 0.64809384 0.65395894
0.98631476 0.70674487 0.71749756
0.98631476 0.74780059 0.75953079
0.98631476 0.77908113 0.79081134
0.98631476 0.80547410 0.81720430
0.98631476 0.83675464 0.84750733
0.98631476 0.86803519 0.87585533
0.98631476 0.89638319 0.90224829
0.98631476 0.92179863 0.92668622
0.06256109 0.53861193 0.34408602
0.06256109 0.53665689 0.34310850
0.06256109 0.53470186 0.34115347
0.06256109 0.53274682 0.34017595
0.06256109 0.53079179 0.33919844
0.06256109 0.53176931 0.32844575
0.06256109 0.53567937 0.30889541
0.06256109 0.54154448 0.27272727
0.06256109 0.54936461 0.17790811
0.26588465 0.54936461 0.06256109
0.35972630 0.54545455 0.06256109
0.43206256 0.54252199 0.06256109
0.49560117 0.53861193 0.06256109
0.55425220 0.53372434 0.06256109
0.60997067 0.52883675 0.06256109
0.66471163 0.52297165 0.06256109
0.71749756 0.51612903 0.06256109
0.77321603 0.50830890 0.06256109
0.83479961 0.49755621 0.06256109
0.90420332 0.48484848 0.06256109
0.98044966 0.46627566 0.06256109
0.98631476 0.50830890 0.39491691
0.98631476 0.56109482 0.51124145
0.98631476 0.61876833 0.60019550
0.98631476 0.68035191 0.67644184
0.98631476 0.72531769 0.72922776
0.98631476 0.75953079 0.76735093
0.98631476 0.78787879 0.79667644
0.98631476 0.81231672 0.82209189
0.98631476 0.83382209 0.84359726
0.98631476 0.86119257 0.86999022
0.98631476 0.89051808 0.89736070
0.98631476 0.91788856 0.92179863
0.06256109 0.58162268 0.36950147
0.06256109 0.57966764 0.36852395
0.06256109 0.57771261 0.36656891
0.06256109 0.57575758 0.36559140
0.06256109 0.57380254 0.36461388
0.06256109 0.57478006 0.35679374
0.06256109 0.57771261 0.34017595
0.06256109 0.58260020 0.31182796
0.06256109 0.58944282 0.25708700
0.18377322 0.59530792 0.06256109
0.32355816 0.59237537 0.06256109
0.40762463 0.58944282 0.06256109
0.47800587 0.58553275 0.06256109
0.54056696 0.58162268 0.06256109
0.59921799 0.57673509 0.06256109
0.65493646 0.57184751 0.06256109
0.70967742 0.56598240 0.06256109
0.76735093 0.55913978 0.06256109
0.82991202 0.55034213 0.06256109
0.90029326 0.53958944 0.06256109
0.97849462 0.52492669 0.06256109
0.98631476 0.55913978 0.41348974
0.98631476 0.60508309 0.53567937
0.98631476 0.65689150 0.62561095
0.98631476 0.70674487 0.69403715
0.98631476 0.74291300 0.73998045
0.98631476 0.77223851 0.77517107
0.98631476 0.79667644 0.80351906
0.98631476 0.81915934 0.82697947
0.98631476 0.83968719 0.84750733
0.98631476 0.85826002 0.86608016
0.98631476 0.88465298 0.89149560
0.98631476 0.91202346 0.91691105
0.06256109 0.62463343 0.39491691
0.06256109 0.62267840 0.39393939
0.06256109 0.62072336 0.39198436
0.06256109 0.61876833 0.39100684
0.06256109 0.61681329 0.39002933
0.06256109 0.61681329 0.38416422
0.06256109 0.61974585 0.36950147
0.06256109 0.62365591 0.34701857
0.06256109 0.62952102 0.30694037
0.06256109 0.63734115 0.21603128
0.26783969 0.63831867 0.06256109
0.37536657 0.63538612 0.06256109
0.45454545 0.63245357 0.06256109
0.52297165 0.62854350 0.06256109
0.58553275 0.62463343 0.06256109
0.64418377 0.61974585 0.06256109
0.69990225 0.61485826 0.06256109
0.75953079 0.60899316 0.06256109
0.82404692 0.60215054 0.06256109
0.89638319 0.59237537 0.06256109
0.97458456 0.57966764 0.06256109
0.98631476 0.60703812 0.43304008
0.98631476 0.64809384 0.56207234
0.98631476 0.69403715 0.65102639
0.98631476 0.72922776 0.70869990
0.98631476 0.75855327 0.74975562
0.98631476 0.78396872 0.78201369
0.98631476 0.80547410 0.80840665
0.98631476 0.82600196 0.83186706
0.98631476 0.84457478 0.85141740
0.98631476 0.86314761 0.86999022
0.98631476 0.87976540 0.88660802
0.98631476 0.90615836 0.91104594
0.06256109 0.67057674 0.42130987
0.06256109 0.66764418 0.42033236
0.06256109 0.66568915 0.41837732
0.06256109 0.66275660 0.41739980
0.06256109 0.66080156 0.41642229
0.06256109 0.65982405 0.41251222
0.06256109 0.66177908 0.39980450
0.06256109 0.66568915 0.37927664
0.06256109 0.67057674 0.34799609
0.06256109 0.67741935 0.29032258
0.14565005 0.68523949 0.06256109
0.33137830 0.68230694 0.06256109
0.42619746 0.67937439 0.06256109
0.50146628 0.67546432 0.06256109
0.56891496 0.67155425 0.06256109
0.63049853 0.66764418 0.06256109
0.68914956 0.66275660 0.06256109
0.75073314 0.65786901 0.06256109
0.81720430 0.65102639 0.06256109
0.89051808 0.64320626 0.06256109
0.97067449 0.63245357 0.06256109
0.98631476 0.65395894 0.45454545
0.98631476 0.69012708 0.59042033
0.98631476 0.72238514 0.66862170
0.98631476 0.74975562 0.72043011
0.98631476 0.77321603 0.75855327
0.98631476 0.79472141 0.78885630
0.98631476 0.81427175 0.81427175
0.98631476 0.83284457 0.83577713
0.98631476 0.85043988 0.85532747
0.98631476 0.86803519 0.87292278
0.98631476 0.88367546 0.88954057
0.98631476 0.90029326 0.90518084
0.06256109 0.72140762 0.45259042
0.06256109 0.71945259 0.45063539
0.06256109 0.71652004 0.44868035
0.06256109 0.71358749 0.44770283
0.06256109 0.71065494 0.44574780
0.06256109 0.70869990 0.44379277
0.06256109 0.71065494 0.43206256
0.06256109 0.71358749 0.41446725
0.06256109 0.71749756 0.38905181
0.06256109 0.72336266 0.34604106
0.06256109 0.73020528 0.26295210
0.25219941 0.73313783 0.06256109
0.38318671 0.73020528 0.06256109
0.47116325 0.72629521 0.06256109
0.54545455 0.72238514 0.06256109
0.61192571 0.71847507 0.06256109
0.67350929 0.71456500 0.06256109
0.73802542 0.70967742 0.06256109
0.80840665 0.70283480 0.06256109
0.88367546 0.69599218 0.06256109
0.96578690 0.68621701 0.06256109
0.98631476 0.70185728 0.47702835
0.98631476 0.72531769 0.60801564
0.98631476 0.74682307 0.68132942
0.98631476 0.76832845 0.73020528
0.98631476 0.78787879 0.76637341
0.98631476 0.80547410 0.79569892
0.98631476 0.82306940 0.82013685
0.98631476 0.84066471 0.84066471
0.98631476 0.85630499 0.86021505
0.98631476 0.87292278 0.87683284
0.98631476 0.88758553 0.89247312
0.98631476 0.90322581 0.90811339
0.06256109 0.78103617 0.48680352
0.06256109 0.77712610 0.48484848
0.06256109 0.77419355 0.48289345
0.06256109 0.77126100 0.48093842
0.06256109 0.76832845 0.47996090
0.06256109 0.76539589 0.47800587
0.06256109 0.76539589 0.46920821
0.06256109 0.76832845 0.45356794
0.06256109 0.77126100 0.43206256
0.06256109 0.77517107 0.39882698
0.06256109 0.78103617 0.34506354
0.06256109 0.78885630 0.22678397
0.30791789 0.78885630 0.06256109
0.42521994 0.78494624 0.06256109
0.51221896 0.78103617 0.06256109
0.58553275 0.77614858 0.06256109
0.65298143 0.77223851 0.06256109
0.72140762 0.76735093 0.06256109
0.79472141 0.76148583 0.06256109
0.87292278 0.75464321 0.06256109
0.95503421 0.74389052 0.06256109
0.98631476 0.74389052 0.46823069
0.98631476 0.75659824 0.61388074
0.98631476 0.77126100 0.68914956
0.98631476 0.78690127 0.73900293
0.98631476 0.80254154 0.77419355
0.98631476 0.81720430 0.80254154
0.98631476 0.83284457 0.82600196
0.98631476 0.84848485 0.84652981
0.98631476 0.86314761 0.86412512
0.98631476 0.87781036 0.88074291
0.98631476 0.89247312 0.89638319
0.98631476 0.90713587 0.91104594
0.06256109 0.84750733 0.52590420
0.06256109 0.84359726 0.52394917
0.06256109 0.83968719 0.52199413
0.06256109 0.83675464 0.52003910
0.06256109 0.83284457 0.51808407
0.06256109 0.82991202 0.51612903
0.06256109 0.82893451 0.51026393
0.06256109 0.82991202 0.49657869
0.06256109 0.83186706 0.47800587
0.06256109 0.83577713 0.45161290
0.06256109 0.83968719 0.41251222
0.06256109 0.84555230 0.34701857
0.06256109 0.85337243 0.18181818
0.34701857 0.85043988 0.06256109
0.46041056 0.84652981 0.06256109
0.54740958 0.84164223 0.06256109
0.62170088 0.83675464 0.06256109
0.69599218 0.82991202 0.06256109
0.77126100 0.82209189 0.06256109
0.84750733 0.81036168 0.06256109
0.92668622 0.79569892 0.06256109
0.98631476 0.78201369 0.37829912
0.98631476 0.78592375 0.60312805
0.98631476 0.79472141 0.69208211
0.98631476 0.80547410 0.74486804
0.98631476 0.81720430 0.78103617
0.98631476 0.82991202 0.80938416
0.98631476 0.84359726 0.83186706
0.98631476 0.85630499 0.85141740
0.98631476 0.86999022 0.86901271
0.98631476 0.88367546 0.88563050
0.98631476 0.89736070 0.90029326
0.98631476 0.91104594 0.91397849
0.06256109 0.91202346 0.56402737
0.06256109 0.90909091 0.56304985
0.06256109 0.90615836 0.56109482
0.06256109 0.90322581 0.55913978
0.06256109 0.90029326 0.55718475
0.06256109 0.89736070 0.55620723
0.06256109 0.89442815 0.55327468
0.06256109 0.89442815 0.54056696
0.06256109 0.89540567 0.52394917
0.06256109 0.89736070 0.50244379
0.06256109 0.90029326 0.47214076
0.06256109 0.90322581 0.42717498
0.06256109 0.90713587 0.35386119
0.06256109 0.91300098 0.14369501
0.36754643 0.90615836 0.06256109
0.47996090 0.89931574 0.06256109
0.56598240 0.89149560 0.06256109
0.64613881 0.88269795 0.06256109
0.72531769 0.87194526 0.06256109
0.80449658 0.85923754 0.06256109
0.88465298 0.84359726 0.06256109
0.96578690 0.82404692 0.06256109
0.98631476 0.81524927 0.55522972
0.98631476 0.81818182 0.68328446
0.98631476 0.82502444 0.74682307
0.98631476 0.83382209 0.78690127
0.98631476 0.84359726 0.81622678
0.98631476 0.85434995 0.83870968
0.98631476 0.86608016 0.85826002
0.98631476 0.87878788 0.87487781
0.98631476 0.89051808 0.89051808
0.98631476 0.90322581 0.90420332
0.98631476 0.91593353 0.91788856
0.06256109 0.95307918 0.58944282
0.06256109 0.95210166 0.58846530
0.06256109 0.95014663 0.58651026
0.06256109 0.94721408 0.58553275
0.06256109 0.94525904 0.58357771
0.06256109 0.94232649 0.58260020
0.06256109 0.93841642 0.58064516
0.06256109 0.93743891 0.57184751
0.06256109 0.93841642 0.55816227
0.06256109 0.93939394 0.53958944
0.06256109 0.94037146 0.51612903
0.06256109 0.94232649 0.48387097
0.06256109 0.94428152 0.43695015
0.06256109 0.94721408 0.36265885
0.06256109 0.95112414 0.16813294
0.36559140 0.94428152 0.06256109
0.47996090 0.93646139 0.06256109
0.57478006 0.92766373 0.06256109
0.66177908 0.91593353 0.06256109
