agilex5e-ed/a5e065b-mod-devkit/src/vds/test_luts/pq_to_bt709.cube
# hdr-sdr-cubes 0.1.0
# input=pq output=bt709 type=II matrix_comp=709
# chroma_gain=1.2 alpha=0.04 pq_peak=1000.0
# output=BT.709 BT.1886 (BT.2446 Method C + 2020->709)  interpolator=tetrahedral  legalise=AFTER LUT (R103 then 4-1019)
# DOMAIN 0-1 = 10-bit code/1023; output is narrow-range in a full 0-1023 container
# matrix_comp=709 is a locked variant: 709 YCbCr hardware on a BT.2100 SDI input
TITLE "pq_to_bt709_typeII_mtx709_cg120"
LUT_3D_SIZE 33
DOMAIN_MIN 0.0 0.0 0.0
DOMAIN_MAX 1.0 1.0 1.0
0.06256109 0.06256109 0.06256109
0.08895406 0.06256109 0.07038123
0.11143695 0.06256109 0.07820137
0.13685239 0.06256109 0.08602151
0.16520039 0.06256109 0.09384164
0.19550342 0.06256109 0.10361681
0.22971652 0.06256109 0.11436950
0.26783969 0.06256109 0.12609971
0.30987292 0.06256109 0.13880743
0.35679374 0.06256109 0.15347019
0.40860215 0.06256109 0.16911046
0.46627566 0.06256109 0.18768328
0.52981427 0.06256109 0.20723363
0.60117302 0.06256109 0.22873900
0.67937439 0.06256109 0.25317693
0.76539589 0.06256109 0.27956989
0.86119257 0.06256109 0.30889541
0.96774194 0.06256109 0.34213099
0.98631476 0.37927664 0.45943304
0.98631476 0.52981427 0.57478006
0.98631476 0.65884653 0.68621701
0.98631476 0.76735093 0.78299120
0.98631476 0.82697947 0.83773216
0.98631476 0.86901271 0.87683284
0.98631476 0.90127077 0.90713587
0.98631476 0.92961877 0.93352884
0.98631476 0.95503421 0.95698925
0.98631476 0.97751711 0.97751711
0.98631476 0.98631476 0.98631476
0.98631476 0.98631476 0.98631476
0.98631476 0.98631476 0.98631476
0.98631476 0.98631476 0.98631476
0.98631476 0.98631476 0.98631476
0.06256109 0.08602151 0.07624633
0.08699902 0.08602151 0.06256109
0.11632454 0.07722385 0.06256109
0.13880743 0.06256109 0.08504399
0.16617791 0.06256109 0.09481916
0.19648094 0.06256109 0.10361681
0.23167155 0.06256109 0.11436950
0.26979472 0.06256109 0.12609971
0.31280547 0.06256109 0.13978495
0.35972630 0.06256109 0.15444770
0.41153470 0.06256109 0.17008798
0.46920821 0.06256109 0.18866080
0.53372434 0.06256109 0.20821114
0.60410557 0.06256109 0.22971652
0.68328446 0.06256109 0.25415445
0.77028348 0.06256109 0.28054741
0.86608016 0.06256109 0.31085044
0.97262952 0.06256109 0.34408602
0.98631476 0.38807429 0.46529814
0.98631476 0.53665689 0.58064516
0.98631476 0.66471163 0.69110459
0.98631476 0.77126100 0.78690127
0.98631476 0.82991202 0.84066471
0.98631476 0.87096774 0.87781036
0.98631476 0.90322581 0.90811339
0.98631476 0.93059629 0.93450635
0.98631476 0.95601173 0.95796676
0.98631476 0.97849462 0.97849462
0.98631476 0.98631476 0.98631476
0.98631476 0.98631476 0.98631476
0.98631476 0.98631476 0.98631476
0.98631476 0.98631476 0.98631476
0.98631476 0.98631476 0.98631476
0.06256109 0.10850440 0.08993157
0.06256109 0.10850440 0.08211144
0.10850440 0.10654936 0.06256109
0.14173998 0.10068426 0.06256109
0.17497556 0.08113392 0.06256109
0.20136852 0.06256109 0.09970674
0.23264907 0.06256109 0.11534702
0.27077224 0.06256109 0.12707722
0.31378299 0.06256109 0.13978495
0.36168133 0.06256109 0.15444770
0.41446725 0.06256109 0.17106549
0.47214076 0.06256109 0.18866080
0.53665689 0.06256109 0.20918866
0.60801564 0.06256109 0.23069404
0.68719453 0.06256109 0.25513196
0.77419355 0.06256109 0.28250244
0.87096774 0.06256109 0.31182796
0.97849462 0.06256109 0.34506354
0.98631476 0.39589443 0.47116325
0.98631476 0.54252199 0.58553275
0.98631476 0.67155425 0.69696970
0.98631476 0.77517107 0.78983382
0.98631476 0.83186706 0.84261975
0.98631476 0.87194526 0.87976540
0.98631476 0.90420332 0.91006843
0.98631476 0.93255132 0.93548387
0.98631476 0.95698925 0.95894428
0.98631476 0.97947214 0.97947214
0.98631476 0.98631476 0.98631476
0.98631476 0.98631476 0.98631476
0.98631476 0.98631476 0.98631476
0.98631476 0.98631476 0.98631476
0.98631476 0.98631476 0.98631476
0.06256109 0.13196481 0.10361681
0.06256109 0.13098729 0.10166178
0.08504399 0.13294233 0.06256109
0.13294233 0.13000978 0.06256109
0.16911046 0.12316716 0.06256109
0.20821114 0.11045943 0.06256109
0.24633431 0.06256109 0.08895406
0.27663734 0.06256109 0.12218964
0.31476051 0.06256109 0.14076246
0.36265885 0.06256109 0.15542522
0.41642229 0.06256109 0.17204301
0.47507331 0.06256109 0.18963832
0.53958944 0.06256109 0.21016618
0.61094819 0.06256109 0.23167155
0.69012708 0.06256109 0.25610948
0.77810362 0.06256109 0.28347996
0.87585533 0.06256109 0.31378299
0.98338221 0.06256109 0.34701857
0.98631476 0.40371457 0.47702835
0.98631476 0.54936461 0.59042033
0.98631476 0.67741935 0.70185728
0.98631476 0.77810362 0.79276637
0.98631476 0.83382209 0.84457478
0.98631476 0.87390029 0.88074291
0.98631476 0.90615836 0.91104594
0.98631476 0.93352884 0.93646139
0.98631476 0.95796676 0.95992180
0.98631476 0.98044966 0.98044966
0.98631476 0.98631476 0.98631476
0.98631476 0.98631476 0.98631476
0.98631476 0.98631476 0.98631476
0.98631476 0.98631476 0.98631476
0.98631476 0.98631476 0.98631476
0.06256109 0.15835777 0.11925709
0.06256109 0.15738025 0.11827957
0.06256109 0.15835777 0.10948192
0.11241447 0.15933529 0.06256109
0.15933529 0.15542522 0.06256109
0.20039101 0.14858260 0.06256109
0.24437928 0.13685239 0.06256109
0.29032258 0.11045943 0.06256109
0.33040078 0.06256109 0.12023460
0.36852395 0.06256109 0.15151515
0.41739980 0.06256109 0.17204301
0.47702835 0.06256109 0.19061584
0.54154448 0.06256109 0.21016618
0.61388074 0.06256109 0.23264907
0.69403715 0.06256109 0.25708700
0.78201369 0.06256109 0.28445748
0.88074291 0.06256109 0.31476051
0.98631476 0.12805474 0.35092864
0.98631476 0.41153470 0.48191593
0.98631476 0.55522972 0.59628543
0.98631476 0.68328446 0.70674487
0.98631476 0.78103617 0.79569892
0.98631476 0.83577713 0.84555230
0.98631476 0.87487781 0.88269795
0.98631476 0.90713587 0.91202346
0.98631476 0.93450635 0.93743891
0.98631476 0.95894428 0.96089932
0.98631476 0.98142717 0.98142717
0.98631476 0.98631476 0.98631476
0.98631476 0.98631476 0.98631476
0.98631476 0.98631476 0.98631476
0.98631476 0.98631476 0.98631476
0.98631476 0.98631476 0.98631476
0.06256109 0.18866080 0.13685239
0.06256109 0.18670577 0.13587488
0.06256109 0.18670577 0.13196481
0.06256109 0.18866080 0.11143695
0.13978495 0.18768328 0.06256109
0.18963832 0.18377322 0.06256109
0.23558162 0.17595308 0.06256109
0.28445748 0.16422287 0.06256109
0.33626588 0.14271750 0.06256109
0.39100684 0.06256109 0.09970674
0.43206256 0.06256109 0.15640274
0.48093842 0.06256109 0.18866080
0.54349951 0.06256109 0.21114370
0.61681329 0.06256109 0.23362659
0.69696970 0.06256109 0.25806452
0.78592375 0.06256109 0.28641251
0.88465298 0.06256109 0.31671554
0.98631476 0.16715543 0.35777126
0.98631476 0.41837732 0.48778104
0.98631476 0.56109482 0.60117302
0.98631476 0.68914956 0.71260997
0.98631476 0.78299120 0.79765396
0.98631476 0.83675464 0.84750733
0.98631476 0.87585533 0.88367546
0.98631476 0.90811339 0.91300098
0.98631476 0.93548387 0.93841642
0.98631476 0.95992180 0.96187683
0.98631476 0.98240469 0.98240469
0.98631476 0.98631476 0.98631476
0.98631476 0.98631476 0.98631476
0.98631476 0.98631476 0.98631476
0.98631476 0.98631476 0.98631476
0.98631476 0.98631476 0.98631476
0.06256109 0.22189638 0.15640274
0.06256109 0.21994135 0.15542522
0.06256109 0.21896383 0.15444770
0.06256109 0.21896383 0.14369501
0.06256109 0.22287390 0.09970674
0.16813294 0.21994135 0.06256109
0.22287390 0.21505376 0.06256109
0.27468231 0.20723363 0.06256109
0.32844575 0.19550342 0.06256109
0.38807429 0.17399804 0.06256109
0.45161290 0.12707722 0.06256109
0.50342131 0.06256109 0.15640274
0.55620723 0.06256109 0.20039101
0.61876833 0.06256109 0.23460411
0.69990225 0.06256109 0.25904203
0.78983382 0.06256109 0.28739003
0.88856305 0.06256109 0.31769306
0.98631476 0.19061584 0.36363636
0.98631476 0.42521994 0.49266862
0.98631476 0.56695992 0.60606061
0.98631476 0.69403715 0.71749756
0.98631476 0.78494624 0.79960899
0.98631476 0.83773216 0.84848485
0.98631476 0.87683284 0.88367546
0.98631476 0.90909091 0.91397849
0.98631476 0.93646139 0.93939394
0.98631476 0.96089932 0.96187683
0.98631476 0.98338221 0.98338221
0.98631476 0.98631476 0.98631476
0.98631476 0.98631476 0.98631476
0.98631476 0.98631476 0.98631476
0.98631476 0.98631476 0.98631476
0.98631476 0.98631476 0.98631476
0.06256109 0.26001955 0.17888563
0.06256109 0.25708700 0.17790811
0.06256109 0.25513196 0.17693060
0.06256109 0.25513196 0.17106549
0.06256109 0.25610948 0.15444770
0.11241447 0.26001955 0.06256109
0.19941349 0.25513196 0.06256109
0.25904203 0.25024438 0.06256109
0.31769306 0.24144673 0.06256109
0.37829912 0.22873900 0.06256109
0.44477028 0.20821114 0.06256109
0.51612903 0.16813294 0.06256109
0.58357771 0.06256109 0.14565005
0.64125122 0.06256109 0.21114370
0.70772239 0.06256109 0.25513196
0.79178886 0.06256109 0.28836755
0.89247312 0.06256109 0.31867058
0.98631476 0.20821114 0.36950147
0.98631476 0.43206256 0.49755621
0.98631476 0.57282502 0.61094819
0.98631476 0.69990225 0.72238514
0.98631476 0.78690127 0.80058651
0.98631476 0.83870968 0.84848485
0.98631476 0.87683284 0.88465298
0.98631476 0.90909091 0.91397849
0.98631476 0.93646139 0.93939394
0.98631476 0.96089932 0.96285435
0.98631476 0.98338221 0.98338221
0.98631476 0.98631476 0.98631476
0.98631476 0.98631476 0.98631476
0.98631476 0.98631476 0.98631476
0.98631476 0.98631476 0.98631476
0.98631476 0.98631476 0.98631476
0.06256109 0.30205279 0.20430108
0.06256109 0.29912023 0.20234604
0.06256109 0.29716520 0.20136852
0.06256109 0.29521017 0.19843597
0.06256109 0.29521017 0.18866080
0.06256109 0.29814272 0.16324536
0.15053763 0.30009775 0.06256109
0.23460411 0.29521017 0.06256109
0.30107527 0.28934506 0.06256109
0.36559140 0.27956989 0.06256109
0.43401760 0.26588465 0.06256109
0.50733138 0.24437928 0.06256109
0.58748778 0.20625611 0.06256109
0.67350929 0.06256109 0.09481916
0.73607038 0.06256109 0.21896383
0.80840665 0.06256109 0.27468231
0.89540567 0.06256109 0.31964809
0.98631476 0.22189638 0.37341153
0.98631476 0.43695015 0.50146628
0.98631476 0.57771261 0.61485826
0.98631476 0.70478983 0.72629521
0.98631476 0.78690127 0.80058651
0.98631476 0.83773216 0.84750733
0.98631476 0.87683284 0.88367546
0.98631476 0.90811339 0.91300098
0.98631476 0.93646139 0.93939394
0.98631476 0.96089932 0.96285435
0.98631476 0.98338221 0.98435973
0.98631476 0.98631476 0.98631476
0.98631476 0.98631476 0.98631476
0.98631476 0.98631476 0.98631476
0.98631476 0.98631476 0.98631476
0.98631476 0.98631476 0.98631476
0.06256109 0.34897361 0.23167155
0.06256109 0.34604106 0.22971652
0.06256109 0.34310850 0.22873900
0.06256109 0.34115347 0.22678397
0.06256109 0.34017595 0.22091887
0.06256109 0.34115347 0.20625611
0.06256109 0.34506354 0.16715543
0.18670577 0.34506354 0.06256109
0.27370479 0.33919844 0.06256109
0.34701857 0.33235582 0.06256109
0.41935484 0.32258065 0.06256109
0.49560117 0.30791789 0.06256109
0.57771261 0.28445748 0.06256109
0.66666667 0.24731183 0.06256109
0.76441838 0.16324536 0.06256109
0.84164223 0.06256109 0.22287390
0.92179863 0.06256109 0.29423265
0.98631476 0.24437928 0.37829912
0.98631476 0.44183773 0.50537634
0.98631476 0.58162268 0.61876833
0.98631476 0.70772239 0.72922776
0.98631476 0.78494624 0.79960899
0.98631476 0.83577713 0.84555230
0.98631476 0.87487781 0.88172043
0.98631476 0.90713587 0.91202346
0.98631476 0.93548387 0.93841642
0.98631476 0.96089932 0.96187683
0.98631476 0.98338221 0.98338221
0.98631476 0.98631476 0.98631476
0.98631476 0.98631476 0.98631476
0.98631476 0.98631476 0.98631476
0.98631476 0.98631476 0.98631476
0.98631476 0.98631476 0.98631476
0.06256109 0.40175953 0.26295210
0.06256109 0.39882698 0.26099707
0.06256109 0.39589443 0.25904203
0.06256109 0.39296188 0.25806452
0.06256109 0.39002933 0.25513196
0.06256109 0.39002933 0.24437928
0.06256109 0.39198436 0.22385142
0.06256109 0.39687195 0.16520039
0.22482893 0.39491691 0.06256109
0.31769306 0.38905181 0.06256109
0.39882698 0.38123167 0.06256109
0.47898338 0.36950147 0.06256109
0.56402737 0.35386119 0.06256109
0.65591398 0.32942326 0.06256109
0.75562072 0.29032258 0.06256109
0.86412512 0.21505376 0.06256109
0.95992180 0.06256109 0.22091887
0.98631476 0.31867058 0.38905181
0.98631476 0.45943304 0.51319648
0.98631476 0.58651026 0.62170088
0.98631476 0.70772239 0.72922776
0.98631476 0.78103617 0.79569892
0.98631476 0.83186706 0.84261975
0.98631476 0.87194526 0.87976540
0.98631476 0.90518084 0.91006843
0.98631476 0.93352884 0.93743891
0.98631476 0.95992180 0.96089932
0.98631476 0.98240469 0.98338221
0.98631476 0.98631476 0.98631476
0.98631476 0.98631476 0.98631476
0.98631476 0.98631476 0.98631476
0.98631476 0.98631476 0.98631476
0.98631476 0.98631476 0.98631476
0.06256109 0.46041056 0.29716520
0.06256109 0.45747801 0.29618768
0.06256109 0.45356794 0.29423265
0.06256109 0.45063539 0.29227761
0.06256109 0.44770283 0.29032258
0.06256109 0.44574780 0.28347996
0.06256109 0.44672532 0.26979472
0.06256109 0.44868035 0.24242424
0.06256109 0.45454545 0.15053763
0.26686217 0.45063539 0.06256109
0.36656891 0.44379277 0.06256109
0.45552297 0.43499511 0.06256109
0.54545455 0.42228739 0.06256109
0.64027370 0.40469208 0.06256109
0.74291300 0.37927664 0.06256109
0.85337243 0.33822092 0.06256109
0.97458456 0.26490714 0.06256109
0.98631476 0.38611926 0.39980450
0.98631476 0.50048876 0.52981427
0.98631476 0.60703812 0.63538612
0.98631476 0.70478983 0.72629521
0.98631476 0.77517107 0.79081134
0.98631476 0.82600196 0.83675464
0.98631476 0.86705767 0.87487781
0.98631476 0.90127077 0.90713587
0.98631476 0.93059629 0.93450635
0.98631476 0.95698925 0.95894428
0.98631476 0.98142717 0.98142717
0.98631476 0.98631476 0.98631476
0.98631476 0.98631476 0.98631476
0.98631476 0.98631476 0.98631476
0.98631476 0.98631476 0.98631476
0.98631476 0.98631476 0.98631476
0.06256109 0.52590420 0.33626588
0.06256109 0.52297165 0.33431085
0.06256109 0.51906158 0.33235582
0.06256109 0.51515152 0.33040078
0.06256109 0.51124145 0.32844575
0.06256109 0.50830890 0.32551320
0.06256109 0.50733138 0.31476051
0.06256109 0.50830890 0.29716520
0.06256109 0.51221896 0.26001955
0.09481916 0.51906158 0.06256109
0.31182796 0.51221896 0.06256109
0.42033236 0.50439883 0.06256109
0.52003910 0.49462366 0.06256109
0.61974585 0.48093842 0.06256109
0.72531769 0.46138807 0.06256109
0.83968719 0.43401760 0.06256109
0.96285435 0.39002933 0.06256109
0.98631476 0.45552297 0.41348974
0.98631476 0.54838710 0.55131965
0.98631476 0.64320626 0.65786901
0.98631476 0.72043011 0.73607038
0.98631476 0.76735093 0.78299120
0.98631476 0.81720430 0.82893451
0.98631476 0.86021505 0.86803519
0.98631476 0.89540567 0.90127077
0.98631476 0.92668622 0.93059629
0.98631476 0.95405670 0.95601173
0.98631476 0.97947214 0.97947214
0.98631476 0.98631476 0.98631476
0.98631476 0.98631476 0.98631476
0.98631476 0.98631476 0.98631476
0.98631476 0.98631476 0.98631476
0.98631476 0.98631476 0.98631476
0.06256109 0.59921799 0.38025415
0.06256109 0.59530792 0.37732160
0.06256109 0.59139785 0.37536657
0.06256109 0.58748778 0.37243402
0.06256109 0.58357771 0.37047898
0.06256109 0.57966764 0.36852395
0.06256109 0.57673509 0.36265885
0.06256109 0.57673509 0.34897361
0.06256109 0.57869013 0.32649071
0.06256109 0.58260020 0.27761486
0.18181818 0.58846530 0.06256109
0.36265885 0.58064516 0.06256109
0.48093842 0.57184751 0.06256109
0.59042033 0.56109482 0.06256109
0.70283480 0.54545455 0.06256109
0.82013685 0.52492669 0.06256109
0.94721408 0.49462366 0.06256109
0.98631476 0.52883675 0.42815249
0.98631476 0.60410557 0.57771261
0.98631476 0.68523949 0.68426197
0.98631476 0.73998045 0.74780059
0.98631476 0.77908113 0.78983382
0.98631476 0.81036168 0.82209189
0.98631476 0.84946237 0.85826002
0.98631476 0.88758553 0.89345064
0.98631476 0.92082111 0.92473118
0.98631476 0.94916911 0.95210166
0.98631476 0.97556207 0.97653959
0.98631476 0.98631476 0.98631476
0.98631476 0.98631476 0.98631476
0.98631476 0.98631476 0.98631476
0.98631476 0.98631476 0.98631476
0.98631476 0.98631476 0.98631476
0.06256109 0.68230694 0.42913001
0.06256109 0.67741935 0.42619746
0.06256109 0.67253177 0.42326491
0.06256109 0.66862170 0.42033236
0.06256109 0.66373412 0.41837732
0.06256109 0.65982405 0.41544477
0.06256109 0.65493646 0.41251222
0.06256109 0.65298143 0.40371457
0.06256109 0.65298143 0.38611926
0.06256109 0.65591398 0.35777126
0.06256109 0.66080156 0.29423265
0.23753666 0.66471163 0.06256109
0.41837732 0.65689150 0.06256109
0.54740958 0.64711632 0.06256109
0.66959922 0.63440860 0.06256109
0.79374389 0.61779081 0.06256109
0.92570870 0.59433040 0.06256109
0.98631476 0.60801564 0.44086022
0.98631476 0.66764418 0.61290323
0.98631476 0.72238514 0.70576735
0.98631476 0.76148583 0.76050831
0.98631476 0.79374389 0.79863148
0.98631476 0.82013685 0.82795699
0.98631476 0.84457478 0.85337243
0.98631476 0.87585533 0.88367546
0.98631476 0.91202346 0.91593353
0.98631476 0.94232649 0.94525904
0.98631476 0.97067449 0.97165200
0.98631476 0.98631476 0.98631476
0.98631476 0.98631476 0.98631476
0.98631476 0.98631476 0.98631476
0.98631476 0.98631476 0.98631476
0.98631476 0.98631476 0.98631476
0.06256109 0.77419355 0.48289345
0.06256109 0.76930596 0.47996090
0.06256109 0.76344086 0.47702835
0.06256109 0.75855327 0.47409580
0.06256109 0.75366569 0.47116325
0.06256109 0.74877810 0.46823069
0.06256109 0.74389052 0.46529814
0.06256109 0.73998045 0.46138807
0.06256109 0.73802542 0.44770283
0.06256109 0.73900293 0.42717498
0.06256109 0.74193548 0.39100684
0.06256109 0.74780059 0.30987292
0.29325513 0.75073314 0.06256109
0.47996090 0.74193548 0.06256109
0.62267840 0.73020528 0.06256109
0.75757576 0.71652004 0.06256109
0.89638319 0.69794721 0.06256109
0.98631476 0.69501466 0.44574780
0.98631476 0.72825024 0.64027370
0.98631476 0.75757576 0.72238514
0.98631476 0.78494624 0.77223851
0.98631476 0.80938416 0.80742913
0.98631476 0.83186706 0.83577713
0.98631476 0.85337243 0.85923754
0.98631476 0.87292278 0.87976540
0.98631476 0.89931574 0.90518084
0.98631476 0.93352884 0.93646139
0.98631476 0.96383187 0.96480938
0.98631476 0.98631476 0.98631476
0.98631476 0.98631476 0.98631476
0.98631476 0.98631476 0.98631476
0.98631476 0.98631476 0.98631476
0.98631476 0.98631476 0.98631476
0.06256109 0.87683284 0.54349951
0.06256109 0.87194526 0.54056696
0.06256109 0.86608016 0.53763441
0.06256109 0.86021505 0.53372434
0.06256109 0.85434995 0.53079179
0.06256109 0.84946237 0.52785924
0.06256109 0.84359726 0.52394917
0.06256109 0.83773216 0.52101662
0.06256109 0.83382209 0.51319648
0.06256109 0.83284457 0.49755621
0.06256109 0.83382209 0.47214076
0.06256109 0.83773216 0.42717498
0.06256109 0.84457478 0.32355816
0.35092864 0.84652981 0.06256109
0.54838710 0.83577713 0.06256109
0.70478983 0.82209189 0.06256109
0.84946237 0.80156403 0.06256109
0.98631476 0.77126100 0.19257087
0.98631476 0.77712610 0.63440860
0.98631476 0.79178886 0.73020528
0.98631476 0.80938416 0.78201369
0.98631476 0.82697947 0.81622678
0.98631476 0.84555230 0.84359726
0.98631476 0.86314761 0.86510264
0.98631476 0.88074291 0.88563050
0.98631476 0.89833822 0.90322581
0.98631476 0.92082111 0.92570870
0.98631476 0.95405670 0.95601173
0.98631476 0.98338221 0.98338221
0.98631476 0.98631476 0.98631476
0.98631476 0.98631476 0.98631476
0.98631476 0.98631476 0.98631476
0.98631476 0.98631476 0.98631476
0.06256109 0.94721408 0.58553275
0.06256109 0.94525904 0.58357771
0.06256109 0.94232649 0.58260020
0.06256109 0.93939394 0.58064516
0.06256109 0.93548387 0.57869013
0.06256109 0.93255132 0.57673509
0.06256109 0.92864125 0.57478006
0.06256109 0.92473118 0.57184751
0.06256109 0.92082111 0.56989247
0.06256109 0.91886608 0.55913978
0.06256109 0.91886608 0.54056696
0.06256109 0.91984360 0.51026393
0.06256109 0.92277615 0.45650049
0.06256109 0.92766373 0.32649071
0.40078201 0.92277615 0.06256109
0.60117302 0.90420332 0.06256109
0.75953079 0.88074291 0.06256109
0.90322581 0.85043988 0.06256109
0.98631476 0.82209189 0.54349951
0.98631476 0.82404692 0.72336266
0.98631476 0.83382209 0.78787879
0.98631476 0.84652981 0.82502444
0.98631476 0.86021505 0.85141740
0.98631476 0.87487781 0.87292278
0.98631476 0.89051808 0.89149560
0.98631476 0.90615836 0.90909091
0.98631476 0.92179863 0.92473118
0.98631476 0.94134897 0.94428152
0.98631476 0.97360704 0.97458456
0.98631476 0.98631476 0.98631476
0.98631476 0.98631476 0.98631476
0.98631476 0.98631476 0.98631476
0.98631476 0.98631476 0.98631476
0.27174976 0.98631476 0.62463343
0.21896383 0.98631476 0.61681329
0.06256109 0.98631476 0.60899316
0.06256109 0.98435973 0.60703812
0.06256109 0.98240469 0.60606061
0.06256109 0.97947214 0.60508309
0.06256109 0.97653959 0.60312805
0.06256109 0.97360704 0.60117302
0.06256109 0.97067449 0.59921799
0.06256109 0.96676442 0.59726295
0.06256109 0.96676442 0.58357771
0.06256109 0.96676442 0.56207234
0.06256109 0.96774194 0.52883675
0.06256109 0.97067449 0.46725318
0.06256109 0.97556207 0.31378299
0.43695015 0.96578690 0.06256109
0.63636364 0.94428152 0.06256109
0.79472141 0.91788856 0.06256109
0.93939394 0.88367546 0.06256109
0.98631476 0.85826002 0.66764418
0.98631476 0.85923754 0.78396872
0.98631476 0.86705767 0.83186706
0.98631476 0.87683284 0.86021505
0.98631476 0.88856305 0.88172043
0.98631476 0.90127077 0.89931574
0.98631476 0.91397849 0.91495601
0.98631476 0.92864125 0.93059629
0.98631476 0.94330401 0.94525904
0.98631476 0.96089932 0.96187683
0.98631476 0.98631476 0.98631476
0.98631476 0.98631476 0.98631476
0.98631476 0.98631476 0.98631476
0.98631476 0.98631476 0.98631476
0.59824047 0.98631476 0.74095797
0.58846530 0.98631476 0.73607038
0.57771261 0.98631476 0.73118280
0.56598240 0.98631476 0.72531769
0.55327468 0.98631476 0.71945259
0.53958944 0.98631476 0.71260997
0.52394917 0.98631476 0.70478983
0.50537634 0.98631476 0.69696970
0.48191593 0.98631476 0.68719453
0.45356794 0.98631476 0.67546432
0.42424242 0.98631476 0.66275660
0.42033236 0.98631476 0.65004888
0.42326491 0.98631476 0.63440860
0.43304008 0.98631476 0.61094819
0.45356794 0.98631476 0.57673509
0.48680352 0.98631476 0.51808407
0.53763441 0.98631476 0.38611926
0.66373412 0.97458456 0.06256109
0.82306940 0.94525904 0.06256109
0.96871945 0.90909091 0.06256109
0.98631476 0.88758553 0.75073314
0.98631476 0.88856305 0.83186706
0.98631476 0.89442815 0.86803519
0.98631476 0.90322581 0.89051808
0.98631476 0.91300098 0.90811339
0.98631476 0.92375367 0.92277615
0.98631476 0.93646139 0.93743891
0.98631476 0.94916911 0.95112414
0.98631476 0.96285435 0.96383187
0.98631476 0.97947214 0.97947214
0.98631476 0.98631476 0.98631476
0.98631476 0.98631476 0.98631476
0.98631476 0.98631476 0.98631476
0.74389052 0.98631476 0.82404692
0.73704790 0.98631476 0.82013685
0.73020528 0.98631476 0.81524927
0.72336266 0.98631476 0.81133920
0.71652004 0.98631476 0.80742913
0.70772239 0.98631476 0.80254154
0.69892473 0.98631476 0.79667644
0.68914956 0.98631476 0.79081134
0.67741935 0.98631476 0.78396872
0.66275660 0.98631476 0.77614858
0.64516129 0.98631476 0.76637341
0.63245357 0.98631476 0.75659824
0.63049853 0.98631476 0.74780059
0.63049853 0.98631476 0.73704790
0.63440860 0.98631476 0.72336266
0.64320626 0.98631476 0.70185728
0.65884653 0.98631476 0.66959922
0.68426197 0.98631476 0.60899316
0.72825024 0.98631476 0.45161290
0.84750733 0.96871945 0.06256109
0.98631476 0.92961877 0.39296188
0.98631476 0.91202346 0.81524927
0.98631476 0.91397849 0.87292278
0.98631476 0.91886608 0.89931574
0.98631476 0.92668622 0.91788856
0.98631476 0.93548387 0.93157380
0.98631476 0.94525904 0.94525904
0.98631476 0.95698925 0.95698925
0.98631476 0.96871945 0.96969697
0.98631476 0.98240469 0.98240469
0.98631476 0.98631476 0.98631476
0.98631476 0.98631476 0.98631476
0.98631476 0.98631476 0.98631476
0.84652981 0.98631476 0.88954057
0.84164223 0.98631476 0.88563050
0.83675464 0.98631476 0.88269795
0.83088954 0.98631476 0.87976540
0.82600196 0.98631476 0.87585533
0.82013685 0.98631476 0.87194526
0.81329423 0.98631476 0.86803519
0.80645161 0.98631476 0.86314761
0.79765396 0.98631476 0.85728250
0.78787879 0.98631476 0.85141740
0.77614858 0.98631476 0.84457478
0.76246334 0.98631476 0.83479961
0.75562072 0.98631476 0.82795699
0.75366569 0.98631476 0.82209189
0.75268817 0.98631476 0.81524927
0.75464321 0.98631476 0.80547410
0.75855327 0.98631476 0.79178886
0.76735093 0.98631476 0.77223851
0.78299120 0.98631476 0.73704790
