agilex5e-ed/a5e065b-mod-devkit/src/vds/test_luts/pq_to_bt709.cube
# hdr-sdr-cubes 0.1.0
# input=pq output=bt709 type=II matrix_comp=709
# chroma_gain=1.2 alpha=0.04 pq_peak=1000.0
# output=BT.709 BT.1886 (BT.2446 Method C + 2020->709)  interpolator=tetrahedral  legalise=AFTER LUT (R103 then 4-1019)
# DOMAIN 0-1 = 10-bit code/1023; output is narrow-range in a full 0-1023 container
# matrix_comp=709 is a locked variant: 709 YCbCr hardware on a BT.2100 SDI input
TITLE "pq_to_bt709_typeII_mtx709_cg120"
LUT_3D_SIZE 9
DOMAIN_MIN 0.0 0.0 0.0
DOMAIN_MAX 1.0 1.0 1.0
0.06256109 0.06256109 0.06256109
0.16520039 0.06256109 0.09384164
0.30987292 0.06256109 0.13880743
0.52981427 0.06256109 0.20723363
0.86119257 0.06256109 0.30889541
0.98631476 0.65884653 0.68621701
0.98631476 0.90127077 0.90713587
0.98631476 0.98631476 0.98631476
0.98631476 0.98631476 0.98631476
0.06256109 0.15835777 0.11925709
0.15933529 0.15542522 0.06256109
0.33040078 0.06256109 0.12023460
0.54154448 0.06256109 0.21016618
0.88074291 0.06256109 0.31476051
0.98631476 0.68328446 0.70674487
0.98631476 0.90713587 0.91202346
0.98631476 0.98631476 0.98631476
0.98631476 0.98631476 0.98631476
0.06256109 0.30205279 0.20430108
0.06256109 0.29521017 0.18866080
0.30107527 0.28934506 0.06256109
0.58748778 0.20625611 0.06256109
0.89540567 0.06256109 0.31964809
0.98631476 0.70478983 0.72629521
0.98631476 0.90811339 0.91300098
0.98631476 0.98631476 0.98631476
0.98631476 0.98631476 0.98631476
0.06256109 0.52590420 0.33626588
0.06256109 0.51124145 0.32844575
0.06256109 0.51221896 0.26001955
0.52003910 0.49462366 0.06256109
0.96285435 0.39002933 0.06256109
0.98631476 0.72043011 0.73607038
0.98631476 0.89540567 0.90127077
0.98631476 0.98631476 0.98631476
0.98631476 0.98631476 0.98631476
0.06256109 0.87683284 0.54349951
0.06256109 0.85434995 0.53079179
0.06256109 0.83382209 0.51319648
0.06256109 0.84457478 0.32355816
0.84946237 0.80156403 0.06256109
0.98631476 0.80938416 0.78201369
0.98631476 0.88074291 0.88563050
0.98631476 0.98338221 0.98338221
0.98631476 0.98631476 0.98631476
0.74389052 0.98631476 0.82404692
0.71652004 0.98631476 0.80742913
0.67741935 0.98631476 0.78396872
0.63049853 0.98631476 0.74780059
0.65884653 0.98631476 0.66959922
0.98631476 0.92961877 0.39296188
0.98631476 0.92668622 0.91788856
0.98631476 0.96871945 0.96969697
0.98631476 0.98631476 0.98631476
0.98631476 0.98631476 0.98631476
0.98631476 0.98631476 0.98631476
0.98631476 0.98631476 0.98631476
0.98631476 0.98631476 0.98631476
0.98338221 0.98631476 0.98338221
0.97947214 0.98631476 0.97947214
0.98631476 0.98631476 0.98631476
0.98631476 0.98631476 0.98631476
0.98631476 0.98631476 0.98631476
0.98631476 0.98631476 0.98631476
0.98631476 0.98631476 0.98631476
0.98631476 0.98631476 0.98631476
0.98631476 0.98631476 0.98631476
0.98631476 0.98631476 0.98631476
0.98631476 0.98631476 0.98631476
0.98631476 0.98631476 0.98631476
0.98631476 0.98631476 0.98631476
0.98631476 0.98631476 0.98631476
0.98631476 0.98631476 0.98631476
0.98631476 0.98631476 0.98631476
0.98631476 0.98631476 0.98631476
0.98631476 0.98631476 0.98631476
0.98631476 0.98631476 0.98631476
0.98631476 0.98631476 0.98631476
0.98631476 0.98631476 0.98631476
0.98631476 0.98631476 0.98631476
0.98631476 0.98631476 0.98631476
0.06256109 0.09970674 0.18866080
0.17106549 0.06256109 0.16422287
0.31378299 0.06256109 0.16422287
0.53274682 0.06256109 0.20723363
0.86412512 0.06256109 0.30987292
0.98631476 0.66177908 0.68817204
0.98631476 0.90224829 0.90713587
0.98631476 0.98631476 0.98631476
0.98631476 0.98631476 0.98631476
0.06256109 0.16226784 0.15542522
0.15640274 0.15640274 0.15640274
0.33137830 0.06256109 0.15249267
0.54447703 0.06256109 0.21114370
0.88269795 0.06256109 0.31573803
0.98631476 0.68523949 0.70967742
0.98631476 0.90713587 0.91300098
0.98631476 0.98631476 0.98631476
0.98631476 0.98631476 0.98631476
0.06256109 0.30498534 0.21212121
0.06256109 0.29814272 0.19941349
0.30107527 0.29227761 0.06256109
0.58846530 0.21016618 0.06256109
0.89736070 0.06256109 0.32062561
0.98631476 0.70674487 0.72825024
0.98631476 0.90909091 0.91397849
0.98631476 0.98631476 0.98631476
0.98631476 0.98631476 0.98631476
0.06256109 0.53079179 0.33919844
0.06256109 0.51612903 0.33040078
0.06256109 0.51612903 0.26490714
0.51906158 0.49853372 0.06256109
0.96480938 0.39589443 0.06256109
0.98631476 0.72238514 0.73704790
0.98631476 0.89540567 0.90127077
0.98631476 0.98631476 0.98631476
0.98631476 0.98631476 0.98631476
0.06256109 0.88367546 0.54740958
0.06256109 0.86119257 0.53470186
0.06256109 0.84066471 0.51808407
0.06256109 0.85043988 0.33235582
0.84750733 0.80645161 0.06256109
0.98631476 0.81036168 0.78299120
0.98631476 0.88172043 0.88563050
0.98631476 0.98338221 0.98338221
0.98631476 0.98631476 0.98631476
0.75073314 0.98631476 0.82795699
0.72434018 0.98631476 0.81133920
0.68523949 0.98631476 0.78885630
0.63929619 0.98631476 0.75366569
0.66568915 0.98631476 0.67839687
0.98631476 0.93352884 0.26490714
0.98631476 0.92766373 0.91788856
0.98631476 0.96969697 0.97067449
0.98631476 0.98631476 0.98631476
0.98631476 0.98631476 0.98631476
0.98631476 0.98631476 0.98631476
0.98631476 0.98631476 0.98631476
0.98631476 0.98631476 0.98631476
0.98631476 0.98631476 0.98631476
0.98338221 0.98631476 0.98338221
0.98631476 0.98631476 0.98631476
0.98631476 0.98631476 0.98631476
0.98631476 0.98631476 0.98631476
0.98631476 0.98631476 0.98631476
0.98631476 0.98631476 0.98631476
0.98631476 0.98631476 0.98631476
0.98631476 0.98631476 0.98631476
0.98631476 0.98631476 0.98631476
0.98631476 0.98631476 0.98631476
0.98631476 0.98631476 0.98631476
0.98631476 0.98631476 0.98631476
0.98631476 0.98631476 0.98631476
0.98631476 0.98631476 0.98631476
0.98631476 0.98631476 0.98631476
0.98631476 0.98631476 0.98631476
0.98631476 0.98631476 0.98631476
0.98631476 0.98631476 0.98631476
0.98631476 0.98631476 0.98631476
0.98631476 0.98631476 0.98631476
0.98631476 0.98631476 0.98631476
0.98631476 0.98631476 0.98631476
0.06256109 0.15542522 0.37438905
0.06256109 0.11632454 0.37341153
0.32649071 0.06256109 0.31378299
0.54154448 0.06256109 0.30400782
0.86901271 0.06256109 0.33137830
0.98631476 0.66568915 0.69110459
0.98631476 0.90224829 0.90811339
0.98631476 0.98631476 0.98631476
0.98631476 0.98631476 0.98631476
0.06256109 0.16422287 0.29130010
0.06256109 0.14271750 0.32258065
0.32746823 0.06256109 0.30400782
0.55131965 0.06256109 0.30205279
0.88758553 0.06256109 0.33235582
0.98631476 0.68914956 0.71260997
0.98631476 0.90811339 0.91300098
0.98631476 0.98631476 0.98631476
0.98631476 0.98631476 0.98631476
0.06256109 0.31085044 0.29130010
0.06256109 0.30107527 0.28934506
0.29423265 0.29423265 0.29423265
0.60801564 0.17106549 0.26588465
0.90224829 0.06256109 0.32844575
0.98631476 0.70967742 0.73118280
0.98631476 0.90909091 0.91397849
0.98631476 0.98631476 0.98631476
0.98631476 0.98631476 0.98631476
0.06256109 0.53665689 0.37341153
0.06256109 0.52199413 0.36559140
0.06256109 0.52003910 0.32551320
0.52003910 0.50439883 0.10166178
0.96774194 0.39882698 0.06256109
0.98631476 0.72238514 0.73802542
0.98631476 0.89540567 0.90127077
0.98631476 0.98631476 0.98631476
0.98631476 0.98631476 0.98631476
0.06256109 0.88856305 0.55131965
0.06256109 0.86803519 0.53861193
0.06256109 0.84652981 0.52297165
0.06256109 0.85728250 0.34604106
0.84457478 0.81133920 0.06256109
0.98631476 0.81133920 0.78299120
0.98631476 0.88172043 0.88563050
0.98631476 0.98338221 0.98338221
0.98631476 0.98631476 0.98631476
0.75562072 0.98631476 0.83088954
0.72922776 0.98631476 0.81524927
0.69208211 0.98631476 0.79276637
0.64516129 0.98631476 0.75757576
0.66959922 0.98631476 0.68523949
0.98240469 0.93646139 0.06256109
0.98631476 0.92766373 0.91886608
0.98631476 0.96969697 0.97067449
0.98631476 0.98631476 0.98631476
0.98631476 0.98631476 0.98631476
0.98631476 0.98631476 0.98631476
0.98631476 0.98631476 0.98631476
0.98631476 0.98631476 0.98631476
0.98631476 0.98631476 0.98631476
0.98533724 0.98631476 0.98533724
0.98631476 0.98631476 0.98631476
0.98631476 0.98631476 0.98631476
0.98631476 0.98631476 0.98631476
0.98631476 0.98631476 0.98631476
0.98631476 0.98631476 0.98631476
0.98631476 0.98631476 0.98631476
0.98631476 0.98631476 0.98631476
0.98631476 0.98631476 0.98631476
0.98631476 0.98631476 0.98631476
0.98631476 0.98631476 0.98631476
0.98631476 0.98631476 0.98631476
0.98631476 0.98631476 0.98631476
0.98631476 0.98631476 0.98631476
0.98631476 0.98631476 0.98631476
0.98631476 0.98631476 0.98631476
0.98631476 0.98631476 0.98631476
0.98631476 0.98631476 0.98631476
0.98631476 0.98631476 0.98631476
0.98631476 0.98631476 0.98631476
0.98631476 0.98631476 0.98631476
0.98631476 0.98631476 0.98631476
0.06256109 0.24046921 0.66373412
0.06256109 0.23167155 0.63343109
0.29227761 0.06256109 0.65395894
0.56304985 0.06256109 0.54838710
0.88563050 0.06256109 0.52492669
0.98631476 0.67839687 0.71652004
0.98631476 0.90127077 0.90713587
0.98631476 0.98631476 0.98631476
0.98631476 0.98631476 0.98631476
0.06256109 0.21407625 0.57478006
0.06256109 0.21212121 0.56598240
0.30107527 0.06256109 0.62072336
0.57184751 0.06256109 0.53861193
0.90322581 0.06256109 0.52199413
0.98631476 0.70087977 0.73411535
0.98631476 0.90713587 0.91202346
0.98631476 0.98631476 0.98631476
0.98631476 0.98631476 0.98631476
0.06256109 0.31964809 0.48582600
0.06256109 0.30889541 0.48582600
0.22189638 0.27565982 0.58651026
0.59921799 0.06256109 0.54838710
0.91495601 0.06256109 0.51515152
0.98631476 0.71749756 0.74682307
0.98631476 0.90811339 0.91300098
0.98631476 0.98631476 0.98631476
0.98631476 0.98631476 0.98631476
0.06256109 0.54643206 0.50439883
0.06256109 0.53176931 0.49951124
0.06256109 0.52297165 0.49951124
0.50537634 0.50537634 0.50537634
0.98631476 0.37438905 0.47507331
0.98631476 0.72140762 0.74389052
0.98631476 0.89442815 0.90029326
0.98631476 0.98631476 0.98631476
0.98631476 0.98631476 0.98631476
0.06256109 0.89540567 0.62365591
0.06256109 0.87683284 0.61681329
0.06256109 0.85532747 0.60703812
0.06256109 0.86217009 0.52199413
0.83968719 0.81427175 0.31182796
0.98631476 0.80938416 0.78201369
0.98631476 0.87976540 0.88465298
0.98631476 0.98240469 0.98240469
0.98631476 0.98631476 0.98631476
0.75659824 0.98631476 0.83284457
0.73020528 0.98631476 0.81720430
0.69305963 0.98631476 0.79667644
0.64125122 0.98631476 0.76050831
0.66373412 0.98631476 0.68719453
0.97556207 0.93841642 0.06256109
0.98631476 0.92766373 0.91788856
0.98631476 0.96969697 0.97067449
0.98631476 0.98631476 0.98631476
0.98631476 0.98631476 0.98631476
0.98631476 0.98631476 0.98631476
0.98631476 0.98631476 0.98631476
0.98631476 0.98631476 0.98631476
0.98631476 0.98631476 0.98631476
0.98631476 0.98631476 0.98631476
0.98631476 0.98631476 0.98631476
0.98631476 0.98631476 0.98631476
0.98631476 0.98631476 0.98631476
0.98631476 0.98631476 0.98631476
0.98631476 0.98631476 0.98631476
0.98631476 0.98631476 0.98631476
0.98631476 0.98631476 0.98631476
0.98631476 0.98631476 0.98631476
0.98631476 0.98631476 0.98631476
0.98631476 0.98631476 0.98631476
0.98631476 0.98631476 0.98631476
0.98631476 0.98631476 0.98631476
0.98631476 0.98631476 0.98631476
0.98631476 0.98631476 0.98631476
0.98631476 0.98631476 0.98631476
0.98631476 0.98631476 0.98631476
0.98631476 0.98631476 0.98631476
0.98631476 0.98631476 0.98631476
0.98631476 0.98631476 0.98631476
0.98631476 0.98631476 0.98631476
0.98631476 0.98631476 0.98631476
0.31378299 0.41055718 0.98631476
0.29814272 0.40078201 0.98631476
0.18279570 0.35092864 0.98631476
0.51906158 0.26001955 0.98631476
0.91886608 0.06256109 0.91104594
0.98631476 0.72140762 0.81231672
0.98631476 0.90518084 0.91495601
0.98631476 0.98631476 0.98631476
0.98631476 0.98631476 0.98631476
0.24828935 0.37536657 0.98631476
0.23753666 0.37047898 0.98631476
0.06256109 0.33235582 0.97360704
0.53958944 0.23167155 0.98631476
0.93646139 0.06256109 0.90029326
0.98631476 0.73802542 0.81720430
0.98631476 0.91006843 0.91886608
0.98631476 0.98631476 0.98631476
0.98631476 0.98631476 0.98631476
0.06256109 0.30009775 0.86314761
0.06256109 0.30107527 0.86705767
0.06256109 0.29618768 0.85043988
0.54252199 0.06256109 0.97067449
0.94428152 0.06256109 0.87976540
0.98631476 0.74486804 0.81720430
0.98631476 0.91104594 0.91886608
0.98631476 0.98631476 0.98631476
0.98631476 0.98631476 0.98631476
0.06256109 0.56109482 0.79276637
0.06256109 0.54643206 0.79178886
0.06256109 0.52785924 0.78885630
0.42130987 0.48582600 0.94916911
0.98631476 0.31573803 0.90127077
0.98631476 0.71847507 0.79569892
0.98631476 0.89638319 0.90518084
0.98631476 0.98631476 0.98631476
0.98631476 0.98631476 0.98631476
0.06256109 0.89833822 0.81622678
0.06256109 0.88367546 0.81720430
0.06256109 0.86510264 0.81427175
0.06256109 0.85826002 0.81915934
0.80351906 0.80351906 0.80351906
0.98631476 0.80449658 0.82013685
0.98631476 0.87487781 0.88367546
0.98631476 0.98044966 0.98142717
0.98631476 0.98631476 0.98631476
0.75562072 0.98631476 0.85923754
0.72825024 0.98631476 0.84750733
0.68914956 0.98631476 0.83284457
0.61779081 0.98631476 0.80449658
0.63538612 0.98631476 0.75268817
0.96383187 0.93646139 0.40957967
0.98631476 0.92375367 0.91495601
0.98631476 0.96676442 0.96774194
0.98631476 0.98631476 0.98631476
0.98631476 0.98631476 0.98631476
0.98631476 0.98631476 0.98631476
0.98631476 0.98631476 0.98631476
0.98631476 0.98631476 0.98631476
0.98631476 0.98631476 0.98631476
0.98240469 0.98631476 0.98240469
0.98631476 0.98631476 0.98631476
0.98631476 0.98631476 0.98631476
0.98631476 0.98631476 0.98631476
0.98631476 0.98631476 0.98631476
0.98631476 0.98631476 0.98631476
0.98631476 0.98631476 0.98631476
0.98631476 0.98631476 0.98631476
0.98631476 0.98631476 0.98631476
0.98631476 0.98631476 0.98631476
0.98631476 0.98631476 0.98631476
0.98631476 0.98631476 0.98631476
0.98631476 0.98631476 0.98631476
0.98631476 0.98631476 0.98631476
0.98631476 0.98631476 0.98631476
0.98631476 0.98631476 0.98631476
0.98631476 0.98631476 0.98631476
0.98631476 0.98631476 0.98631476
0.98631476 0.98631476 0.98631476
0.98631476 0.98631476 0.98631476
0.98631476 0.98631476 0.98631476
0.98631476 0.98631476 0.98631476
0.72336266 0.74095797 0.98631476
0.71847507 0.73704790 0.98631476
0.69208211 0.71260997 0.98631476
0.61779081 0.64711632 0.98631476
0.75073314 0.67644184 0.98631476
0.98142717 0.80156403 0.98631476
0.98631476 0.92179863 0.94330401
0.98631476 0.98631476 0.98631476
0.98631476 0.98631476 0.98631476
0.70381232 0.72336266 0.98631476
0.69990225 0.72043011 0.98631476
0.67546432 0.69794721 0.98631476
0.60312805 0.63440860 0.98631476
0.75953079 0.67644184 0.98631476
0.98631476 0.80547410 0.97947214
0.98631476 0.92570870 0.94428152
0.98631476 0.98631476 0.98631476
0.98631476 0.98631476 0.98631476
0.61681329 0.64613881 0.98631476
0.61974585 0.64809384 0.98631476
0.60703812 0.63734115 0.98631476
0.55816227 0.59433040 0.98631476
0.76050831 0.66275660 0.98631476
0.98631476 0.80058651 0.96871945
0.98631476 0.92473118 0.94330401
0.98631476 0.98631476 0.98631476
0.98631476 0.98631476 0.98631476
0.53372434 0.60117302 0.98631476
0.52394917 0.58651026 0.98631476
0.50733138 0.56695992 0.98631476
0.47409580 0.52785924 0.98631476
0.74486804 0.61779081 0.98631476
0.98631476 0.75562072 0.95210166
0.98631476 0.90811339 0.93059629
0.98631476 0.98631476 0.98631476
0.98631476 0.98631476 0.98631476
0.69599218 0.85043988 0.98631476
0.69110459 0.83968719 0.98631476
0.67937439 0.82697947 0.98631476
0.64516129 0.80156403 0.98631476
0.77321603 0.78983382 0.98631476
0.98631476 0.77810362 0.94721408
0.98631476 0.86608016 0.89736070
0.98631476 0.98240469 0.98240469
0.98631476 0.98631476 0.98631476
0.73020528 0.98631476 0.93352884
0.69599218 0.98631476 0.93646139
0.64516129 0.98631476 0.93939394
0.53176931 0.98631476 0.94134897
0.45747801 0.98631476 0.94721408
0.91397849 0.91397849 0.91397849
0.98631476 0.91788856 0.92375367
0.98631476 0.96187683 0.96383187
0.98631476 0.98631476 0.98631476
0.98631476 0.98631476 0.98631476
0.98631476 0.98631476 0.98631476
0.98631476 0.98631476 0.98631476
0.98631476 0.98631476 0.98631476
0.98142717 0.98631476 0.98338221
0.97653959 0.98631476 0.97947214
0.98631476 0.98631476 0.98631476
0.98631476 0.98631476 0.98631476
0.98631476 0.98631476 0.98631476
0.98631476 0.98631476 0.98631476
0.98631476 0.98631476 0.98631476
0.98631476 0.98631476 0.98631476
0.98631476 0.98631476 0.98631476
0.98631476 0.98631476 0.98631476
0.98631476 0.98631476 0.98631476
0.98631476 0.98631476 0.98631476
0.98631476 0.98631476 0.98631476
0.98631476 0.98631476 0.98631476
0.98631476 0.98631476 0.98631476
0.98631476 0.98631476 0.98631476
0.98631476 0.98631476 0.98631476
0.98631476 0.98631476 0.98631476
0.98631476 0.98631476 0.98631476
0.98631476 0.98631476 0.98631476
0.98631476 0.98631476 0.98631476
0.98631476 0.98631476 0.98631476
0.98631476 0.98631476 0.98631476
0.98631476 0.98631476 0.98631476
0.98631476 0.98631476 0.98631476
0.98631476 0.98631476 0.98631476
0.98631476 0.98631476 0.98631476
0.95307918 0.95503421 0.98631476
0.95307918 0.94525904 0.98631476
0.98435973 0.96480938 0.98631476
0.98631476 0.98631476 0.98631476
0.98631476 0.98631476 0.98631476
0.98631476 0.98631476 0.98631476
0.98631476 0.98631476 0.98631476
0.98631476 0.98631476 0.98631476
0.98631476 0.98631476 0.98631476
0.94330401 0.94525904 0.98631476
0.95210166 0.94330401 0.98631476
0.98631476 0.96578690 0.98631476
0.98631476 0.98631476 0.98631476
0.98631476 0.98631476 0.98631476
0.98631476 0.98631476 0.98631476
0.98631476 0.98631476 0.98631476
0.98631476 0.98631476 0.98631476
0.98631476 0.98631476 0.98631476
0.92082111 0.92375367 0.98631476
0.94525904 0.93157380 0.98631476
0.98631476 0.96187683 0.98533724
0.98631476 0.98631476 0.98631476
0.98631476 0.98631476 0.98631476
0.91886608 0.92277615 0.98631476
0.92864125 0.93157380 0.98631476
0.92864125 0.93255132 0.98631476
0.90420332 0.90811339 0.98631476
0.84261975 0.84848485 0.98631476
0.91593353 0.88856305 0.98631476
0.98631476 0.94232649 0.98142717
0.98631476 0.98631476 0.98631476
0.98631476 0.98631476 0.98631476
0.81036168 0.83577713 0.98631476
0.80449658 0.82893451 0.98631476
0.79374389 0.81720430 0.98631476
0.76832845 0.79276637 0.98631476
0.72629521 0.74584555 0.98631476
0.84555230 0.77712610 0.98631476
0.98631476 0.87683284 0.96871945
0.98631476 0.98631476 0.98631476
0.98631476 0.98631476 0.98631476
0.89345064 0.94330401 0.98631476
0.88856305 0.93743891 0.98631476
0.88172043 0.93157380 0.98631476
0.86510264 0.91984360 0.98631476
0.82893451 0.89540567 0.98631476
0.88367546 0.89051808 0.98631476
0.98631476 0.89442815 0.96774194
0.98631476 0.95210166 0.96089932
0.98631476 0.98631476 0.98631476
0.98631476 0.98631476 0.98631476
0.98631476 0.98631476 0.98631476
0.98631476 0.98631476 0.98631476
0.98631476 0.98631476 0.98631476
0.96285435 0.98631476 0.98338221
0.94134897 0.98631476 0.98142717
0.98044966 0.98044966 0.98044966
0.98631476 0.98631476 0.98631476
0.98631476 0.98631476 0.98631476
0.98631476 0.98631476 0.98631476
0.98631476 0.98631476 0.98631476
0.98631476 0.98631476 0.98631476
0.98631476 0.98631476 0.98631476
0.98631476 0.98631476 0.98631476
0.98631476 0.98631476 0.98631476
0.98631476 0.98631476 0.98631476
0.98631476 0.98631476 0.98631476
0.98631476 0.98631476 0.98631476
0.98631476 0.98631476 0.98631476
0.98631476 0.98631476 0.98631476
0.98631476 0.98631476 0.98631476
0.98631476 0.98631476 0.98631476
0.98631476 0.98631476 0.98631476
0.98631476 0.98631476 0.98631476
0.98631476 0.98631476 0.98631476
0.98631476 0.98631476 0.98631476
0.98631476 0.98631476 0.98631476
0.98631476 0.98631476 0.98631476
0.98631476 0.98631476 0.98631476
0.98631476 0.98631476 0.98631476
0.98631476 0.98631476 0.98631476
0.98631476 0.98631476 0.98631476
0.98631476 0.98631476 0.98631476
0.98631476 0.98631476 0.98631476
0.98631476 0.98631476 0.98631476
0.98631476 0.98631476 0.98631476
0.98631476 0.98631476 0.98631476
0.98631476 0.98631476 0.98631476
0.98631476 0.98631476 0.98631476
0.98631476 0.98631476 0.98631476
0.98631476 0.98631476 0.98631476
0.98631476 0.98631476 0.98631476
0.98631476 0.98631476 0.98631476
0.98631476 0.98631476 0.98631476
0.98631476 0.98631476 0.98631476
0.98631476 0.98631476 0.98631476
0.98631476 0.98631476 0.98631476
0.98631476 0.98631476 0.98631476
0.98631476 0.98631476 0.98631476
0.98631476 0.98631476 0.98631476
0.98631476 0.98631476 0.98631476
0.98631476 0.98631476 0.98631476
0.98631476 0.98631476 0.98631476
0.98631476 0.98631476 0.98631476
0.98631476 0.98631476 0.98631476
0.98631476 0.98631476 0.98631476
0.98631476 0.98631476 0.98631476
0.98631476 0.98631476 0.98631476
0.98631476 0.98631476 0.98631476
0.98631476 0.98631476 0.98631476
0.98631476 0.98631476 0.98631476
0.98631476 0.98631476 0.98631476
0.98631476 0.98631476 0.98631476
0.98631476 0.98631476 0.98631476
0.98631476 0.98631476 0.98631476
0.98631476 0.98631476 0.98631476
0.98631476 0.98631476 0.98631476
0.98240469 0.98240469 0.98631476
0.92375367 0.92570870 0.98631476
0.97360704 0.96871945 0.98631476
0.98631476 0.98631476 0.98631476
0.98631476 0.98631476 0.98631476
0.91104594 0.92179863 0.98631476
0.90518084 0.91691105 0.98631476
0.89833822 0.91006843 0.98631476
0.88563050 0.89736070 0.98631476
0.85532747 0.86999022 0.98631476
0.81427175 0.82600196 0.98631476
0.89833822 0.85826002 0.98631476
0.98631476 0.95796676 0.98142717
0.98631476 0.98631476 0.98631476
0.98631476 0.98631476 0.98631476
0.98631476 0.98631476 0.98631476
0.98631476 0.98631476 0.98631476
0.98631476 0.98631476 0.98631476
0.97067449 0.97751711 0.98631476
0.93352884 0.95405670 0.98631476
0.95503421 0.95698925 0.98631476
0.98631476 0.97653959 0.98435973
0.98631476 0.98631476 0.98631476
0.98631476 0.98631476 0.98631476
0.98631476 0.98631476 0.98631476
0.98631476 0.98631476 0.98631476
0.98631476 0.98631476 0.98631476
0.98631476 0.98631476 0.98631476
0.98631476 0.98631476 0.98631476
0.98631476 0.98631476 0.98631476
0.98631476 0.98631476 0.98631476
0.98631476 0.98631476 0.98631476
0.98631476 0.98631476 0.98631476
0.98631476 0.98631476 0.98631476
0.98631476 0.98631476 0.98631476
0.98631476 0.98631476 0.98631476
0.98631476 0.98631476 0.98631476
0.98631476 0.98631476 0.98631476
0.98631476 0.98631476 0.98631476
0.98631476 0.98631476 0.98631476
0.98631476 0.98631476 0.98631476
0.98631476 0.98631476 0.98631476
0.98631476 0.98631476 0.98631476
0.98631476 0.98631476 0.98631476
0.98631476 0.98631476 0.98631476
0.98631476 0.98631476 0.98631476
0.98631476 0.98631476 0.98631476
0.98631476 0.98631476 0.98631476
0.98631476 0.98631476 0.98631476
0.98631476 0.98631476 0.98631476
0.98631476 0.98631476 0.98631476
0.98631476 0.98631476 0.98631476
0.98631476 0.98631476 0.98631476
0.98631476 0.98631476 0.98631476
0.98631476 0.98631476 0.98631476
0.98631476 0.98631476 0.98631476
0.98631476 0.98631476 0.98631476
0.98631476 0.98631476 0.98631476
0.98631476 0.98631476 0.98631476
0.98631476 0.98631476 0.98631476
0.98631476 0.98631476 0.98631476
0.98631476 0.98631476 0.98631476
0.98631476 0.98631476 0.98631476
0.98631476 0.98631476 0.98631476
0.98631476 0.98631476 0.98631476
0.98631476 0.98631476 0.98631476
0.98631476 0.98631476 0.98631476
0.98631476 0.98631476 0.98631476
0.98631476 0.98631476 0.98631476
0.98631476 0.98631476 0.98631476
0.98631476 0.98631476 0.98631476
0.98631476 0.98631476 0.98631476
0.98631476 0.98631476 0.98631476
0.98631476 0.98631476 0.98631476
0.98631476 0.98631476 0.98631476
0.98631476 0.98631476 0.98631476
0.98631476 0.98631476 0.98631476
0.98631476 0.98631476 0.98631476
0.98631476 0.98631476 0.98631476
0.98631476 0.98631476 0.98631476
0.98631476 0.98631476 0.98631476
0.98631476 0.98631476 0.98631476
0.98631476 0.98631476 0.98631476
0.98631476 0.98631476 0.98631476
0.98631476 0.98631476 0.98631476
0.98631476 0.98631476 0.98631476
0.98631476 0.98631476 0.98631476
0.98631476 0.98631476 0.98631476
0.98631476 0.98631476 0.98631476
0.98631476 0.98631476 0.98631476
0.98631476 0.98631476 0.98631476
0.98631476 0.98631476 0.98631476
0.98240469 0.98240469 0.98631476
0.98631476 0.98631476 0.98631476
0.98631476 0.98631476 0.98631476
0.98631476 0.98631476 0.98631476
0.98142717 0.98240469 0.98631476
0.97556207 0.97751711 0.98631476
0.96774194 0.96969697 0.98631476
0.95307918 0.95698925 0.98631476
0.92082111 0.92766373 0.98631476
0.87683284 0.88367546 0.98631476
0.94037146 0.92082111 0.98631476
0.98631476 0.98631476 0.98631476
0.98631476 0.98631476 0.98631476
0.98631476 0.98631476 0.98631476
0.98631476 0.98631476 0.98631476
0.98631476 0.98631476 0.98631476
0.98631476 0.98631476 0.98631476
0.98631476 0.98631476 0.98631476
0.98631476 0.98631476 0.98631476
0.98631476 0.98631476 0.98631476
0.98631476 0.98631476 0.98631476
0.98631476 0.98631476 0.98631476
0.98631476 0.98631476 0.98631476
0.98631476 0.98631476 0.98631476
0.98631476 0.98631476 0.98631476
0.98631476 0.98631476 0.98631476
0.98631476 0.98631476 0.98631476
0.98631476 0.98631476 0.98631476
0.98631476 0.98631476 0.98631476
0.98631476 0.98631476 0.98631476
