agilex5e-ed/a5e065b-mod-devkit/src/vds/test_luts/pq_to_bt709.cube
# hdr-sdr-cubes 0.1.0
# input=pq output=bt709 type=II matrix_comp=709
# chroma_gain=1.2 alpha=0.04 pq_peak=1000.0
# output=BT.709 BT.1886 (BT.2446 Method C + 2020->709)  interpolator=tetrahedral  legalise=AFTER LUT (R103 then 4-1019)
# DOMAIN 0-1 = 10-bit code/1023; output is narrow-range in a full 0-1023 container
# matrix_comp=709 is a locked variant: 709 YCbCr hardware on a BT.2100 SDI input
TITLE "pq_to_bt709_typeII_mtx709_cg120"
LUT_3D_SIZE 5
DOMAIN_MIN 0.0 0.0 0.0
DOMAIN_MAX 1.0 1.0 1.0
0.06256109 0.06256109 0.06256109
0.30987292 0.06256109 0.13880743
0.86119257 0.06256109 0.30889541
0.98631476 0.90127077 0.90713587
0.98631476 0.98631476 0.98631476
0.06256109 0.30205279 0.20430108
0.30107527 0.28934506 0.06256109
0.89540567 0.06256109 0.31964809
0.98631476 0.90811339 0.91300098
0.98631476 0.98631476 0.98631476
0.06256109 0.87683284 0.54349951
0.06256109 0.83382209 0.51319648
0.84946237 0.80156403 0.06256109
0.98631476 0.88074291 0.88563050
0.98631476 0.98631476 0.98631476
0.98631476 0.98631476 0.98631476
0.98631476 0.98631476 0.98631476
0.98338221 0.98631476 0.98338221
0.98631476 0.98631476 0.98631476
0.98631476 0.98631476 0.98631476
0.98631476 0.98631476 0.98631476
0.98631476 0.98631476 0.98631476
0.98631476 0.98631476 0.98631476
0.98631476 0.98631476 0.98631476
0.98631476 0.98631476 0.98631476
0.06256109 0.15542522 0.37438905
0.32649071 0.06256109 0.31378299
0.86901271 0.06256109 0.33137830
0.98631476 0.90224829 0.90811339
0.98631476 0.98631476 0.98631476
0.06256109 0.31085044 0.29130010
0.29423265 0.29423265 0.29423265
0.90224829 0.06256109 0.32844575
0.98631476 0.90909091 0.91397849
0.98631476 0.98631476 0.98631476
0.06256109 0.88856305 0.55131965
0.06256109 0.84652981 0.52297165
0.84457478 0.81133920 0.06256109
0.98631476 0.88172043 0.88563050
0.98631476 0.98631476 0.98631476
0.98631476 0.98631476 0.98631476
0.98631476 0.98631476 0.98631476
0.98631476 0.98631476 0.98631476
0.98631476 0.98631476 0.98631476
0.98631476 0.98631476 0.98631476
0.98631476 0.98631476 0.98631476
0.98631476 0.98631476 0.98631476
0.98631476 0.98631476 0.98631476
0.98631476 0.98631476 0.98631476
0.98631476 0.98631476 0.98631476
0.31378299 0.41055718 0.98631476
0.18279570 0.35092864 0.98631476
0.91886608 0.06256109 0.91104594
0.98631476 0.90518084 0.91495601
0.98631476 0.98631476 0.98631476
0.06256109 0.30009775 0.86314761
0.06256109 0.29618768 0.85043988
0.94428152 0.06256109 0.87976540
0.98631476 0.91104594 0.91886608
0.98631476 0.98631476 0.98631476
0.06256109 0.89833822 0.81622678
0.06256109 0.86510264 0.81427175
0.80351906 0.80351906 0.80351906
0.98631476 0.87487781 0.88367546
0.98631476 0.98631476 0.98631476
0.98631476 0.98631476 0.98631476
0.98631476 0.98631476 0.98631476
0.98631476 0.98631476 0.98631476
0.98631476 0.98631476 0.98631476
0.98631476 0.98631476 0.98631476
0.98631476 0.98631476 0.98631476
0.98631476 0.98631476 0.98631476
0.98631476 0.98631476 0.98631476
0.98631476 0.98631476 0.98631476
0.98631476 0.98631476 0.98631476
0.98631476 0.98631476 0.98631476
0.98631476 0.98631476 0.98631476
0.95307918 0.95503421 0.98631476
0.98435973 0.96480938 0.98631476
0.98631476 0.98631476 0.98631476
0.98631476 0.98631476 0.98631476
0.98631476 0.98631476 0.98631476
0.92082111 0.92375367 0.98631476
0.98631476 0.96187683 0.98533724
0.98631476 0.98631476 0.98631476
0.81036168 0.83577713 0.98631476
0.79374389 0.81720430 0.98631476
0.72629521 0.74584555 0.98631476
0.98631476 0.87683284 0.96871945
0.98631476 0.98631476 0.98631476
0.98631476 0.98631476 0.98631476
0.98631476 0.98631476 0.98631476
0.96285435 0.98631476 0.98338221
0.98044966 0.98044966 0.98044966
0.98631476 0.98631476 0.98631476
0.98631476 0.98631476 0.98631476
0.98631476 0.98631476 0.98631476
0.98631476 0.98631476 0.98631476
0.98631476 0.98631476 0.98631476
0.98631476 0.98631476 0.98631476
0.98631476 0.98631476 0.98631476
0.98631476 0.98631476 0.98631476
0.98631476 0.98631476 0.98631476
0.98631476 0.98631476 0.98631476
0.98631476 0.98631476 0.98631476
0.98631476 0.98631476 0.98631476
0.98631476 0.98631476 0.98631476
0.98631476 0.98631476 0.98631476
0.98631476 0.98631476 0.98631476
0.98631476 0.98631476 0.98631476
0.98631476 0.98631476 0.98631476
0.98631476 0.98631476 0.98631476
0.98631476 0.98631476 0.98631476
0.98631476 0.98631476 0.98631476
0.98631476 0.98631476 0.98631476
0.98631476 0.98631476 0.98631476
0.97556207 0.97751711 0.98631476
0.95307918 0.95698925 0.98631476
0.87683284 0.88367546 0.98631476
0.98631476 0.98631476 0.98631476
0.98631476 0.98631476 0.98631476
0.98631476 0.98631476 0.98631476
0.98631476 0.98631476 0.98631476
0.98631476 0.98631476 0.98631476
0.98631476 0.98631476 0.98631476
