agilex5e-ed/a5e065b-mod-devkit/src/vds/test_luts/slog3_to_bt709_opt2.cube
# hdr-sdr-cubes 0.1.0
# input=slog3 output=bt709 type=II matrix_comp=709
# chroma_gain=1.0 alpha=0.04 pq_peak=1000.0
# highlight_compression=1.4 sdr_contrast=1.15 highlight_desat=0.35 vibrance=0.25 temp=0.2
# output=BT.709 BT.1886 (BT.2446 Method C + 2020->709)  interpolator=tetrahedral  legalise=AFTER LUT (R103 then 4-1019)
# DOMAIN 0-1 = 10-bit code/1023; output is narrow-range in a full 0-1023 container
# matrix_comp=709 is a locked variant: 709 YCbCr hardware on a BT.2100 SDI input
TITLE "slog3_to_bt709_typeII_mtx709_cg100_hc140_sc115_hd035_vb025_tpw020"
LUT_3D_SIZE 9
DOMAIN_MIN 0.0 0.0 0.0
DOMAIN_MAX 1.0 1.0 1.0
0.06256109 0.06256109 0.06256109
0.06256109 0.06256109 0.06256109
0.06256109 0.06256109 0.06256109
0.32258065 0.08504399 0.13685239
0.59628543 0.10948192 0.21407625
1.00000000 0.33137830 0.41055718
1.00000000 0.89638319 0.88563050
1.00000000 1.00000000 0.99804497
1.00000000 1.00000000 1.00000000
0.08113392 0.13880743 0.12414467
0.10850440 0.13978495 0.06256109
0.23264907 0.12023460 0.06256109
0.36461388 0.08895406 0.14662757
0.62854350 0.11241447 0.22385142
1.00000000 0.38807429 0.44965787
1.00000000 0.89638319 0.88465298
1.00000000 1.00000000 0.99804497
1.00000000 1.00000000 1.00000000
0.10850440 0.26588465 0.17888563
0.10557185 0.26783969 0.12805474
0.25219941 0.26099707 0.06256109
0.42913001 0.23851417 0.06256109
0.70576735 0.11730205 0.16813294
1.00000000 0.43890518 0.48778104
1.00000000 0.89345064 0.88269795
1.00000000 1.00000000 0.99902248
1.00000000 1.00000000 1.00000000
0.15933529 0.49462366 0.29716520
0.15542522 0.48778104 0.25806452
0.19159335 0.48680352 0.06256109
0.46041056 0.46920821 0.06256109
0.78592375 0.42913001 0.06256109
1.00000000 0.59433040 0.58260020
1.00000000 0.87194526 0.86217009
1.00000000 1.00000000 0.99217986
1.00000000 1.00000000 1.00000000
0.30498534 0.92961877 0.52101662
0.26099707 0.90811339 0.47800587
0.24144673 0.88954057 0.41348974
0.37634409 0.88269795 0.06256109
0.83968719 0.84652981 0.06256109
1.00000000 0.82209189 0.72629521
1.00000000 0.89149560 0.87194526
1.00000000 0.98240469 0.96480938
1.00000000 1.00000000 1.00000000
0.69794721 1.00000000 0.76050831
0.66959922 1.00000000 0.73900293
0.64027370 1.00000000 0.71163245
0.61876833 1.00000000 0.66373412
0.63245357 1.00000000 0.48973607
0.99315738 0.99022483 0.47800587
1.00000000 0.95796676 0.91006843
1.00000000 0.99315738 0.97067449
1.00000000 1.00000000 1.00000000
1.00000000 1.00000000 0.98924731
0.99902248 1.00000000 0.98044966
0.98826979 1.00000000 0.97067449
0.97751711 1.00000000 0.95992180
0.96871945 1.00000000 0.94525904
0.96871945 1.00000000 0.91006843
1.00000000 1.00000000 0.58944282
1.00000000 1.00000000 1.00000000
1.00000000 1.00000000 1.00000000
1.00000000 1.00000000 1.00000000
1.00000000 1.00000000 1.00000000
1.00000000 1.00000000 1.00000000
1.00000000 1.00000000 1.00000000
1.00000000 1.00000000 1.00000000
1.00000000 1.00000000 1.00000000
1.00000000 1.00000000 1.00000000
1.00000000 1.00000000 1.00000000
1.00000000 1.00000000 1.00000000
1.00000000 1.00000000 1.00000000
1.00000000 1.00000000 1.00000000
1.00000000 1.00000000 1.00000000
1.00000000 1.00000000 1.00000000
1.00000000 1.00000000 1.00000000
1.00000000 1.00000000 1.00000000
1.00000000 1.00000000 1.00000000
1.00000000 1.00000000 1.00000000
1.00000000 1.00000000 1.00000000
0.06256109 0.06256109 0.06256109
0.06256109 0.06256109 0.06256109
0.06256109 0.06256109 0.06256109
0.31769306 0.08504399 0.14662757
0.59530792 0.10948192 0.21407625
1.00000000 0.33333333 0.41251222
1.00000000 0.89736070 0.88660802
1.00000000 1.00000000 0.99804497
1.00000000 1.00000000 1.00000000
0.07820137 0.12218964 0.11534702
0.12121212 0.12023460 0.11827957
0.22482893 0.07722385 0.12218964
0.36070381 0.08895406 0.15347019
0.62756598 0.11241447 0.22287390
1.00000000 0.39002933 0.45063539
1.00000000 0.89736070 0.88563050
1.00000000 1.00000000 0.99902248
1.00000000 1.00000000 1.00000000
0.10752688 0.26001955 0.18279570
0.10557185 0.26099707 0.14760508
0.25024438 0.25415445 0.06256109
0.42815249 0.22873900 0.06256109
0.69892473 0.11730205 0.18572825
1.00000000 0.44183773 0.48973607
1.00000000 0.89442815 0.88367546
1.00000000 1.00000000 0.99902248
1.00000000 1.00000000 1.00000000
0.15933529 0.49364614 0.29912023
0.15542522 0.48680352 0.26099707
0.18475073 0.48582600 0.06256109
0.45943304 0.46823069 0.06256109
0.78690127 0.42619746 0.06256109
1.00000000 0.59433040 0.58357771
1.00000000 0.87194526 0.86314761
1.00000000 1.00000000 0.99217986
1.00000000 1.00000000 1.00000000
0.31085044 0.93255132 0.52492669
0.27077224 0.91300098 0.48484848
0.24242424 0.89442815 0.41837732
0.37243402 0.88856305 0.06256109
0.83870968 0.84946237 0.06256109
1.00000000 0.82209189 0.72629521
1.00000000 0.89149560 0.87194526
1.00000000 0.98240469 0.96480938
1.00000000 1.00000000 1.00000000
0.70185728 1.00000000 0.76344086
0.67448680 1.00000000 0.74193548
0.64516129 1.00000000 0.71554252
0.62365591 1.00000000 0.66862170
0.63636364 1.00000000 0.50146628
0.98924731 0.99217986 0.47898338
1.00000000 0.95894428 0.91006843
1.00000000 0.99315738 0.97165200
1.00000000 1.00000000 1.00000000
1.00000000 1.00000000 0.99120235
1.00000000 1.00000000 0.98240469
0.99120235 1.00000000 0.97262952
0.98044966 1.00000000 0.96285435
0.97165200 1.00000000 0.94819159
0.97067449 1.00000000 0.91397849
1.00000000 1.00000000 0.58944282
1.00000000 1.00000000 1.00000000
1.00000000 1.00000000 1.00000000
1.00000000 1.00000000 1.00000000
1.00000000 1.00000000 1.00000000
1.00000000 1.00000000 1.00000000
1.00000000 1.00000000 1.00000000
1.00000000 1.00000000 1.00000000
1.00000000 1.00000000 1.00000000
1.00000000 1.00000000 1.00000000
1.00000000 1.00000000 1.00000000
1.00000000 1.00000000 1.00000000
1.00000000 1.00000000 1.00000000
1.00000000 1.00000000 1.00000000
1.00000000 1.00000000 1.00000000
1.00000000 1.00000000 1.00000000
1.00000000 1.00000000 1.00000000
1.00000000 1.00000000 1.00000000
1.00000000 1.00000000 1.00000000
1.00000000 1.00000000 1.00000000
1.00000000 1.00000000 1.00000000
0.06256109 0.06256109 0.06256109
0.06256109 0.06256109 0.06256109
0.06256109 0.06256109 0.06256109
0.30694037 0.08699902 0.20625611
0.59335288 0.11143695 0.27174976
1.00000000 0.33431085 0.42326491
1.00000000 0.89833822 0.88758553
1.00000000 1.00000000 0.99902248
1.00000000 1.00000000 1.00000000
0.06256109 0.06256109 0.06256109
0.10068426 0.07526882 0.17497556
0.21016618 0.08113392 0.20234604
0.35777126 0.09188661 0.22776149
0.62658847 0.11436950 0.27859238
1.00000000 0.39100684 0.45845552
1.00000000 0.89833822 0.88660802
1.00000000 1.00000000 1.00000000
1.00000000 1.00000000 1.00000000
0.11241447 0.25122190 0.23264907
0.11143695 0.24731183 0.23264907
0.24340176 0.24046921 0.23655914
0.44379277 0.18670577 0.23069404
0.68523949 0.11827957 0.27370479
1.00000000 0.44281525 0.49364614
1.00000000 0.89540567 0.88465298
1.00000000 1.00000000 1.00000000
1.00000000 1.00000000 1.00000000
0.16226784 0.49071359 0.33822092
0.15835777 0.48289345 0.31476051
0.15347019 0.48289345 0.24535679
0.45747801 0.46627566 0.10263930
0.80840665 0.40566960 0.06256109
1.00000000 0.59237537 0.58357771
1.00000000 0.87194526 0.86314761
1.00000000 1.00000000 0.99315738
1.00000000 1.00000000 1.00000000
0.31476051 0.93450635 0.53470186
0.27956989 0.91691105 0.49951124
0.24437928 0.89736070 0.43695015
0.34701857 0.89345064 0.06256109
0.83773216 0.85141740 0.06256109
1.00000000 0.82209189 0.72434018
1.00000000 0.89051808 0.87096774
1.00000000 0.98240469 0.96480938
1.00000000 1.00000000 1.00000000
0.70478983 1.00000000 0.76539589
0.67644184 1.00000000 0.74389052
0.64809384 1.00000000 0.71749756
0.62561095 1.00000000 0.67155425
0.63734115 1.00000000 0.50928641
0.98631476 0.99413490 0.47996090
1.00000000 0.95894428 0.91006843
1.00000000 0.99315738 0.97165200
1.00000000 1.00000000 1.00000000
1.00000000 1.00000000 0.99315738
1.00000000 1.00000000 0.98435973
0.99315738 1.00000000 0.97458456
0.98240469 1.00000000 0.96480938
0.97360704 1.00000000 0.95014663
0.97262952 1.00000000 0.91691105
1.00000000 1.00000000 0.58944282
1.00000000 1.00000000 1.00000000
1.00000000 1.00000000 1.00000000
1.00000000 1.00000000 1.00000000
1.00000000 1.00000000 1.00000000
1.00000000 1.00000000 1.00000000
1.00000000 1.00000000 1.00000000
1.00000000 1.00000000 1.00000000
1.00000000 1.00000000 1.00000000
1.00000000 1.00000000 1.00000000
1.00000000 1.00000000 1.00000000
1.00000000 1.00000000 1.00000000
1.00000000 1.00000000 1.00000000
1.00000000 1.00000000 1.00000000
1.00000000 1.00000000 1.00000000
1.00000000 1.00000000 1.00000000
1.00000000 1.00000000 1.00000000
1.00000000 1.00000000 1.00000000
1.00000000 1.00000000 1.00000000
1.00000000 1.00000000 1.00000000
1.00000000 1.00000000 1.00000000
0.06256109 0.06256109 0.06256109
0.06256109 0.06256109 0.06256109
0.06256109 0.06256109 0.06256109
0.06256109 0.06256109 0.06256109
0.58162268 0.11632454 0.38611926
1.00000000 0.33137830 0.50830890
1.00000000 0.90322581 0.89442815
1.00000000 1.00000000 1.00000000
1.00000000 1.00000000 1.00000000
0.06256109 0.06256109 0.06256109
0.06256109 0.06256109 0.06256109
0.06256109 0.06256109 0.06256109
0.34115347 0.09872923 0.33333333
0.62072336 0.11925709 0.39882698
1.00000000 0.39002933 0.52981427
1.00000000 0.90224829 0.89247312
1.00000000 1.00000000 1.00000000
1.00000000 1.00000000 1.00000000
0.11827957 0.21114370 0.30498534
0.11730205 0.19941349 0.30107527
0.21994135 0.17106549 0.37732160
0.39784946 0.10459433 0.37438905
0.66764418 0.12316716 0.41251222
1.00000000 0.44379277 0.55425220
1.00000000 0.89931574 0.88954057
1.00000000 1.00000000 1.00000000
1.00000000 1.00000000 1.00000000
0.17008798 0.47605083 0.43010753
0.16715543 0.46138807 0.42424242
0.16715543 0.45747801 0.42619746
0.44574780 0.43890518 0.43010753
0.82111437 0.34799609 0.42033236
1.00000000 0.57575758 0.61779081
1.00000000 0.87487781 0.86705767
1.00000000 1.00000000 0.99315738
1.00000000 1.00000000 1.00000000
0.32062561 0.92766373 0.61974585
0.28445748 0.91006843 0.59824047
0.25219941 0.89051808 0.56109482
0.24242424 0.89149560 0.42326491
0.83284457 0.84750733 0.29912023
1.00000000 0.81622678 0.73998045
1.00000000 0.88660802 0.86803519
1.00000000 0.98240469 0.96480938
1.00000000 1.00000000 1.00000000
0.69696970 1.00000000 0.76735093
0.66764418 1.00000000 0.74682307
0.63734115 1.00000000 0.72238514
0.61388074 1.00000000 0.67937439
0.62463343 1.00000000 0.52394917
0.98240469 0.99315738 0.47702835
1.00000000 0.95796676 0.90811339
1.00000000 0.99217986 0.97067449
1.00000000 1.00000000 1.00000000
1.00000000 1.00000000 0.99315738
1.00000000 1.00000000 0.98435973
0.99315738 1.00000000 0.97458456
0.98240469 1.00000000 0.96480938
0.97360704 1.00000000 0.95014663
0.97165200 1.00000000 0.91691105
1.00000000 1.00000000 0.58944282
1.00000000 1.00000000 1.00000000
1.00000000 1.00000000 1.00000000
1.00000000 1.00000000 1.00000000
1.00000000 1.00000000 1.00000000
1.00000000 1.00000000 1.00000000
1.00000000 1.00000000 1.00000000
1.00000000 1.00000000 1.00000000
1.00000000 1.00000000 1.00000000
1.00000000 1.00000000 1.00000000
1.00000000 1.00000000 1.00000000
1.00000000 1.00000000 1.00000000
1.00000000 1.00000000 1.00000000
1.00000000 1.00000000 1.00000000
1.00000000 1.00000000 1.00000000
1.00000000 1.00000000 1.00000000
1.00000000 1.00000000 1.00000000
1.00000000 1.00000000 1.00000000
1.00000000 1.00000000 1.00000000
1.00000000 1.00000000 1.00000000
1.00000000 1.00000000 1.00000000
0.06256109 0.06256109 0.06256109
0.06256109 0.06256109 0.06256109
0.06256109 0.06256109 0.06256109
0.06256109 0.06256109 0.06256109
0.51808407 0.12414467 0.53274682
1.00000000 0.29912023 0.69012708
1.00000000 0.92179863 0.92179863
1.00000000 1.00000000 1.00000000
1.00000000 1.00000000 1.00000000
0.06256109 0.06256109 0.06256109
0.06256109 0.06256109 0.06256109
0.06256109 0.06256109 0.06256109
0.06256109 0.06256109 0.06256109
0.57673509 0.13000978 0.57575758
1.00000000 0.38220919 0.69501466
1.00000000 0.92082111 0.91886608
1.00000000 1.00000000 1.00000000
1.00000000 1.00000000 1.00000000
0.06256109 0.06256109 0.06256109
0.06256109 0.06256109 0.06256109
0.06256109 0.06256109 0.06256109
0.32160313 0.11436950 0.51026393
0.64222874 0.13685239 0.62267840
1.00000000 0.45063539 0.70283480
1.00000000 0.91593353 0.91397849
1.00000000 1.00000000 1.00000000
1.00000000 1.00000000 1.00000000
0.18279570 0.40371457 0.57184751
0.17888563 0.38416422 0.56402737
0.18181818 0.36656891 0.58846530
0.40371457 0.31867058 0.70478983
0.76148583 0.15053763 0.71260997
1.00000000 0.53958944 0.72336266
1.00000000 0.88954057 0.89149560
1.00000000 1.00000000 0.99804497
1.00000000 1.00000000 1.00000000
0.31573803 0.90029326 0.79569892
0.27370479 0.87292278 0.78396872
0.26881720 0.84848485 0.77517107
0.26881720 0.84261975 0.78103617
0.81427175 0.80156403 0.78396872
1.00000000 0.79178886 0.80254154
1.00000000 0.87781036 0.87390029
1.00000000 0.98533724 0.96871945
1.00000000 1.00000000 1.00000000
0.66568915 1.00000000 0.80254154
0.63049853 1.00000000 0.78885630
0.59433040 1.00000000 0.77223851
0.56304985 1.00000000 0.74291300
0.57184751 1.00000000 0.64418377
0.97653959 0.98826979 0.54349951
1.00000000 0.95307918 0.91104594
1.00000000 0.98826979 0.96676442
1.00000000 1.00000000 1.00000000
1.00000000 1.00000000 0.99120235
1.00000000 1.00000000 0.98240469
0.98924731 1.00000000 0.97360704
0.97751711 1.00000000 0.96383187
0.96774194 1.00000000 0.94916911
0.96676442 1.00000000 0.91691105
1.00000000 1.00000000 0.58846530
1.00000000 1.00000000 1.00000000
1.00000000 1.00000000 1.00000000
1.00000000 1.00000000 1.00000000
1.00000000 1.00000000 1.00000000
1.00000000 1.00000000 1.00000000
1.00000000 1.00000000 1.00000000
1.00000000 1.00000000 1.00000000
1.00000000 1.00000000 1.00000000
1.00000000 1.00000000 1.00000000
1.00000000 1.00000000 1.00000000
1.00000000 1.00000000 1.00000000
1.00000000 1.00000000 1.00000000
1.00000000 1.00000000 1.00000000
1.00000000 1.00000000 1.00000000
1.00000000 1.00000000 1.00000000
1.00000000 1.00000000 1.00000000
1.00000000 1.00000000 1.00000000
1.00000000 1.00000000 1.00000000
1.00000000 1.00000000 1.00000000
1.00000000 1.00000000 1.00000000
0.06256109 0.06256109 0.06256109
0.06256109 0.06256109 0.06256109
0.06256109 0.06256109 0.06256109
0.06256109 0.06256109 0.06256109
0.06256109 0.06256109 0.06256109
0.94037146 0.23753666 0.99217986
1.00000000 0.98826979 0.99511241
1.00000000 1.00000000 1.00000000
1.00000000 1.00000000 1.00000000
0.06256109 0.06256109 0.06256109
0.06256109 0.06256109 0.06256109
0.06256109 0.06256109 0.06256109
0.06256109 0.06256109 0.06256109
0.06256109 0.06256109 0.06256109
0.97751711 0.31964809 1.00000000
1.00000000 0.98435973 0.99120235
1.00000000 1.00000000 1.00000000
1.00000000 1.00000000 1.00000000
0.06256109 0.06256109 0.06256109
0.06256109 0.06256109 0.06256109
0.06256109 0.06256109 0.06256109
0.06256109 0.06256109 0.06256109
0.06256109 0.06256109 0.06256109
1.00000000 0.38709677 1.00000000
1.00000000 0.97751711 0.98435973
1.00000000 1.00000000 1.00000000
1.00000000 1.00000000 1.00000000
0.17986315 0.23558162 0.61974585
0.15738025 0.20234604 0.51319648
0.06256109 0.06256109 0.06256109
0.20625611 0.21212121 0.75073314
0.59237537 0.19550342 0.94819159
1.00000000 0.52981427 1.00000000
1.00000000 0.95210166 0.96480938
1.00000000 1.00000000 1.00000000
1.00000000 1.00000000 1.00000000
0.45845552 0.76832845 1.00000000
0.41055718 0.73313783 1.00000000
0.36852395 0.69794721 1.00000000
0.46529814 0.66862170 1.00000000
0.72727273 0.65982405 1.00000000
1.00000000 0.68035191 1.00000000
1.00000000 0.87194526 0.90811339
1.00000000 1.00000000 0.98729228
1.00000000 1.00000000 1.00000000
0.59921799 1.00000000 0.92961877
0.59042033 1.00000000 0.93548387
0.58064516 1.00000000 0.94134897
0.57380254 1.00000000 0.94721408
0.56989247 1.00000000 0.95405670
0.96187683 0.94623656 0.92570870
1.00000000 0.93548387 0.92668622
1.00000000 0.98044966 0.96578690
1.00000000 1.00000000 1.00000000
1.00000000 1.00000000 0.99413490
0.98729228 1.00000000 0.98631476
0.97458456 1.00000000 0.97849462
0.96187683 1.00000000 0.97067449
0.95112414 1.00000000 0.95894428
0.94916911 1.00000000 0.93255132
1.00000000 1.00000000 0.65004888
1.00000000 1.00000000 1.00000000
1.00000000 1.00000000 1.00000000
1.00000000 1.00000000 1.00000000
1.00000000 1.00000000 1.00000000
1.00000000 1.00000000 1.00000000
1.00000000 1.00000000 1.00000000
1.00000000 1.00000000 1.00000000
1.00000000 1.00000000 1.00000000
1.00000000 1.00000000 1.00000000
1.00000000 1.00000000 1.00000000
1.00000000 1.00000000 1.00000000
1.00000000 1.00000000 1.00000000
1.00000000 1.00000000 1.00000000
1.00000000 1.00000000 1.00000000
1.00000000 1.00000000 1.00000000
1.00000000 1.00000000 1.00000000
1.00000000 1.00000000 1.00000000
1.00000000 1.00000000 1.00000000
1.00000000 1.00000000 1.00000000
1.00000000 1.00000000 1.00000000
0.06256109 0.06256109 0.06256109
0.06256109 0.06256109 0.06256109
0.06256109 0.06256109 0.06256109
0.06256109 0.06256109 0.06256109
0.06256109 0.06256109 0.06256109
0.06256109 0.06256109 0.06256109
1.00000000 1.00000000 1.00000000
1.00000000 1.00000000 1.00000000
1.00000000 1.00000000 1.00000000
0.06256109 0.06256109 0.06256109
0.06256109 0.06256109 0.06256109
0.06256109 0.06256109 0.06256109
0.06256109 0.06256109 0.06256109
0.06256109 0.06256109 0.06256109
0.06256109 0.06256109 0.06256109
1.00000000 1.00000000 1.00000000
1.00000000 1.00000000 1.00000000
1.00000000 1.00000000 1.00000000
0.06256109 0.06256109 0.06256109
0.06256109 0.06256109 0.06256109
0.06256109 0.06256109 0.06256109
0.06256109 0.06256109 0.06256109
0.06256109 0.06256109 0.06256109
0.06256109 0.06256109 0.06256109
1.00000000 1.00000000 1.00000000
1.00000000 1.00000000 1.00000000
1.00000000 1.00000000 1.00000000
0.06256109 0.06256109 0.06256109
0.06256109 0.06256109 0.06256109
0.06256109 0.06256109 0.06256109
0.06256109 0.06256109 0.06256109
0.06256109 0.06256109 0.06256109
0.06256109 0.06256109 0.06256109
1.00000000 1.00000000 1.00000000
1.00000000 1.00000000 1.00000000
1.00000000 1.00000000 1.00000000
0.48875855 0.51710655 0.98631476
0.45747801 0.49071359 0.97947214
0.41544477 0.45552297 0.97165200
0.40175953 0.44379277 0.96871945
0.53958944 0.52883675 0.99022483
0.87976540 0.78103617 1.00000000
1.00000000 1.00000000 1.00000000
1.00000000 1.00000000 1.00000000
1.00000000 1.00000000 1.00000000
0.86608016 0.94134897 1.00000000
0.85630499 0.92961877 1.00000000
0.84359726 0.91593353 1.00000000
0.82209189 0.89638319 1.00000000
0.82893451 0.87878788 1.00000000
0.90224829 0.86608016 1.00000000
1.00000000 0.86021505 1.00000000
1.00000000 0.97653959 0.97947214
1.00000000 1.00000000 1.00000000
0.95210166 1.00000000 1.00000000
0.93450635 1.00000000 1.00000000
0.91495601 1.00000000 1.00000000
0.89540567 1.00000000 1.00000000
0.87585533 1.00000000 1.00000000
0.86119257 1.00000000 1.00000000
1.00000000 1.00000000 1.00000000
1.00000000 1.00000000 1.00000000
1.00000000 1.00000000 1.00000000
1.00000000 1.00000000 1.00000000
1.00000000 1.00000000 1.00000000
1.00000000 1.00000000 1.00000000
1.00000000 1.00000000 1.00000000
1.00000000 1.00000000 1.00000000
1.00000000 1.00000000 1.00000000
1.00000000 1.00000000 1.00000000
1.00000000 1.00000000 1.00000000
1.00000000 1.00000000 1.00000000
1.00000000 1.00000000 1.00000000
1.00000000 1.00000000 1.00000000
1.00000000 1.00000000 1.00000000
1.00000000 1.00000000 1.00000000
1.00000000 1.00000000 1.00000000
1.00000000 1.00000000 1.00000000
1.00000000 1.00000000 1.00000000
1.00000000 1.00000000 1.00000000
1.00000000 1.00000000 1.00000000
0.06256109 0.06256109 0.06256109
0.06256109 0.06256109 0.06256109
0.06256109 0.06256109 0.06256109
0.06256109 0.06256109 0.06256109
0.06256109 0.06256109 0.06256109
0.06256109 0.06256109 0.06256109
0.06256109 0.06256109 0.06256109
1.00000000 1.00000000 1.00000000
1.00000000 1.00000000 1.00000000
0.06256109 0.06256109 0.06256109
0.06256109 0.06256109 0.06256109
0.06256109 0.06256109 0.06256109
0.06256109 0.06256109 0.06256109
0.06256109 0.06256109 0.06256109
0.06256109 0.06256109 0.06256109
0.06256109 0.06256109 0.06256109
1.00000000 1.00000000 1.00000000
1.00000000 1.00000000 1.00000000
0.06256109 0.06256109 0.06256109
0.06256109 0.06256109 0.06256109
0.06256109 0.06256109 0.06256109
0.06256109 0.06256109 0.06256109
0.06256109 0.06256109 0.06256109
0.06256109 0.06256109 0.06256109
0.06256109 0.06256109 0.06256109
1.00000000 1.00000000 1.00000000
1.00000000 1.00000000 1.00000000
0.06256109 0.06256109 0.06256109
0.06256109 0.06256109 0.06256109
0.06256109 0.06256109 0.06256109
0.06256109 0.06256109 0.06256109
0.06256109 0.06256109 0.06256109
0.06256109 0.06256109 0.06256109
0.06256109 0.06256109 0.06256109
1.00000000 1.00000000 1.00000000
1.00000000 1.00000000 1.00000000
0.06256109 0.06256109 0.06256109
0.06256109 0.06256109 0.06256109
0.06256109 0.06256109 0.06256109
0.06256109 0.06256109 0.06256109
0.06256109 0.06256109 0.06256109
0.06256109 0.06256109 0.06256109
0.06256109 0.06256109 0.06256109
1.00000000 1.00000000 1.00000000
1.00000000 1.00000000 1.00000000
0.90615836 0.89736070 1.00000000
0.93548387 0.92473118 1.00000000
0.95503421 0.94428152 1.00000000
0.95112414 0.94037146 1.00000000
0.94134897 0.93059629 1.00000000
0.98924731 0.97262952 1.00000000
1.00000000 1.00000000 1.00000000
1.00000000 1.00000000 1.00000000
1.00000000 1.00000000 1.00000000
0.99804497 1.00000000 1.00000000
0.98924731 1.00000000 1.00000000
0.97849462 1.00000000 1.00000000
0.96578690 0.98924731 1.00000000
0.94330401 0.97067449 1.00000000
0.93939394 0.95601173 1.00000000
0.97751711 0.95014663 1.00000000
1.00000000 0.95796676 1.00000000
1.00000000 1.00000000 1.00000000
1.00000000 1.00000000 1.00000000
1.00000000 1.00000000 1.00000000
1.00000000 1.00000000 1.00000000
1.00000000 1.00000000 1.00000000
1.00000000 1.00000000 1.00000000
1.00000000 1.00000000 1.00000000
1.00000000 1.00000000 1.00000000
1.00000000 1.00000000 1.00000000
1.00000000 1.00000000 1.00000000
1.00000000 1.00000000 1.00000000
1.00000000 1.00000000 1.00000000
1.00000000 1.00000000 1.00000000
1.00000000 1.00000000 1.00000000
1.00000000 1.00000000 1.00000000
1.00000000 1.00000000 1.00000000
1.00000000 1.00000000 1.00000000
1.00000000 1.00000000 1.00000000
1.00000000 1.00000000 1.00000000
0.06256109 0.06256109 0.06256109
0.06256109 0.06256109 0.06256109
0.06256109 0.06256109 0.06256109
0.06256109 0.06256109 0.06256109
0.06256109 0.06256109 0.06256109
0.06256109 0.06256109 0.06256109
0.06256109 0.06256109 0.06256109
0.06256109 0.06256109 0.06256109
1.00000000 1.00000000 1.00000000
0.06256109 0.06256109 0.06256109
0.06256109 0.06256109 0.06256109
0.06256109 0.06256109 0.06256109
0.06256109 0.06256109 0.06256109
0.06256109 0.06256109 0.06256109
0.06256109 0.06256109 0.06256109
0.06256109 0.06256109 0.06256109
0.06256109 0.06256109 0.06256109
1.00000000 1.00000000 1.00000000
0.06256109 0.06256109 0.06256109
0.06256109 0.06256109 0.06256109
0.06256109 0.06256109 0.06256109
0.06256109 0.06256109 0.06256109
0.06256109 0.06256109 0.06256109
0.06256109 0.06256109 0.06256109
0.06256109 0.06256109 0.06256109
0.06256109 0.06256109 0.06256109
1.00000000 1.00000000 1.00000000
0.06256109 0.06256109 0.06256109
0.06256109 0.06256109 0.06256109
0.06256109 0.06256109 0.06256109
0.06256109 0.06256109 0.06256109
0.06256109 0.06256109 0.06256109
0.06256109 0.06256109 0.06256109
0.06256109 0.06256109 0.06256109
0.06256109 0.06256109 0.06256109
1.00000000 1.00000000 1.00000000
0.06256109 0.06256109 0.06256109
0.06256109 0.06256109 0.06256109
0.06256109 0.06256109 0.06256109
0.06256109 0.06256109 0.06256109
0.06256109 0.06256109 0.06256109
0.06256109 0.06256109 0.06256109
0.06256109 0.06256109 0.06256109
0.06256109 0.06256109 0.06256109
1.00000000 1.00000000 1.00000000
0.06256109 0.06256109 0.06256109
0.06256109 0.06256109 0.06256109
0.06256109 0.06256109 0.06256109
0.06256109 0.06256109 0.06256109
0.06256109 0.06256109 0.06256109
0.06256109 0.06256109 0.06256109
0.06256109 0.06256109 0.06256109
0.06256109 0.06256109 0.06256109
1.00000000 1.00000000 1.00000000
0.96969697 0.95796676 1.00000000
1.00000000 0.99804497 1.00000000
1.00000000 1.00000000 1.00000000
1.00000000 1.00000000 1.00000000
1.00000000 1.00000000 1.00000000
1.00000000 1.00000000 1.00000000
1.00000000 1.00000000 1.00000000
1.00000000 1.00000000 1.00000000
1.00000000 1.00000000 1.00000000
1.00000000 1.00000000 1.00000000
1.00000000 1.00000000 1.00000000
1.00000000 1.00000000 1.00000000
1.00000000 1.00000000 1.00000000
1.00000000 1.00000000 1.00000000
1.00000000 1.00000000 1.00000000
1.00000000 1.00000000 1.00000000
1.00000000 1.00000000 1.00000000
1.00000000 1.00000000 1.00000000
1.00000000 1.00000000 1.00000000
1.00000000 1.00000000 1.00000000
1.00000000 1.00000000 1.00000000
1.00000000 1.00000000 1.00000000
1.00000000 1.00000000 1.00000000
1.00000000 1.00000000 1.00000000
1.00000000 1.00000000 1.00000000
1.00000000 1.00000000 1.00000000
1.00000000 1.00000000 1.00000000
