agilex5e-ed/a5e065b-mod-devkit/src/vds/test_luts/slog3_to_bt709.cube
# hdr-sdr-cubes 0.1.0
# input=slog3 output=bt709 type=II matrix_comp=709
# chroma_gain=1.2 alpha=0.04 pq_peak=1000.0
# output=BT.709 BT.1886 (BT.2446 Method C + 2020->709)  interpolator=tetrahedral  legalise=AFTER LUT (R103 then 4-1019)
# DOMAIN 0-1 = 10-bit code/1023; output is narrow-range in a full 0-1023 container
# matrix_comp=709 is a locked variant: 709 YCbCr hardware on a BT.2100 SDI input
TITLE "slog3_to_bt709_typeII_mtx709_cg120"
LUT_3D_SIZE 9
DOMAIN_MIN 0.0 0.0 0.0
DOMAIN_MAX 1.0 1.0 1.0
0.06256109 0.06256109 0.06256109
0.06256109 0.06256109 0.06256109
0.06256109 0.06256109 0.06256109
0.43597263 0.06256109 0.17790811
0.72727273 0.06256109 0.26783969
0.98631476 0.52688172 0.57184751
0.98631476 0.92668622 0.93059629
0.98631476 0.98631476 0.98631476
0.98631476 0.98631476 0.98631476
0.06256109 0.14760508 0.14760508
0.11827957 0.15347019 0.06256109
0.28836755 0.11143695 0.06256109
0.45161290 0.06256109 0.18279570
0.74780059 0.06256109 0.27370479
0.98631476 0.55718475 0.59726295
0.98631476 0.92668622 0.93059629
0.98631476 0.98631476 0.98631476
0.98631476 0.98631476 0.98631476
0.06256109 0.28054741 0.19159335
0.06256109 0.27859238 0.17693060
0.27077224 0.27761486 0.06256109
0.49755621 0.23264907 0.06256109
0.77517107 0.06256109 0.27370479
0.98631476 0.58651026 0.62267840
0.98631476 0.92570870 0.92961877
0.98631476 0.98631476 0.98631476
0.98631476 0.98631476 0.98631476
0.06256109 0.48582600 0.31280547
0.06256109 0.47311828 0.30498534
0.06256109 0.47507331 0.23949169
0.46041056 0.46432063 0.06256109
0.84457478 0.39100684 0.06256109
0.98631476 0.64027370 0.66275660
0.98631476 0.90909091 0.91397849
0.98631476 0.98631476 0.98631476
0.98631476 0.98631476 0.98631476
0.06256109 0.83675464 0.52003910
0.06256109 0.81427175 0.50635386
0.06256109 0.79178886 0.49364614
0.06256109 0.80156403 0.34115347
0.77810362 0.77614858 0.06256109
0.98631476 0.79178886 0.75659824
0.98631476 0.87683284 0.88172043
0.98631476 0.98631476 0.98631476
0.98631476 0.98631476 0.98631476
0.80449658 0.98631476 0.86217009
0.77126100 0.98631476 0.84066471
0.72727273 0.98631476 0.81329423
0.64613881 0.98631476 0.76637341
0.66666667 0.98631476 0.70185728
0.95796676 0.94623656 0.06256109
0.98631476 0.93157380 0.92375367
0.98631476 0.97849462 0.97849462
0.98631476 0.98631476 0.98631476
0.98631476 0.98631476 0.98631476
0.98631476 0.98631476 0.98631476
0.98631476 0.98631476 0.98631476
0.98631476 0.98631476 0.98631476
0.98631476 0.98631476 0.98631476
0.98631476 0.98631476 0.98631476
0.98631476 0.98631476 0.98631476
0.98631476 0.98631476 0.98631476
0.98631476 0.98631476 0.98631476
0.98631476 0.98631476 0.98631476
0.98631476 0.98631476 0.98631476
0.98631476 0.98631476 0.98631476
0.98631476 0.98631476 0.98631476
0.98631476 0.98631476 0.98631476
0.98631476 0.98631476 0.98631476
0.98631476 0.98631476 0.98631476
0.98631476 0.98631476 0.98631476
0.98631476 0.98631476 0.98631476
0.98631476 0.98631476 0.98631476
0.98631476 0.98631476 0.98631476
0.98631476 0.98631476 0.98631476
0.98631476 0.98631476 0.98631476
0.98631476 0.98631476 0.98631476
0.98631476 0.98631476 0.98631476
0.98631476 0.98631476 0.98631476
0.98631476 0.98631476 0.98631476
0.98631476 0.98631476 0.98631476
0.06256109 0.06256109 0.06256109
0.06256109 0.06256109 0.06256109
0.06256109 0.06256109 0.06256109
0.44672532 0.06256109 0.18084066
0.73216031 0.06256109 0.26979472
0.98631476 0.53079179 0.57575758
0.98631476 0.92766373 0.93157380
0.98631476 0.98631476 0.98631476
0.98631476 0.98631476 0.98631476
0.06256109 0.13391984 0.13294233
0.13685239 0.13685239 0.13685239
0.27761486 0.06256109 0.14369501
0.45552297 0.06256109 0.18377322
0.75073314 0.06256109 0.27565982
0.98631476 0.56109482 0.60019550
0.98631476 0.92864125 0.93157380
0.98631476 0.98631476 0.98631476
0.98631476 0.98631476 0.98631476
0.06256109 0.27956989 0.19648094
0.06256109 0.27370479 0.18670577
0.26881720 0.27272727 0.06256109
0.50146628 0.21994135 0.06256109
0.77126100 0.06256109 0.28152493
0.98631476 0.59042033 0.62561095
0.98631476 0.92668622 0.93059629
0.98631476 0.98631476 0.98631476
0.98631476 0.98631476 0.98631476
0.06256109 0.48680352 0.31378299
0.06256109 0.47409580 0.30596285
0.06256109 0.47507331 0.24731183
0.45943304 0.46432063 0.06256109
0.84750733 0.38807429 0.06256109
0.98631476 0.64125122 0.66471163
0.98631476 0.91006843 0.91495601
0.98631476 0.98631476 0.98631476
0.98631476 0.98631476 0.98631476
0.06256109 0.84261975 0.52394917
0.06256109 0.81915934 0.51026393
0.06256109 0.79667644 0.49657869
0.06256109 0.80547410 0.35190616
0.77810362 0.78103617 0.06256109
0.98631476 0.79276637 0.75659824
0.98631476 0.87683284 0.88172043
0.98631476 0.98631476 0.98631476
0.98631476 0.98631476 0.98631476
0.81036168 0.98631476 0.86608016
0.77712610 0.98631476 0.84457478
0.73411535 0.98631476 0.81818182
0.65395894 0.98631476 0.77126100
0.67155425 0.98631476 0.70772239
0.95210166 0.94916911 0.06256109
0.98631476 0.93255132 0.92375367
0.98631476 0.97849462 0.97849462
0.98631476 0.98631476 0.98631476
0.98631476 0.98631476 0.98631476
0.98631476 0.98631476 0.98631476
0.98631476 0.98631476 0.98631476
0.98631476 0.98631476 0.98631476
0.98631476 0.98631476 0.98631476
0.98631476 0.98631476 0.98631476
0.98631476 0.98631476 0.98631476
0.98631476 0.98631476 0.98631476
0.98631476 0.98631476 0.98631476
0.98631476 0.98631476 0.98631476
0.98631476 0.98631476 0.98631476
0.98631476 0.98631476 0.98631476
0.98631476 0.98631476 0.98631476
0.98631476 0.98631476 0.98631476
0.98631476 0.98631476 0.98631476
0.98631476 0.98631476 0.98631476
0.98631476 0.98631476 0.98631476
0.98631476 0.98631476 0.98631476
0.98631476 0.98631476 0.98631476
0.98631476 0.98631476 0.98631476
0.98631476 0.98631476 0.98631476
0.98631476 0.98631476 0.98631476
0.98631476 0.98631476 0.98631476
0.98631476 0.98631476 0.98631476
0.98631476 0.98631476 0.98631476
0.98631476 0.98631476 0.98631476
0.98631476 0.98631476 0.98631476
0.06256109 0.06256109 0.06256109
0.06256109 0.06256109 0.06256109
0.06256109 0.06256109 0.06256109
0.46823069 0.06256109 0.28152493
0.73900293 0.06256109 0.30694037
0.98631476 0.53665689 0.57966764
0.98631476 0.92961877 0.93352884
0.98631476 0.98631476 0.98631476
0.98631476 0.98631476 0.98631476
0.06256109 0.06256109 0.06256109
0.06256109 0.11143695 0.25806452
0.28250244 0.06256109 0.25904203
0.46236559 0.06256109 0.26979472
0.75659824 0.06256109 0.30498534
0.98631476 0.56500489 0.60410557
0.98631476 0.92961877 0.93352884
0.98631476 0.98631476 0.98631476
0.98631476 0.98631476 0.98631476
0.06256109 0.27565982 0.25806452
0.06256109 0.26686217 0.25513196
0.26197458 0.26197458 0.26197458
0.51710655 0.16911046 0.25024438
0.77517107 0.06256109 0.30205279
0.98631476 0.59433040 0.62952102
0.98631476 0.92864125 0.93157380
0.98631476 0.98631476 0.98631476
0.98631476 0.98631476 0.98631476
0.06256109 0.48778104 0.34506354
0.06256109 0.47507331 0.33724340
0.06256109 0.47214076 0.30498534
0.45747801 0.46334311 0.14271750
0.85043988 0.38123167 0.06256109
0.98631476 0.64125122 0.66568915
0.98631476 0.91104594 0.91593353
0.98631476 0.98631476 0.98631476
0.98631476 0.98631476 0.98631476
0.06256109 0.84848485 0.52688172
0.06256109 0.82404692 0.51319648
0.06256109 0.80156403 0.49951124
0.06256109 0.80840665 0.36363636
0.77712610 0.78494624 0.06256109
0.98631476 0.79276637 0.75659824
0.98631476 0.87585533 0.88172043
0.98631476 0.98631476 0.98631476
0.98631476 0.98631476 0.98631476
0.81524927 0.98631476 0.86901271
0.78299120 0.98631476 0.84848485
0.74095797 0.98631476 0.82209189
0.66080156 0.98631476 0.77517107
0.67448680 0.98631476 0.71260997
0.94623656 0.95112414 0.06256109
0.98631476 0.93255132 0.92375367
0.98631476 0.97849462 0.97947214
0.98631476 0.98631476 0.98631476
0.98631476 0.98631476 0.98631476
0.98631476 0.98631476 0.98631476
0.98631476 0.98631476 0.98631476
0.98631476 0.98631476 0.98631476
0.98631476 0.98631476 0.98631476
0.98631476 0.98631476 0.98631476
0.98631476 0.98631476 0.98631476
0.98631476 0.98631476 0.98631476
0.98631476 0.98631476 0.98631476
0.98631476 0.98631476 0.98631476
0.98631476 0.98631476 0.98631476
0.98631476 0.98631476 0.98631476
0.98631476 0.98631476 0.98631476
0.98631476 0.98631476 0.98631476
0.98631476 0.98631476 0.98631476
0.98631476 0.98631476 0.98631476
0.98631476 0.98631476 0.98631476
0.98631476 0.98631476 0.98631476
0.98631476 0.98631476 0.98631476
0.98631476 0.98631476 0.98631476
0.98631476 0.98631476 0.98631476
0.98631476 0.98631476 0.98631476
0.98631476 0.98631476 0.98631476
0.98631476 0.98631476 0.98631476
0.98631476 0.98631476 0.98631476
0.98631476 0.98631476 0.98631476
0.98631476 0.98631476 0.98631476
0.06256109 0.06256109 0.06256109
0.06256109 0.06256109 0.06256109
0.06256109 0.06256109 0.06256109
0.66177908 0.06256109 0.62756598
0.75953079 0.06256109 0.46236559
0.98631476 0.55034213 0.61779081
0.98631476 0.93352884 0.93743891
0.98631476 0.98631476 0.98631476
0.98631476 0.98631476 0.98631476
0.06256109 0.06256109 0.06256109
0.06256109 0.06256109 0.06256109
0.77126100 0.71163245 0.98631476
0.49071359 0.06256109 0.45552297
0.77028348 0.06256109 0.45747801
0.98631476 0.57771261 0.63538612
0.98631476 0.93352884 0.93646139
0.98631476 0.98631476 0.98631476
0.98631476 0.98631476 0.98631476
0.06256109 0.25415445 0.39393939
0.06256109 0.23655914 0.38905181
0.22776149 0.18670577 0.47605083
0.47800587 0.06256109 0.43206256
0.78494624 0.06256109 0.45356794
0.98631476 0.60508309 0.65395894
0.98631476 0.93157380 0.93548387
0.98631476 0.98631476 0.98631476
0.98631476 0.98631476 0.98631476
0.06256109 0.48093842 0.44183773
0.06256109 0.46725318 0.43695015
0.06256109 0.45650049 0.43499511
0.44477028 0.44477028 0.44477028
0.87781036 0.31378299 0.42717498
0.98631476 0.63245357 0.67350929
0.98631476 0.91300098 0.91788856
0.98631476 0.98631476 0.98631476
0.98631476 0.98631476 0.98631476
0.06256109 0.84946237 0.59042033
0.06256109 0.82502444 0.57869013
0.06256109 0.80254154 0.56695992
0.06256109 0.80351906 0.50048876
0.77321603 0.78396872 0.29130010
0.98631476 0.78690127 0.75562072
0.98631476 0.87292278 0.87878788
0.98631476 0.98631476 0.98631476
0.98631476 0.98631476 0.98631476
0.81524927 0.98631476 0.86901271
0.78201369 0.98631476 0.84750733
0.73998045 0.98631476 0.82111437
0.65982405 0.98631476 0.77419355
0.66471163 0.98631476 0.70869990
0.94134897 0.95112414 0.06256109
0.98631476 0.93157380 0.92277615
0.98631476 0.97849462 0.97849462
0.98631476 0.98631476 0.98631476
0.98631476 0.98631476 0.98631476
0.98631476 0.98631476 0.98631476
0.98631476 0.98631476 0.98631476
0.98631476 0.98631476 0.98631476
0.98631476 0.98631476 0.98631476
0.98631476 0.98631476 0.98631476
0.98631476 0.98631476 0.98631476
0.98631476 0.98631476 0.98631476
0.98631476 0.98631476 0.98631476
0.98631476 0.98631476 0.98631476
0.98631476 0.98631476 0.98631476
0.98631476 0.98631476 0.98631476
0.98631476 0.98631476 0.98631476
0.98631476 0.98631476 0.98631476
0.98631476 0.98631476 0.98631476
0.98631476 0.98631476 0.98631476
0.98631476 0.98631476 0.98631476
0.98631476 0.98631476 0.98631476
0.98631476 0.98631476 0.98631476
0.98631476 0.98631476 0.98631476
0.98631476 0.98631476 0.98631476
0.98631476 0.98631476 0.98631476
0.98631476 0.98631476 0.98631476
0.98631476 0.98631476 0.98631476
0.98631476 0.98631476 0.98631476
0.98631476 0.98631476 0.98631476
0.98631476 0.98631476 0.98631476
0.06256109 0.06256109 0.06256109
0.06256109 0.06256109 0.06256109
0.06256109 0.06256109 0.06256109
0.06256109 0.06256109 0.06256109
0.86608016 0.06256109 0.84261975
0.98631476 0.59628543 0.74193548
0.98631476 0.95405670 0.95698925
0.98631476 0.98631476 0.98631476
0.98631476 0.98631476 0.98631476
0.06256109 0.06256109 0.06256109
0.06256109 0.06256109 0.06256109
0.06256109 0.06256109 0.06256109
0.98631476 0.98631476 0.98631476
0.83186706 0.06256109 0.78787879
0.98631476 0.61779081 0.74682307
0.98631476 0.95112414 0.95503421
0.98631476 0.98631476 0.98631476
0.98631476 0.98631476 0.98631476
0.98631476 0.98631476 0.98631476
0.98631476 0.98631476 0.98631476
0.98631476 0.98631476 0.98631476
0.51515152 0.06256109 0.89736070
0.82013685 0.06256109 0.75464321
0.98631476 0.64125122 0.75268817
0.98631476 0.94819159 0.95210166
0.98631476 0.98631476 0.98631476
0.98631476 0.98631476 0.98631476
0.06256109 0.44379277 0.65689150
0.06256109 0.42424242 0.65395894
0.06256109 0.40273705 0.65004888
0.39296188 0.33724340 0.79960899
0.83479961 0.06256109 0.74975562
0.98631476 0.66177908 0.75855327
0.98631476 0.92668622 0.93255132
0.98631476 0.98631476 0.98631476
0.98631476 0.98631476 0.98631476
0.06256109 0.83870968 0.75464321
0.06256109 0.81329423 0.74486804
0.06256109 0.78885630 0.73607038
0.06256109 0.77614858 0.73607038
0.75171065 0.75171065 0.75171065
0.98631476 0.77223851 0.79569892
0.98631476 0.86412512 0.87487781
0.98631476 0.98631476 0.98631476
0.98631476 0.98631476 0.98631476
0.81427175 0.98631476 0.88563050
0.78103617 0.98631476 0.86901271
0.73607038 0.98631476 0.84946237
0.65004888 0.98631476 0.81231672
0.62463343 0.98631476 0.75562072
0.93255132 0.94623656 0.36461388
0.98631476 0.92570870 0.91691105
0.98631476 0.97458456 0.97556207
0.98631476 0.98631476 0.98631476
0.98631476 0.98631476 0.98631476
0.98631476 0.98631476 0.98631476
0.98631476 0.98631476 0.98631476
0.98631476 0.98631476 0.98631476
0.98631476 0.98631476 0.98631476
0.98631476 0.98631476 0.98631476
0.98631476 0.98631476 0.98631476
0.98631476 0.98631476 0.98631476
0.98631476 0.98631476 0.98631476
0.98631476 0.98631476 0.98631476
0.98631476 0.98631476 0.98631476
0.98631476 0.98631476 0.98631476
0.98631476 0.98631476 0.98631476
0.98631476 0.98631476 0.98631476
0.98631476 0.98631476 0.98631476
0.98631476 0.98631476 0.98631476
0.98631476 0.98631476 0.98631476
0.98631476 0.98631476 0.98631476
0.98631476 0.98631476 0.98631476
0.98631476 0.98631476 0.98631476
0.98631476 0.98631476 0.98631476
0.98631476 0.98631476 0.98631476
0.98631476 0.98631476 0.98631476
0.98631476 0.98631476 0.98631476
0.98631476 0.98631476 0.98631476
0.98631476 0.98631476 0.98631476
0.98631476 0.98631476 0.98631476
0.06256109 0.06256109 0.06256109
0.06256109 0.06256109 0.06256109
0.06256109 0.06256109 0.06256109
0.06256109 0.06256109 0.06256109
0.06256109 0.06256109 0.06256109
0.98631476 0.81133920 0.98631476
0.98631476 0.98631476 0.98631476
0.98631476 0.98631476 0.98631476
0.98631476 0.98631476 0.98631476
0.06256109 0.06256109 0.06256109
0.06256109 0.06256109 0.06256109
0.06256109 0.06256109 0.06256109
0.06256109 0.06256109 0.06256109
0.98631476 0.98631476 0.98631476
0.98631476 0.79569892 0.97458456
0.98631476 0.98631476 0.98631476
0.98631476 0.98631476 0.98631476
0.98631476 0.98631476 0.98631476
0.06256109 0.06256109 0.06256109
0.06256109 0.06256109 0.06256109
0.06256109 0.06256109 0.06256109
0.06256109 0.06256109 0.06256109
0.98631476 0.98631476 0.98631476
0.98631476 0.78885630 0.96285435
0.98631476 0.98631476 0.98631476
0.98631476 0.98631476 0.98631476
0.98631476 0.98631476 0.98631476
0.98631476 0.98631476 0.98631476
0.98631476 0.98631476 0.98631476
0.98631476 0.98631476 0.98631476
0.68914956 0.71065494 0.98631476
0.71260997 0.57478006 0.98631476
0.98631476 0.77028348 0.95014663
0.98631476 0.97947214 0.98142717
0.98631476 0.98631476 0.98631476
0.98631476 0.98631476 0.98631476
0.54154448 0.76441838 0.98631476
0.51221896 0.73704790 0.98631476
0.48387097 0.70967742 0.98631476
0.45063539 0.67546432 0.98631476
0.68914956 0.66471163 0.98631476
0.98631476 0.70674487 0.92961877
0.98631476 0.89931574 0.92082111
0.98631476 0.98631476 0.98631476
0.98631476 0.98631476 0.98631476
0.79472141 0.98631476 0.93939394
0.75171065 0.98631476 0.93841642
0.69305963 0.98631476 0.93743891
0.56989247 0.98631476 0.93646139
0.32746823 0.98631476 0.93841642
0.90713587 0.90713587 0.90713587
0.98631476 0.91397849 0.92082111
0.98631476 0.96578690 0.96774194
0.98631476 0.98631476 0.98631476
0.98631476 0.98631476 0.98631476
0.98631476 0.98631476 0.98631476
0.98631476 0.98631476 0.98631476
0.98631476 0.98631476 0.98631476
0.98631476 0.98631476 0.98631476
0.98631476 0.98631476 0.98631476
0.98631476 0.98631476 0.98631476
0.98631476 0.98631476 0.98631476
0.98631476 0.98631476 0.98631476
0.98631476 0.98631476 0.98631476
0.98631476 0.98631476 0.98631476
0.98631476 0.98631476 0.98631476
0.98631476 0.98631476 0.98631476
0.98631476 0.98631476 0.98631476
0.98631476 0.98631476 0.98631476
0.98631476 0.98631476 0.98631476
0.98631476 0.98631476 0.98631476
0.98631476 0.98631476 0.98631476
0.98631476 0.98631476 0.98631476
0.98631476 0.98631476 0.98631476
0.98631476 0.98631476 0.98631476
0.98631476 0.98631476 0.98631476
0.98631476 0.98631476 0.98631476
0.98631476 0.98631476 0.98631476
0.98631476 0.98631476 0.98631476
0.98631476 0.98631476 0.98631476
0.98631476 0.98631476 0.98631476
0.06256109 0.06256109 0.06256109
0.06256109 0.06256109 0.06256109
0.06256109 0.06256109 0.06256109
0.06256109 0.06256109 0.06256109
0.06256109 0.06256109 0.06256109
0.98631476 0.98631476 0.98631476
0.98631476 0.98631476 0.98631476
0.98631476 0.98631476 0.98631476
0.98631476 0.98631476 0.98631476
0.06256109 0.06256109 0.06256109
0.06256109 0.06256109 0.06256109
0.06256109 0.06256109 0.06256109
0.06256109 0.06256109 0.06256109
0.06256109 0.06256109 0.06256109
0.98631476 0.98631476 0.98631476
0.98631476 0.98631476 0.98631476
0.98631476 0.98631476 0.98631476
0.98631476 0.98631476 0.98631476
0.06256109 0.06256109 0.06256109
0.06256109 0.06256109 0.06256109
0.06256109 0.06256109 0.06256109
0.06256109 0.06256109 0.06256109
0.06256109 0.06256109 0.06256109
0.98631476 0.98631476 0.98631476
0.98631476 0.98631476 0.98631476
0.98631476 0.98631476 0.98631476
0.98631476 0.98631476 0.98631476
0.06256109 0.06256109 0.06256109
0.06256109 0.06256109 0.06256109
0.06256109 0.06256109 0.06256109
0.06256109 0.06256109 0.06256109
0.06256109 0.06256109 0.06256109
0.98631476 0.98631476 0.98631476
0.98631476 0.98631476 0.98631476
0.98631476 0.98631476 0.98631476
0.98631476 0.98631476 0.98631476
0.98631476 0.98631476 0.98631476
0.98631476 0.98631476 0.98631476
0.98631476 0.98631476 0.98631476
0.98631476 0.98631476 0.98631476
0.98631476 0.98631476 0.98631476
0.98631476 0.98631476 0.98631476
0.98631476 0.98631476 0.98631476
0.98631476 0.98631476 0.98631476
0.98631476 0.98631476 0.98631476
0.91886608 0.94819159 0.98631476
0.90909091 0.94037146 0.98631476
0.89638319 0.93059629 0.98631476
0.87194526 0.91202346 0.98631476
0.81427175 0.86901271 0.98631476
0.85434995 0.84555230 0.98631476
0.98631476 0.86314761 0.95894428
0.98631476 0.98631476 0.98631476
0.98631476 0.98631476 0.98631476
0.98631476 0.98631476 0.98631476
0.98631476 0.98631476 0.98631476
0.98631476 0.98631476 0.98631476
0.98631476 0.98631476 0.98631476
0.98631476 0.98631476 0.98631476
0.96383187 0.98631476 0.98338221
0.98533724 0.98533724 0.98533724
0.98631476 0.98631476 0.98631476
0.98631476 0.98631476 0.98631476
0.98631476 0.98631476 0.98631476
0.98631476 0.98631476 0.98631476
0.98631476 0.98631476 0.98631476
0.98631476 0.98631476 0.98631476
0.98631476 0.98631476 0.98631476
0.98631476 0.98631476 0.98631476
0.98631476 0.98631476 0.98631476
0.98631476 0.98631476 0.98631476
0.98631476 0.98631476 0.98631476
0.98631476 0.98631476 0.98631476
0.98631476 0.98631476 0.98631476
0.98631476 0.98631476 0.98631476
0.98631476 0.98631476 0.98631476
0.98631476 0.98631476 0.98631476
0.98631476 0.98631476 0.98631476
0.98631476 0.98631476 0.98631476
0.98631476 0.98631476 0.98631476
0.98631476 0.98631476 0.98631476
0.06256109 0.06256109 0.06256109
0.06256109 0.06256109 0.06256109
0.06256109 0.06256109 0.06256109
0.06256109 0.06256109 0.06256109
0.06256109 0.06256109 0.06256109
0.06256109 0.06256109 0.06256109
0.98631476 0.98631476 0.98631476
0.98631476 0.98631476 0.98631476
0.98631476 0.98631476 0.98631476
0.06256109 0.06256109 0.06256109
0.06256109 0.06256109 0.06256109
0.06256109 0.06256109 0.06256109
0.06256109 0.06256109 0.06256109
0.06256109 0.06256109 0.06256109
0.06256109 0.06256109 0.06256109
0.98631476 0.98631476 0.98631476
0.98631476 0.98631476 0.98631476
0.98631476 0.98631476 0.98631476
0.06256109 0.06256109 0.06256109
0.06256109 0.06256109 0.06256109
0.06256109 0.06256109 0.06256109
0.06256109 0.06256109 0.06256109
0.06256109 0.06256109 0.06256109
0.06256109 0.06256109 0.06256109
0.98631476 0.98631476 0.98631476
0.98631476 0.98631476 0.98631476
0.98631476 0.98631476 0.98631476
0.06256109 0.06256109 0.06256109
0.06256109 0.06256109 0.06256109
0.06256109 0.06256109 0.06256109
0.06256109 0.06256109 0.06256109
0.06256109 0.06256109 0.06256109
0.06256109 0.06256109 0.06256109
0.98631476 0.98631476 0.98631476
0.98631476 0.98631476 0.98631476
0.98631476 0.98631476 0.98631476
0.06256109 0.06256109 0.06256109
0.06256109 0.06256109 0.06256109
0.06256109 0.06256109 0.06256109
0.06256109 0.06256109 0.06256109
0.06256109 0.06256109 0.06256109
0.06256109 0.06256109 0.06256109
0.98631476 0.98631476 0.98631476
0.98631476 0.98631476 0.98631476
0.98631476 0.98631476 0.98631476
0.98631476 0.98631476 0.98631476
0.98631476 0.98631476 0.98631476
0.98631476 0.98631476 0.98631476
0.98631476 0.98631476 0.98631476
0.98631476 0.98631476 0.98631476
0.98631476 0.98631476 0.98631476
0.98631476 0.98631476 0.98631476
0.98631476 0.98631476 0.98631476
0.98631476 0.98631476 0.98631476
0.98631476 0.98631476 0.98631476
0.98631476 0.98631476 0.98631476
0.98631476 0.98631476 0.98631476
0.98631476 0.98631476 0.98631476
0.98631476 0.98631476 0.98631476
0.93059629 0.94721408 0.98631476
0.93157380 0.92864125 0.98631476
0.98631476 0.95992180 0.98044966
0.98631476 0.98631476 0.98631476
0.98631476 0.98631476 0.98631476
0.98631476 0.98631476 0.98631476
0.98631476 0.98631476 0.98631476
0.98631476 0.98631476 0.98631476
0.98631476 0.98631476 0.98631476
0.98631476 0.98631476 0.98631476
0.98631476 0.98631476 0.98631476
0.98631476 0.98631476 0.98631476
0.98631476 0.98631476 0.98631476
0.98631476 0.98631476 0.98631476
0.98631476 0.98631476 0.98631476
0.98631476 0.98631476 0.98631476
0.98631476 0.98631476 0.98631476
0.98631476 0.98631476 0.98631476
0.98631476 0.98631476 0.98631476
0.98631476 0.98631476 0.98631476
0.98631476 0.98631476 0.98631476
0.98631476 0.98631476 0.98631476
0.06256109 0.06256109 0.06256109
0.06256109 0.06256109 0.06256109
0.06256109 0.06256109 0.06256109
0.06256109 0.06256109 0.06256109
0.06256109 0.06256109 0.06256109
0.06256109 0.06256109 0.06256109
0.06256109 0.06256109 0.06256109
0.06256109 0.06256109 0.06256109
0.98631476 0.98631476 0.98631476
0.06256109 0.06256109 0.06256109
0.06256109 0.06256109 0.06256109
0.06256109 0.06256109 0.06256109
0.06256109 0.06256109 0.06256109
0.06256109 0.06256109 0.06256109
0.06256109 0.06256109 0.06256109
0.06256109 0.06256109 0.06256109
0.98631476 0.98631476 0.98631476
0.98631476 0.98631476 0.98631476
0.06256109 0.06256109 0.06256109
0.06256109 0.06256109 0.06256109
0.06256109 0.06256109 0.06256109
0.06256109 0.06256109 0.06256109
0.06256109 0.06256109 0.06256109
0.06256109 0.06256109 0.06256109
0.06256109 0.06256109 0.06256109
0.98631476 0.98631476 0.98631476
0.98631476 0.98631476 0.98631476
0.06256109 0.06256109 0.06256109
0.06256109 0.06256109 0.06256109
0.06256109 0.06256109 0.06256109
0.06256109 0.06256109 0.06256109
0.06256109 0.06256109 0.06256109
0.06256109 0.06256109 0.06256109
0.06256109 0.06256109 0.06256109
0.98631476 0.98631476 0.98631476
0.98631476 0.98631476 0.98631476
0.06256109 0.06256109 0.06256109
0.06256109 0.06256109 0.06256109
0.06256109 0.06256109 0.06256109
0.06256109 0.06256109 0.06256109
0.06256109 0.06256109 0.06256109
0.06256109 0.06256109 0.06256109
0.06256109 0.06256109 0.06256109
0.98631476 0.98631476 0.98631476
0.98631476 0.98631476 0.98631476
0.06256109 0.06256109 0.06256109
0.06256109 0.06256109 0.06256109
0.06256109 0.06256109 0.06256109
0.06256109 0.06256109 0.06256109
0.06256109 0.06256109 0.06256109
0.06256109 0.06256109 0.06256109
0.06256109 0.06256109 0.06256109
0.98631476 0.98631476 0.98631476
0.98631476 0.98631476 0.98631476
0.98631476 0.98631476 0.98631476
0.98631476 0.98631476 0.98631476
0.98631476 0.98631476 0.98631476
0.98631476 0.98631476 0.98631476
0.98631476 0.98631476 0.98631476
0.98631476 0.98631476 0.98631476
0.98631476 0.98631476 0.98631476
0.98631476 0.98631476 0.98631476
0.98631476 0.98631476 0.98631476
0.98631476 0.98631476 0.98631476
0.98631476 0.98631476 0.98631476
0.98631476 0.98631476 0.98631476
0.98631476 0.98631476 0.98631476
0.98631476 0.98631476 0.98631476
0.98631476 0.98631476 0.98631476
0.98631476 0.98631476 0.98631476
0.98631476 0.98631476 0.98631476
0.98631476 0.98631476 0.98631476
0.98631476 0.98631476 0.98631476
0.98631476 0.98631476 0.98631476
0.98631476 0.98631476 0.98631476
0.98631476 0.98631476 0.98631476
0.98631476 0.98631476 0.98631476
0.98631476 0.98631476 0.98631476
0.98631476 0.98631476 0.98631476
0.98631476 0.98631476 0.98631476
0.98631476 0.98631476 0.98631476
