agilex5e-ed/a5e065b-mod-devkit/src/vds/test_luts/slog3_to_bt709.cube
# hdr-sdr-cubes 0.1.0
# input=slog3 output=bt709 type=II matrix_comp=709
# chroma_gain=1.2 alpha=0.04 pq_peak=1000.0
# output=BT.709 BT.1886 (BT.2446 Method C + 2020->709)  interpolator=tetrahedral  legalise=AFTER LUT (R103 then 4-1019)
# DOMAIN 0-1 = 10-bit code/1023; output is narrow-range in a full 0-1023 container
# matrix_comp=709 is a locked variant: 709 YCbCr hardware on a BT.2100 SDI input
TITLE "slog3_to_bt709_typeII_mtx709_cg120"
LUT_3D_SIZE 33
DOMAIN_MIN 0.0 0.0 0.0
DOMAIN_MAX 1.0 1.0 1.0
0.06256109 0.06256109 0.06256109
0.06256109 0.06256109 0.06256109
0.06256109 0.06256109 0.06256109
0.06256109 0.06256109 0.06256109
0.06256109 0.06256109 0.06256109
0.06256109 0.06256109 0.06256109
0.06256109 0.06256109 0.06256109
0.06256109 0.06256109 0.06256109
0.06256109 0.06256109 0.06256109
0.06256109 0.06256109 0.06256109
0.33528837 0.06256109 0.14662757
0.38220919 0.06256109 0.16129032
0.43597263 0.06256109 0.17790811
0.49657869 0.06256109 0.19648094
0.56402737 0.06256109 0.21700880
0.64125122 0.06256109 0.24144673
0.72727273 0.06256109 0.26783969
0.82600196 0.06256109 0.29814272
0.93841642 0.06256109 0.33333333
0.98631476 0.35190616 0.44086022
0.98631476 0.52688172 0.57184751
0.98631476 0.67448680 0.69892473
0.98631476 0.80938416 0.82111437
0.98631476 0.88074291 0.88758553
0.98631476 0.92668622 0.93059629
0.98631476 0.96285435 0.96383187
0.98631476 0.98631476 0.98631476
0.98631476 0.98631476 0.98631476
0.98631476 0.98631476 0.98631476
0.98631476 0.98631476 0.98631476
0.98631476 0.98631476 0.98631476
0.98631476 0.98631476 0.98631476
0.98631476 0.98631476 0.98631476
0.06256109 0.06256109 0.06256109
0.06256109 0.06256109 0.06256109
0.06256109 0.06256109 0.06256109
0.06256109 0.06256109 0.06256109
0.06256109 0.06256109 0.06256109
0.06256109 0.06256109 0.06256109
0.06256109 0.06256109 0.06256109
0.06256109 0.06256109 0.06256109
0.23460411 0.06256109 0.11534702
0.28934506 0.06256109 0.13294233
0.33626588 0.06256109 0.14662757
0.38514174 0.06256109 0.16226784
0.43988270 0.06256109 0.17888563
0.50048876 0.06256109 0.19745846
0.56793744 0.06256109 0.21896383
0.64516129 0.06256109 0.24242424
0.73216031 0.06256109 0.26979472
0.83186706 0.06256109 0.30009775
0.94525904 0.06256109 0.33528837
0.98631476 0.36168133 0.44770283
0.98631476 0.53470186 0.57869013
0.98631476 0.68132942 0.70576735
0.98631476 0.81231672 0.82404692
0.98631476 0.88172043 0.88856305
0.98631476 0.92668622 0.93059629
0.98631476 0.96285435 0.96383187
0.98631476 0.98631476 0.98631476
0.98631476 0.98631476 0.98631476
0.98631476 0.98631476 0.98631476
0.98631476 0.98631476 0.98631476
0.98631476 0.98631476 0.98631476
0.98631476 0.98631476 0.98631476
0.98631476 0.98631476 0.98631476
0.06256109 0.06256109 0.06256109
0.06256109 0.06256109 0.06256109
0.06256109 0.06256109 0.06256109
0.06256109 0.06256109 0.06256109
0.06256109 0.06256109 0.06256109
0.06256109 0.06256109 0.06256109
0.06256109 0.06256109 0.06256109
0.21016618 0.06256109 0.10850440
0.25415445 0.06256109 0.12218964
0.29618768 0.06256109 0.13489736
0.34115347 0.06256109 0.14858260
0.38905181 0.06256109 0.16324536
0.44379277 0.06256109 0.17986315
0.50439883 0.06256109 0.19843597
0.57184751 0.06256109 0.21994135
0.65004888 0.06256109 0.24340176
0.73704790 0.06256109 0.27077224
0.83773216 0.06256109 0.30205279
0.95112414 0.06256109 0.33724340
0.98631476 0.37243402 0.45454545
0.98631476 0.54154448 0.58455523
0.98631476 0.68817204 0.71163245
0.98631476 0.81524927 0.82697947
0.98631476 0.88172043 0.88856305
0.98631476 0.92668622 0.93059629
0.98631476 0.96285435 0.96383187
0.98631476 0.98631476 0.98631476
0.98631476 0.98631476 0.98631476
0.98631476 0.98631476 0.98631476
0.98631476 0.98631476 0.98631476
0.98631476 0.98631476 0.98631476
0.98631476 0.98631476 0.98631476
0.98631476 0.98631476 0.98631476
0.06256109 0.06256109 0.06256109
0.06256109 0.06256109 0.06256109
0.06256109 0.06256109 0.06256109
0.06256109 0.10361681 0.10263930
0.11632454 0.10263930 0.06256109
0.16911046 0.08602151 0.06256109
0.19941349 0.06256109 0.09579668
0.22776149 0.06256109 0.11339198
0.26392962 0.06256109 0.12512219
0.30303030 0.06256109 0.13685239
0.34604106 0.06256109 0.14956012
0.39393939 0.06256109 0.16520039
0.44770283 0.06256109 0.18181818
0.50830890 0.06256109 0.20039101
0.57673509 0.06256109 0.22091887
0.65395894 0.06256109 0.24535679
0.74193548 0.06256109 0.27272727
0.84261975 0.06256109 0.30303030
0.95698925 0.06256109 0.33919844
0.98631476 0.38220919 0.46138807
0.98631476 0.54936461 0.59139785
0.98631476 0.69501466 0.71749756
0.98631476 0.81720430 0.82893451
0.98631476 0.88269795 0.88856305
0.98631476 0.92668622 0.93059629
0.98631476 0.96285435 0.96383187
0.98631476 0.98631476 0.98631476
0.98631476 0.98631476 0.98631476
0.98631476 0.98631476 0.98631476
0.98631476 0.98631476 0.98631476
0.98631476 0.98631476 0.98631476
0.98631476 0.98631476 0.98631476
0.98631476 0.98631476 0.98631476
0.06256109 0.14760508 0.14760508
0.06256109 0.14956012 0.13782991
0.06256109 0.14956012 0.11925709
0.06256109 0.14956012 0.11436950
0.11827957 0.15347019 0.06256109
0.17399804 0.14956012 0.06256109
0.21114370 0.14467253 0.06256109
0.24828935 0.13489736 0.06256109
0.28836755 0.11143695 0.06256109
0.32355816 0.06256109 0.11436950
0.35581623 0.06256109 0.14565005
0.39784946 0.06256109 0.16617791
0.45161290 0.06256109 0.18279570
0.51221896 0.06256109 0.20136852
0.58064516 0.06256109 0.22287390
0.65884653 0.06256109 0.24633431
0.74780059 0.06256109 0.27370479
0.84848485 0.06256109 0.30498534
0.96285435 0.06256109 0.34115347
0.98631476 0.39198436 0.46823069
0.98631476 0.55718475 0.59726295
0.98631476 0.70185728 0.72434018
0.98631476 0.82013685 0.83088954
0.98631476 0.88269795 0.88954057
0.98631476 0.92668622 0.93059629
0.98631476 0.96285435 0.96383187
0.98631476 0.98631476 0.98631476
0.98631476 0.98631476 0.98631476
0.98631476 0.98631476 0.98631476
0.98631476 0.98631476 0.98631476
0.98631476 0.98631476 0.98631476
0.98631476 0.98631476 0.98631476
0.98631476 0.98631476 0.98631476
0.06256109 0.17888563 0.14858260
0.06256109 0.17888563 0.13196481
0.06256109 0.17888563 0.13098729
0.06256109 0.17888563 0.13098729
0.11632454 0.18475073 0.06256109
0.17302053 0.18181818 0.06256109
0.20918866 0.17888563 0.06256109
0.24731183 0.17399804 0.06256109
0.28836755 0.16520039 0.06256109
0.33235582 0.14858260 0.06256109
0.38220919 0.10654936 0.06256109
0.42033236 0.06256109 0.14271750
0.46138807 0.06256109 0.17790811
0.51612903 0.06256109 0.20234604
0.58455523 0.06256109 0.22385142
0.66275660 0.06256109 0.24828935
0.75268817 0.06256109 0.27565982
0.85337243 0.06256109 0.30694037
0.96969697 0.06256109 0.34310850
0.98631476 0.40175953 0.47507331
0.98631476 0.56402737 0.60312805
0.98631476 0.70967742 0.73020528
0.98631476 0.82209189 0.83284457
0.98631476 0.88269795 0.88954057
0.98631476 0.92668622 0.93059629
0.98631476 0.96285435 0.96383187
0.98631476 0.98631476 0.98631476
0.98631476 0.98631476 0.98631476
0.98631476 0.98631476 0.98631476
0.98631476 0.98631476 0.98631476
0.98631476 0.98631476 0.98631476
0.98631476 0.98631476 0.98631476
0.98631476 0.98631476 0.98631476
0.06256109 0.20918866 0.14956012
0.06256109 0.20821114 0.14858260
0.06256109 0.20821114 0.14858260
0.06256109 0.20821114 0.14565005
0.06256109 0.21407625 0.09481916
0.15933529 0.21309873 0.06256109
0.20234604 0.21016618 0.06256109
0.24340176 0.20625611 0.06256109
0.28641251 0.20039101 0.06256109
0.33137830 0.18963832 0.06256109
0.38123167 0.17204301 0.06256109
0.43695015 0.13489736 0.06256109
0.48582600 0.06256109 0.14467253
0.53176931 0.06256109 0.19159335
0.58944282 0.06256109 0.22482893
0.66764418 0.06256109 0.24926686
0.75757576 0.06256109 0.27761486
0.85923754 0.06256109 0.30889541
0.97556207 0.06256109 0.34408602
0.98631476 0.41055718 0.48191593
0.98631476 0.57184751 0.60997067
0.98631476 0.71652004 0.73704790
0.98631476 0.82404692 0.83479961
0.98631476 0.88367546 0.89051808
0.98631476 0.92766373 0.93059629
0.98631476 0.96285435 0.96480938
0.98631476 0.98631476 0.98631476
0.98631476 0.98631476 0.98631476
0.98631476 0.98631476 0.98631476
0.98631476 0.98631476 0.98631476
0.98631476 0.98631476 0.98631476
0.98631476 0.98631476 0.98631476
0.98631476 0.98631476 0.98631476
0.06256109 0.24340176 0.16911046
0.06256109 0.24242424 0.16911046
0.06256109 0.24144673 0.16813294
0.06256109 0.24046921 0.16715543
0.06256109 0.24437928 0.14565005
0.11827957 0.24828935 0.06256109
0.18572825 0.24535679 0.06256109
0.23460411 0.24242424 0.06256109
0.28054741 0.23753666 0.06256109
0.32844575 0.23069404 0.06256109
0.37927664 0.21994135 0.06256109
0.43597263 0.20136852 0.06256109
0.49951124 0.16617791 0.06256109
0.56207234 0.06256109 0.13685239
0.61290323 0.06256109 0.20430108
0.67448680 0.06256109 0.24926686
0.76246334 0.06256109 0.27859238
0.86510264 0.06256109 0.31085044
0.98240469 0.06256109 0.34701857
0.98631476 0.41935484 0.48778104
0.98631476 0.57869013 0.61583578
0.98631476 0.72336266 0.74291300
0.98631476 0.82502444 0.83577713
0.98631476 0.88367546 0.89051808
0.98631476 0.92668622 0.93059629
0.98631476 0.96285435 0.96383187
0.98631476 0.98631476 0.98631476
0.98631476 0.98631476 0.98631476
0.98631476 0.98631476 0.98631476
0.98631476 0.98631476 0.98631476
0.98631476 0.98631476 0.98631476
0.98631476 0.98631476 0.98631476
0.98631476 0.98631476 0.98631476
0.06256109 0.28054741 0.19159335
0.06256109 0.27956989 0.19061584
0.06256109 0.27859238 0.18963832
0.06256109 0.27663734 0.18963832
0.06256109 0.27859238 0.17693060
0.06256109 0.28250244 0.14858260
0.14858260 0.28445748 0.06256109
0.21700880 0.28152493 0.06256109
0.27077224 0.27761486 0.06256109
0.32160313 0.27174976 0.06256109
0.37536657 0.26392962 0.06256109
0.43304008 0.25219941 0.06256109
0.49755621 0.23264907 0.06256109
0.56989247 0.19648094 0.06256109
0.64809384 0.06256109 0.11827957
0.70576735 0.06256109 0.21896383
0.77517107 0.06256109 0.27370479
0.87096774 0.06256109 0.31182796
0.98631476 0.12707722 0.35092864
0.98631476 0.42913001 0.49462366
0.98631476 0.58651026 0.62267840
0.98631476 0.73020528 0.74975562
0.98631476 0.82502444 0.83577713
0.98631476 0.88269795 0.88856305
0.98631476 0.92570870 0.92961877
0.98631476 0.96187683 0.96383187
0.98631476 0.98631476 0.98631476
0.98631476 0.98631476 0.98631476
0.98631476 0.98631476 0.98631476
0.98631476 0.98631476 0.98631476
0.98631476 0.98631476 0.98631476
0.98631476 0.98631476 0.98631476
0.98631476 0.98631476 0.98631476
0.06256109 0.32258065 0.21603128
0.06256109 0.32160313 0.21505376
0.06256109 0.31964809 0.21407625
0.06256109 0.31769306 0.21309873
0.06256109 0.31769306 0.20723363
0.06256109 0.31964809 0.19159335
0.06256109 0.32355816 0.15053763
0.18084066 0.32355816 0.06256109
0.25122190 0.32062561 0.06256109
0.30987292 0.31573803 0.06256109
0.36754643 0.30987292 0.06256109
0.42815249 0.30107527 0.06256109
0.49462366 0.28739003 0.06256109
0.56793744 0.26588465 0.06256109
0.65004888 0.22678397 0.06256109
0.74291300 0.10752688 0.06256109
0.81036168 0.06256109 0.23655914
0.88954057 0.06256109 0.30303030
0.98631476 0.17693060 0.35972630
0.98631476 0.43792766 0.50146628
0.98631476 0.59335288 0.62854350
0.98631476 0.73607038 0.75464321
0.98631476 0.82306940 0.83382209
0.98631476 0.87976540 0.88660802
0.98631476 0.92375367 0.92766373
0.98631476 0.96089932 0.96187683
0.98631476 0.98631476 0.98631476
0.98631476 0.98631476 0.98631476
0.98631476 0.98631476 0.98631476
0.98631476 0.98631476 0.98631476
0.98631476 0.98631476 0.98631476
0.98631476 0.98631476 0.98631476
0.98631476 0.98631476 0.98631476
0.06256109 0.37047898 0.24437928
0.06256109 0.36852395 0.24340176
0.06256109 0.36559140 0.24144673
0.06256109 0.36363636 0.24046921
0.06256109 0.36168133 0.23949169
0.06256109 0.36265885 0.22776149
0.06256109 0.36559140 0.20625611
0.06256109 0.37047898 0.14271750
0.21309873 0.36852395 0.06256109
0.28836755 0.36461388 0.06256109
0.35386119 0.35972630 0.06256109
0.41935484 0.35288368 0.06256109
0.48875855 0.34213099 0.06256109
0.56402737 0.32746823 0.06256109
0.64809384 0.30303030 0.06256109
0.74193548 0.26001955 0.06256109
0.84848485 0.14956012 0.06256109
0.92961877 0.06256109 0.25610948
0.98631476 0.26001955 0.37243402
0.98631476 0.44770283 0.50928641
0.98631476 0.60117302 0.63538612
0.98631476 0.73802542 0.75659824
0.98631476 0.82013685 0.83088954
0.98631476 0.87585533 0.88367546
0.98631476 0.92082111 0.92473118
0.98631476 0.95796676 0.95992180
0.98631476 0.98631476 0.98631476
0.98631476 0.98631476 0.98631476
0.98631476 0.98631476 0.98631476
0.98631476 0.98631476 0.98631476
0.98631476 0.98631476 0.98631476
0.98631476 0.98631476 0.98631476
0.98631476 0.98631476 0.98631476
0.06256109 0.42424242 0.27663734
0.06256109 0.42130987 0.27468231
0.06256109 0.41837732 0.27272727
0.06256109 0.41642229 0.27174976
0.06256109 0.41348974 0.26979472
0.06256109 0.41251222 0.26490714
0.06256109 0.41348974 0.25024438
0.06256109 0.41739980 0.22189638
0.06256109 0.42228739 0.12512219
0.24633431 0.41935484 0.06256109
0.32942326 0.41446725 0.06256109
0.40371457 0.40860215 0.06256109
0.47800587 0.40078201 0.06256109
0.55718475 0.38905181 0.06256109
0.64320626 0.37145650 0.06256109
0.73900293 0.34408602 0.06256109
0.84750733 0.29716520 0.06256109
0.96969697 0.18181818 0.06256109
0.98631476 0.34799609 0.39100684
0.98631476 0.48093842 0.52492669
0.98631476 0.60899316 0.64222874
0.98631476 0.73704790 0.75562072
0.98631476 0.81427175 0.82600196
0.98631476 0.87096774 0.87781036
0.98631476 0.91593353 0.92082111
0.98631476 0.95405670 0.95601173
0.98631476 0.98631476 0.98631476
0.98631476 0.98631476 0.98631476
0.98631476 0.98631476 0.98631476
0.98631476 0.98631476 0.98631476
0.98631476 0.98631476 0.98631476
0.98631476 0.98631476 0.98631476
0.98631476 0.98631476 0.98631476
0.06256109 0.48582600 0.31280547
0.06256109 0.48191593 0.31085044
0.06256109 0.47898338 0.30889541
0.06256109 0.47605083 0.30694037
0.06256109 0.47311828 0.30498534
0.06256109 0.47018573 0.30303030
0.06256109 0.46920821 0.29423265
0.06256109 0.47116325 0.27565982
0.06256109 0.47507331 0.23949169
0.10752688 0.48093842 0.06256109
0.28347996 0.47702835 0.06256109
0.37634409 0.47116325 0.06256109
0.46041056 0.46432063 0.06256109
0.54447703 0.45454545 0.06256109
0.63538612 0.44183773 0.06256109
0.73411535 0.42228739 0.06256109
0.84457478 0.39100684 0.06256109
0.96871945 0.33724340 0.06256109
0.98631476 0.42521994 0.41348974
0.98631476 0.53274682 0.55131965
0.98631476 0.64027370 0.66275660
0.98631476 0.73216031 0.75171065
0.98631476 0.80645161 0.81915934
0.98631476 0.86314761 0.87096774
0.98631476 0.90909091 0.91397849
0.98631476 0.94916911 0.95112414
0.98631476 0.98338221 0.98338221
0.98631476 0.98631476 0.98631476
0.98631476 0.98631476 0.98631476
0.98631476 0.98631476 0.98631476
0.98631476 0.98631476 0.98631476
0.98631476 0.98631476 0.98631476
0.98631476 0.98631476 0.98631476
0.06256109 0.55620723 0.35386119
0.06256109 0.55229717 0.35190616
0.06256109 0.54838710 0.34995112
0.06256109 0.54447703 0.34799609
0.06256109 0.54154448 0.34506354
0.06256109 0.53763441 0.34310850
0.06256109 0.53372434 0.34115347
0.06256109 0.53470186 0.32746823
0.06256109 0.53665689 0.30498534
0.06256109 0.54154448 0.26001955
0.15738025 0.54740958 0.06256109
0.32551320 0.54154448 0.06256109
0.42913001 0.53567937 0.06256109
0.52394917 0.52785924 0.06256109
0.62170088 0.51710655 0.06256109
0.72434018 0.50146628 0.06256109
0.83773216 0.47898338 0.06256109
0.96480938 0.44379277 0.06256109
0.98631476 0.50244379 0.43988270
0.98631476 0.59042033 0.58357771
0.98631476 0.68426197 0.69305963
0.98631476 0.74584555 0.75953079
0.98631476 0.79472141 0.80742913
0.98631476 0.85141740 0.86119257
0.98631476 0.90029326 0.90518084
0.98631476 0.94134897 0.94428152
0.98631476 0.97751711 0.97849462
0.98631476 0.98631476 0.98631476
0.98631476 0.98631476 0.98631476
0.98631476 0.98631476 0.98631476
0.98631476 0.98631476 0.98631476
0.98631476 0.98631476 0.98631476
0.98631476 0.98631476 0.98631476
0.06256109 0.63636364 0.40175953
0.06256109 0.63245357 0.39980450
0.06256109 0.62854350 0.39687195
0.06256109 0.62365591 0.39393939
0.06256109 0.61974585 0.39198436
0.06256109 0.61583578 0.38905181
0.06256109 0.61094819 0.38709677
0.06256109 0.60801564 0.38123167
0.06256109 0.60899316 0.36559140
0.06256109 0.61192571 0.33822092
0.06256109 0.61681329 0.28347996
0.19648094 0.62267840 0.06256109
0.37243402 0.61583578 0.06256109
0.48875855 0.60899316 0.06256109
0.59824047 0.59921799 0.06256109
0.70869990 0.58748778 0.06256109
0.82697947 0.56989247 0.06256109
0.95698925 0.54447703 0.06256109
0.98631476 0.58357771 0.47409580
0.98631476 0.65591398 0.62463343
0.98631476 0.72336266 0.71847507
0.98631476 0.76735093 0.77321603
0.98631476 0.80254154 0.81231672
0.98631476 0.83675464 0.84750733
0.98631476 0.88758553 0.89442815
0.98631476 0.93157380 0.93450635
0.98631476 0.96969697 0.97067449
0.98631476 0.98631476 0.98631476
0.98631476 0.98631476 0.98631476
0.98631476 0.98631476 0.98631476
0.98631476 0.98631476 0.98631476
0.98631476 0.98631476 0.98631476
0.98631476 0.98631476 0.98631476
0.06256109 0.73020528 0.45650049
0.06256109 0.72434018 0.45356794
0.06256109 0.71945259 0.45063539
0.06256109 0.71456500 0.44770283
0.06256109 0.70967742 0.44477028
0.06256109 0.70478983 0.44183773
0.06256109 0.69990225 0.43988270
0.06256109 0.69599218 0.43695015
0.06256109 0.69305963 0.42815249
0.06256109 0.69403715 0.40860215
0.06256109 0.69696970 0.37634409
0.06256109 0.70283480 0.30987292
0.23362659 0.70869990 0.06256109
0.42521994 0.70087977 0.06256109
0.55816227 0.69305963 0.06256109
0.68132942 0.68230694 0.06256109
0.80840665 0.66764418 0.06256109
0.94525904 0.64809384 0.06256109
0.98631476 0.67155425 0.51612903
0.98631476 0.72043011 0.66666667
0.98631476 0.75855327 0.73998045
0.98631476 0.78983382 0.78690127
0.98631476 0.81818182 0.82209189
0.98631476 0.84359726 0.85043988
0.98631476 0.87096774 0.87878788
0.98631476 0.91788856 0.92277615
0.98631476 0.95894428 0.96089932
0.98631476 0.98631476 0.98631476
0.98631476 0.98631476 0.98631476
0.98631476 0.98631476 0.98631476
0.98631476 0.98631476 0.98631476
0.98631476 0.98631476 0.98631476
0.98631476 0.98631476 0.98631476
0.06256109 0.83675464 0.52003910
0.06256109 0.83088954 0.51710655
0.06256109 0.82600196 0.51319648
0.06256109 0.82013685 0.51026393
0.06256109 0.81427175 0.50635386
0.06256109 0.80840665 0.50342131
0.06256109 0.80254154 0.50048876
0.06256109 0.79765396 0.49657869
0.06256109 0.79178886 0.49364614
0.06256109 0.78983382 0.48191593
0.06256109 0.79081134 0.45845552
0.06256109 0.79472141 0.42033236
0.06256109 0.80156403 0.34115347
0.27468231 0.80645161 0.06256109
0.48484848 0.79863148 0.06256109
0.63636364 0.78885630 0.06256109
0.77810362 0.77614858 0.06256109
0.92179863 0.75855327 0.06256109
0.98631476 0.75171065 0.52883675
0.98631476 0.77028348 0.68621701
0.98631476 0.79178886 0.75659824
0.98631476 0.81427175 0.80058651
0.98631476 0.83479961 0.83284457
0.98631476 0.85630499 0.85923754
0.98631476 0.87683284 0.88172043
0.98631476 0.90127077 0.90615836
0.98631476 0.94525904 0.94819159
0.98631476 0.98533724 0.98533724
0.98631476 0.98631476 0.98631476
0.98631476 0.98631476 0.98631476
0.98631476 0.98631476 0.98631476
0.98631476 0.98631476 0.98631476
0.98631476 0.98631476 0.98631476
0.06256109 0.93841642 0.58064516
0.06256109 0.93450635 0.57771261
0.06256109 0.93059629 0.57575758
0.06256109 0.92668622 0.57282502
0.06256109 0.92179863 0.57086999
0.06256109 0.91691105 0.56793744
0.06256109 0.91300098 0.56500489
0.06256109 0.90713587 0.56207234
0.06256109 0.90224829 0.55913978
0.06256109 0.89736070 0.55522972
0.06256109 0.89540567 0.54056696
0.06256109 0.89638319 0.51319648
0.06256109 0.90029326 0.46823069
0.06256109 0.90615836 0.37341153
0.31476051 0.90811339 0.06256109
0.54447703 0.89345064 0.06256109
0.70674487 0.87487781 0.06256109
0.85239492 0.84848485 0.06256109
0.98631476 0.81524927 0.27370479
0.98631476 0.81427175 0.67839687
0.98631476 0.82404692 0.76637341
0.98631476 0.83870968 0.81329423
0.98631476 0.85434995 0.84457478
0.98631476 0.87096774 0.86901271
0.98631476 0.88758553 0.89051808
0.98631476 0.90518084 0.90909091
0.98631476 0.92766373 0.93157380
0.98631476 0.97067449 0.97165200
0.98631476 0.98631476 0.98631476
0.98631476 0.98631476 0.98631476
0.98631476 0.98631476 0.98631476
0.98631476 0.98631476 0.98631476
0.98631476 0.98631476 0.98631476
0.33137830 0.98631476 0.63734115
0.28054741 0.98631476 0.62658847
0.19941349 0.98631476 0.61485826
0.06256109 0.98533724 0.60801564
0.06256109 0.98240469 0.60606061
0.06256109 0.97849462 0.60410557
0.06256109 0.97556207 0.60215054
0.06256109 0.97165200 0.60019550
0.06256109 0.96774194 0.59726295
0.06256109 0.96383187 0.59530792
0.06256109 0.95894428 0.59237537
0.06256109 0.95796676 0.57478006
0.06256109 0.95894428 0.54447703
0.06256109 0.96187683 0.49462366
0.06256109 0.96578690 0.38905181
0.34213099 0.96480938 0.06256109
0.57869013 0.94623656 0.06256109
0.74682307 0.92179863 0.06256109
0.89638319 0.89051808 0.06256109
0.98631476 0.85728250 0.57966764
0.98631476 0.85630499 0.76246334
0.98631476 0.86314761 0.82209189
0.98631476 0.87390029 0.85630499
0.98631476 0.88660802 0.87976540
0.98631476 0.90127077 0.89931574
0.98631476 0.91593353 0.91788856
0.98631476 0.93157380 0.93450635
0.98631476 0.95210166 0.95405670
0.98631476 0.98631476 0.98631476
0.98631476 0.98631476 0.98631476
0.98631476 0.98631476 0.98631476
0.98631476 0.98631476 0.98631476
0.98631476 0.98631476 0.98631476
0.65395894 0.98631476 0.77126100
0.64125122 0.98631476 0.76344086
0.62756598 0.98631476 0.75659824
0.61388074 0.98631476 0.74877810
0.59921799 0.98631476 0.74193548
0.58357771 0.98631476 0.73411535
0.56598240 0.98631476 0.72531769
0.54545455 0.98631476 0.71554252
0.52199413 0.98631476 0.70381232
0.49169110 0.98631476 0.69110459
0.45356794 0.98631476 0.67644184
0.40273705 0.98631476 0.65786901
0.40175953 0.98631476 0.64222874
0.41055718 0.98631476 0.62072336
0.43108504 0.98631476 0.59042033
0.46334311 0.98631476 0.54252199
0.51221896 0.98631476 0.44574780
0.60410557 0.98240469 0.06256109
0.77712610 0.95503421 0.06256109
0.92961877 0.92082111 0.06256109
0.98631476 0.89051808 0.71065494
0.98631476 0.88954057 0.82404692
0.98631476 0.89540567 0.86705767
0.98631476 0.90518084 0.89149560
0.98631476 0.91593353 0.91104594
0.98631476 0.92766373 0.92668622
0.98631476 0.94134897 0.94232649
0.98631476 0.95601173 0.95698925
0.98631476 0.97556207 0.97556207
0.98631476 0.98631476 0.98631476
0.98631476 0.98631476 0.98631476
0.98631476 0.98631476 0.98631476
0.98631476 0.98631476 0.98631476
0.80449658 0.98631476 0.86217009
0.79667644 0.98631476 0.85630499
0.78787879 0.98631476 0.85141740
0.78005865 0.98631476 0.84652981
0.77126100 0.98631476 0.84066471
0.76148583 0.98631476 0.83479961
0.75171065 0.98631476 0.82893451
0.73998045 0.98631476 0.82111437
0.72727273 0.98631476 0.81329423
0.71260997 0.98631476 0.80449658
0.69403715 0.98631476 0.79374389
0.67253177 0.98631476 0.78103617
0.64613881 0.98631476 0.76637341
0.64516129 0.98631476 0.75659824
0.64711632 0.98631476 0.74389052
0.65395894 0.98631476 0.72727273
0.66666667 0.98631476 0.70185728
0.68817204 0.98631476 0.65786901
0.72434018 0.98631476 0.56304985
0.80156403 0.98240469 0.06256109
0.95796676 0.94623656 0.06256109
0.98631476 0.91788856 0.80156403
0.98631476 0.91788856 0.87487781
0.98631476 0.92375367 0.90420332
0.98631476 0.93157380 0.92375367
0.98631476 0.94134897 0.93841642
0.98631476 0.95210166 0.95210166
0.98631476 0.96480938 0.96578690
0.98631476 0.97849462 0.97849462
0.98631476 0.98631476 0.98631476
0.98631476 0.98631476 0.98631476
0.98631476 0.98631476 0.98631476
0.98631476 0.98631476 0.98631476
0.91202346 0.98631476 0.93352884
0.90615836 0.98631476 0.92961877
0.89931574 0.98631476 0.92570870
0.89345064 0.98631476 0.92082111
0.88660802 0.98631476 0.91691105
0.88074291 0.98631476 0.91202346
0.87292278 0.98631476 0.90713587
0.86510264 0.98631476 0.90224829
0.85532747 0.98631476 0.89540567
0.84555230 0.98631476 0.88856305
0.83284457 0.98631476 0.88074291
0.81915934 0.98631476 0.87096774
0.80156403 0.98631476 0.86021505
0.78103617 0.98631476 0.84652981
0.78005865 0.98631476 0.84066471
0.78005865 0.98631476 0.83284457
0.78299120 0.98631476 0.82209189
0.78983382 0.98631476 0.80742913
