agilex5e-ed/a5e065b-mod-devkit/src/vds/test_luts/slog3_to_bt709_opt2.cube
# hdr-sdr-cubes 0.1.0
# input=slog3 output=bt709 type=II matrix_comp=709
# chroma_gain=1.0 alpha=0.04 pq_peak=1000.0
# highlight_compression=1.4 sdr_contrast=1.15 highlight_desat=0.35 vibrance=0.25 temp=0.2
# output=BT.709 BT.1886 (BT.2446 Method C + 2020->709)  interpolator=tetrahedral  legalise=AFTER LUT (R103 then 4-1019)
# DOMAIN 0-1 = 10-bit code/1023; output is narrow-range in a full 0-1023 container
# matrix_comp=709 is a locked variant: 709 YCbCr hardware on a BT.2100 SDI input
TITLE "slog3_to_bt709_typeII_mtx709_cg100_hc140_sc115_hd035_vb025_tpw020"
LUT_3D_SIZE 33
DOMAIN_MIN 0.0 0.0 0.0
DOMAIN_MAX 1.0 1.0 1.0
0.06256109 0.06256109 0.06256109
0.06256109 0.06256109 0.06256109
0.06256109 0.06256109 0.06256109
0.06256109 0.06256109 0.06256109
0.06256109 0.06256109 0.06256109
0.06256109 0.06256109 0.06256109
0.06256109 0.06256109 0.06256109
0.06256109 0.06256109 0.06256109
0.06256109 0.06256109 0.06256109
0.06256109 0.06256109 0.06256109
0.06256109 0.06256109 0.06256109
0.26881720 0.08113392 0.12121212
0.32258065 0.08504399 0.13685239
0.37927664 0.09090909 0.15249267
0.44183773 0.09579668 0.17008798
0.51417400 0.10263930 0.19061584
0.59628543 0.10948192 0.21407625
0.69110459 0.11827957 0.24144673
0.80058651 0.12707722 0.27272727
0.92864125 0.13880743 0.30889541
1.00000000 0.33137830 0.41055718
1.00000000 0.52981427 0.56109482
1.00000000 0.69892473 0.70772239
1.00000000 0.83773216 0.83186706
1.00000000 0.89638319 0.88563050
1.00000000 0.93548387 0.92179863
1.00000000 0.96676442 0.95112414
1.00000000 0.99413490 0.97556207
1.00000000 1.00000000 0.99804497
1.00000000 1.00000000 1.00000000
1.00000000 1.00000000 1.00000000
1.00000000 1.00000000 1.00000000
1.00000000 1.00000000 1.00000000
0.06256109 0.06256109 0.06256109
0.06256109 0.06256109 0.06256109
0.06256109 0.06256109 0.06256109
0.06256109 0.06256109 0.06256109
0.06256109 0.06256109 0.06256109
0.06256109 0.06256109 0.06256109
0.06256109 0.06256109 0.06256109
0.06256109 0.06256109 0.06256109
0.06256109 0.06256109 0.06256109
0.19061584 0.07429130 0.09872923
0.24340176 0.07820137 0.11436950
0.28739003 0.08211144 0.12707722
0.33626588 0.08699902 0.14076246
0.39002933 0.09090909 0.15542522
0.45161290 0.09677419 0.17302053
0.52297165 0.10263930 0.19354839
0.60410557 0.11045943 0.21700880
0.69892473 0.11827957 0.24340176
0.80938416 0.12805474 0.27468231
0.93743891 0.13978495 0.31182796
1.00000000 0.34604106 0.42033236
1.00000000 0.53958944 0.56989247
1.00000000 0.70869990 0.71652004
1.00000000 0.83968719 0.83284457
1.00000000 0.89638319 0.88563050
1.00000000 0.93548387 0.92179863
1.00000000 0.96676442 0.95014663
1.00000000 0.99413490 0.97556207
1.00000000 1.00000000 0.99804497
1.00000000 1.00000000 1.00000000
1.00000000 1.00000000 1.00000000
1.00000000 1.00000000 1.00000000
1.00000000 1.00000000 1.00000000
0.06256109 0.06256109 0.06256109
0.06256109 0.06256109 0.06256109
0.06256109 0.06256109 0.06256109
0.06256109 0.06256109 0.06256109
0.06256109 0.06256109 0.06256109
0.06256109 0.06256109 0.06256109
0.06256109 0.06256109 0.06256109
0.15444770 0.07038123 0.08895406
0.19159335 0.07429130 0.09872923
0.22385142 0.07722385 0.10850440
0.26001955 0.08015640 0.11827957
0.30009775 0.08308895 0.13000978
0.34604106 0.08797654 0.14369501
0.39882698 0.09188661 0.15835777
0.46041056 0.09775171 0.17595308
0.53079179 0.10361681 0.19550342
0.61290323 0.11143695 0.21896383
0.70772239 0.11925709 0.24633431
0.81818182 0.12903226 0.27761486
0.94721408 0.14076246 0.31378299
1.00000000 0.36070381 0.43010753
1.00000000 0.55034213 0.57771261
1.00000000 0.71945259 0.72531769
1.00000000 0.84066471 0.83479961
1.00000000 0.89638319 0.88563050
1.00000000 0.93548387 0.92082111
1.00000000 0.96676442 0.95014663
1.00000000 0.99413490 0.97556207
1.00000000 1.00000000 0.99804497
1.00000000 1.00000000 1.00000000
1.00000000 1.00000000 1.00000000
1.00000000 1.00000000 1.00000000
1.00000000 1.00000000 1.00000000
0.06256109 0.06256109 0.06256109
0.06256109 0.06256109 0.06256109
0.06256109 0.06256109 0.06256109
0.07135875 0.09872923 0.08993157
0.09090909 0.09872923 0.06256109
0.13294233 0.09188661 0.06256109
0.16129032 0.07135875 0.06256109
0.18377322 0.07331378 0.09286413
0.20723363 0.07526882 0.10361681
0.23655914 0.07820137 0.11241447
0.27077224 0.08113392 0.12218964
0.30987292 0.08406647 0.13294233
0.35483871 0.08797654 0.14565005
0.40762463 0.09286413 0.16031281
0.46823069 0.09872923 0.17790811
0.53861193 0.10459433 0.19843597
0.62072336 0.11143695 0.22091887
0.71652004 0.12023460 0.24828935
0.82697947 0.13000978 0.27956989
0.95601173 0.14076246 0.31671554
1.00000000 0.37438905 0.43988270
1.00000000 0.56011730 0.58651026
1.00000000 0.72922776 0.73411535
1.00000000 0.84164223 0.83577713
1.00000000 0.89638319 0.88563050
1.00000000 0.93548387 0.92082111
1.00000000 0.96676442 0.95014663
1.00000000 0.99413490 0.97556207
1.00000000 1.00000000 0.99804497
1.00000000 1.00000000 1.00000000
1.00000000 1.00000000 1.00000000
1.00000000 1.00000000 1.00000000
1.00000000 1.00000000 1.00000000
0.08113392 0.13880743 0.12414467
0.08015640 0.13782991 0.11241447
0.07917889 0.13685239 0.10557185
0.07917889 0.13587488 0.10459433
0.10850440 0.13978495 0.06256109
0.14858260 0.13782991 0.06256109
0.17693060 0.13391984 0.06256109
0.20332356 0.12903226 0.06256109
0.23264907 0.12023460 0.06256109
0.26588465 0.10166178 0.06256109
0.29618768 0.08211144 0.09677419
0.32649071 0.08602151 0.12609971
0.36461388 0.08895406 0.14662757
0.41544477 0.09384164 0.16324536
0.47605083 0.09872923 0.17986315
0.54643206 0.10557185 0.20039101
0.62854350 0.11241447 0.22385142
0.72434018 0.12121212 0.25024438
0.83577713 0.13098729 0.28250244
0.96578690 0.14173998 0.31964809
1.00000000 0.38807429 0.44965787
1.00000000 0.56989247 0.59530792
1.00000000 0.73998045 0.74389052
1.00000000 0.84261975 0.83675464
1.00000000 0.89638319 0.88465298
1.00000000 0.93450635 0.92082111
1.00000000 0.96676442 0.95014663
1.00000000 0.99413490 0.97556207
1.00000000 1.00000000 0.99804497
1.00000000 1.00000000 1.00000000
1.00000000 1.00000000 1.00000000
1.00000000 1.00000000 1.00000000
1.00000000 1.00000000 1.00000000
0.08602151 0.16520039 0.12121212
0.08602151 0.16422287 0.12023460
0.08504399 0.16324536 0.12023460
0.08504399 0.16520039 0.11436950
0.12218964 0.16813294 0.06256109
0.15640274 0.16715543 0.06256109
0.18181818 0.16422287 0.06256109
0.20918866 0.16129032 0.06256109
0.23949169 0.15738025 0.06256109
0.27272727 0.15053763 0.06256109
0.31085044 0.13782991 0.06256109
0.35483871 0.10948192 0.06256109
0.39296188 0.09090909 0.11339198
0.43597263 0.09481916 0.15053763
0.48680352 0.09970674 0.17888563
0.55425220 0.10557185 0.20234604
0.63636364 0.11339198 0.22580645
0.73216031 0.12121212 0.25317693
0.84457478 0.13098729 0.28445748
0.97458456 0.14271750 0.32160313
1.00000000 0.40078201 0.45845552
1.00000000 0.57966764 0.60312805
1.00000000 0.74975562 0.75268817
1.00000000 0.84359726 0.83675464
1.00000000 0.89638319 0.88465298
1.00000000 0.93450635 0.92082111
1.00000000 0.96676442 0.95014663
1.00000000 0.99413490 0.97556207
1.00000000 1.00000000 0.99902248
1.00000000 1.00000000 1.00000000
1.00000000 1.00000000 1.00000000
1.00000000 1.00000000 1.00000000
1.00000000 1.00000000 1.00000000
0.09286413 0.19452590 0.13782991
0.09188661 0.19354839 0.13685239
0.09188661 0.19159335 0.13685239
0.09090909 0.19550342 0.11925709
0.11730205 0.19745846 0.06256109
0.15444770 0.19550342 0.06256109
0.18377322 0.19354839 0.06256109
0.21309873 0.19061584 0.06256109
0.24535679 0.18768328 0.06256109
0.27956989 0.18279570 0.06256109
0.31769306 0.17497556 0.06256109
0.36168133 0.16129032 0.06256109
0.41153470 0.13587488 0.06256109
0.46236559 0.09677419 0.09775171
0.51124145 0.10166178 0.15933529
0.56989247 0.10654936 0.19550342
0.64418377 0.11339198 0.22776149
0.73998045 0.12218964 0.25513196
0.85239492 0.13196481 0.28739003
0.98338221 0.14369501 0.32453568
1.00000000 0.41251222 0.46823069
1.00000000 0.58944282 0.61192571
1.00000000 0.75855327 0.76050831
1.00000000 0.84457478 0.83773216
1.00000000 0.89638319 0.88465298
1.00000000 0.93450635 0.92082111
1.00000000 0.96676442 0.95014663
1.00000000 0.99413490 0.97556207
1.00000000 1.00000000 0.99902248
1.00000000 1.00000000 1.00000000
1.00000000 1.00000000 1.00000000
1.00000000 1.00000000 1.00000000
1.00000000 1.00000000 1.00000000
0.09970674 0.22776149 0.15738025
0.09970674 0.22678397 0.15640274
0.09970674 0.22580645 0.15347019
0.09872923 0.22873900 0.13685239
0.09677419 0.23167155 0.07429130
0.14760508 0.22971652 0.06256109
0.18279570 0.22776149 0.06256109
0.21603128 0.22580645 0.06256109
0.24926686 0.22287390 0.06256109
0.28543500 0.21896383 0.06256109
0.32453568 0.21309873 0.06256109
0.36950147 0.20527859 0.06256109
0.42033236 0.19159335 0.06256109
0.47898338 0.16715543 0.06256109
0.54545455 0.10361681 0.06256109
0.60117302 0.10850440 0.16422287
0.66959922 0.11534702 0.21309873
0.75171065 0.12316716 0.25610948
0.86217009 0.13294233 0.29032258
0.99413490 0.14467253 0.32746823
1.00000000 0.42521994 0.47702835
1.00000000 0.59921799 0.62072336
1.00000000 0.76344086 0.76441838
1.00000000 0.84457478 0.83773216
1.00000000 0.89540567 0.88465298
1.00000000 0.93450635 0.91984360
1.00000000 0.96578690 0.95014663
1.00000000 0.99413490 0.97556207
1.00000000 1.00000000 0.99902248
1.00000000 1.00000000 1.00000000
1.00000000 1.00000000 1.00000000
1.00000000 1.00000000 1.00000000
1.00000000 1.00000000 1.00000000
0.10850440 0.26588465 0.17888563
0.10850440 0.26392962 0.17790811
0.10752688 0.26392962 0.17106549
0.10654936 0.26588465 0.15640274
0.10557185 0.26783969 0.12805474
0.12805474 0.26881720 0.06256109
0.17693060 0.26686217 0.06256109
0.21603128 0.26392962 0.06256109
0.25219941 0.26099707 0.06256109
0.29032258 0.25806452 0.06256109
0.33137830 0.25415445 0.06256109
0.37732160 0.24731183 0.06256109
0.42913001 0.23851417 0.06256109
0.48875855 0.22385142 0.06256109
0.55718475 0.19843597 0.06256109
0.63734115 0.13489736 0.06256109
0.70576735 0.11730205 0.16813294
0.78494624 0.12512219 0.23362659
0.88074291 0.13391984 0.28641251
1.00000000 0.14565005 0.33040078
1.00000000 0.43890518 0.48778104
1.00000000 0.60997067 0.62952102
1.00000000 0.76637341 0.76735093
1.00000000 0.84359726 0.83675464
1.00000000 0.89345064 0.88269795
1.00000000 0.93255132 0.91886608
1.00000000 0.96480938 0.94916911
1.00000000 0.99315738 0.97556207
1.00000000 1.00000000 0.99902248
1.00000000 1.00000000 1.00000000
1.00000000 1.00000000 1.00000000
1.00000000 1.00000000 1.00000000
1.00000000 1.00000000 1.00000000
0.11827957 0.30987292 0.20430108
0.11827957 0.30791789 0.20234604
0.11730205 0.30889541 0.19257087
0.11632454 0.30987292 0.17888563
0.11534702 0.31085044 0.15835777
0.11436950 0.31182796 0.11730205
0.16031281 0.31182796 0.06256109
0.21016618 0.30889541 0.06256109
0.25219941 0.30596285 0.06256109
0.29423265 0.30303030 0.06256109
0.33724340 0.29912023 0.06256109
0.38514174 0.29423265 0.06256109
0.43890518 0.28739003 0.06256109
0.49951124 0.27663734 0.06256109
0.56793744 0.26001955 0.06256109
0.64907136 0.23264907 0.06256109
0.74193548 0.17008798 0.06256109
0.82697947 0.12805474 0.17204301
0.91886608 0.13685239 0.25806452
1.00000000 0.24144673 0.34799609
1.00000000 0.45356794 0.49853372
1.00000000 0.62170088 0.64027370
1.00000000 0.76735093 0.76832845
1.00000000 0.84066471 0.83479961
1.00000000 0.89051808 0.88074291
1.00000000 0.93059629 0.91691105
1.00000000 0.96383187 0.94721408
1.00000000 0.99217986 0.97458456
1.00000000 1.00000000 0.99804497
1.00000000 1.00000000 1.00000000
1.00000000 1.00000000 1.00000000
1.00000000 1.00000000 1.00000000
1.00000000 1.00000000 1.00000000
0.13000978 0.36168133 0.23264907
0.12903226 0.36070381 0.22678397
0.12903226 0.36070381 0.21700880
0.12805474 0.36070381 0.20430108
0.12707722 0.36070381 0.18866080
0.12609971 0.36070381 0.16520039
0.12414467 0.36265885 0.06256109
0.19452590 0.36070381 0.06256109
0.24633431 0.35679374 0.06256109
0.29325513 0.35386119 0.06256109
0.34115347 0.34995112 0.06256109
0.39198436 0.34604106 0.06256109
0.44770283 0.34017595 0.06256109
0.50928641 0.33235582 0.06256109
0.57966764 0.32062561 0.06256109
0.66080156 0.30205279 0.06256109
0.75464321 0.27077224 0.06256109
0.86412512 0.20430108 0.06256109
0.96774194 0.13978495 0.17497556
1.00000000 0.32942326 0.37243402
1.00000000 0.48778104 0.51906158
1.00000000 0.63440860 0.65102639
1.00000000 0.76539589 0.76637341
1.00000000 0.83577713 0.82991202
1.00000000 0.88660802 0.87585533
1.00000000 0.92668622 0.91300098
1.00000000 0.96089932 0.94525904
1.00000000 0.99022483 0.97262952
1.00000000 1.00000000 0.99706745
1.00000000 1.00000000 1.00000000
1.00000000 1.00000000 1.00000000
1.00000000 1.00000000 1.00000000
1.00000000 1.00000000 1.00000000
0.14369501 0.42228739 0.26392962
0.14271750 0.42130987 0.25513196
0.14173998 0.42033236 0.24633431
0.14076246 0.42033236 0.23460411
0.13978495 0.41935484 0.22189638
0.13880743 0.41837732 0.20430108
0.13782991 0.41935484 0.16911046
0.15347019 0.42033236 0.06256109
0.23069404 0.41739980 0.06256109
0.28739003 0.41348974 0.06256109
0.34115347 0.40957967 0.06256109
0.39589443 0.40469208 0.06256109
0.45552297 0.39980450 0.06256109
0.52003910 0.39296188 0.06256109
0.59237537 0.38416422 0.06256109
0.67448680 0.37047898 0.06256109
0.76930596 0.34995112 0.06256109
0.87976540 0.31378299 0.06256109
1.00000000 0.24144673 0.06256109
1.00000000 0.40566960 0.40175953
1.00000000 0.53763441 0.54740958
1.00000000 0.66764418 0.67546432
1.00000000 0.76050831 0.76246334
1.00000000 0.82893451 0.82404692
1.00000000 0.88074291 0.87096774
1.00000000 0.92179863 0.90909091
1.00000000 0.95698925 0.94134897
1.00000000 0.98729228 0.96969697
1.00000000 1.00000000 0.99511241
1.00000000 1.00000000 1.00000000
1.00000000 1.00000000 1.00000000
1.00000000 1.00000000 1.00000000
1.00000000 1.00000000 1.00000000
0.15933529 0.49462366 0.29716520
0.15835777 0.49266862 0.28934506
0.15738025 0.49169110 0.28054741
0.15640274 0.48973607 0.26979472
0.15542522 0.48778104 0.25806452
0.15444770 0.48680352 0.24437928
0.15249267 0.48582600 0.22091887
0.15151515 0.48680352 0.17106549
0.19159335 0.48680352 0.06256109
0.27077224 0.48289345 0.06256109
0.33528837 0.47898338 0.06256109
0.39687195 0.47409580 0.06256109
0.46041056 0.46920821 0.06256109
0.52883675 0.46236559 0.06256109
0.60410557 0.45454545 0.06256109
0.68914956 0.44477028 0.06256109
0.78592375 0.42913001 0.06256109
0.89638319 0.40469208 0.06256109
1.00000000 0.37438905 0.06256109
1.00000000 0.48289345 0.43792766
1.00000000 0.59433040 0.58260020
1.00000000 0.70967742 0.70478983
1.00000000 0.77419355 0.77126100
1.00000000 0.81915934 0.81427175
1.00000000 0.87194526 0.86217009
1.00000000 0.91495601 0.90224829
1.00000000 0.95112414 0.93646139
1.00000000 0.98338221 0.96578690
1.00000000 1.00000000 0.99217986
1.00000000 1.00000000 1.00000000
1.00000000 1.00000000 1.00000000
1.00000000 1.00000000 1.00000000
1.00000000 1.00000000 1.00000000
0.17790811 0.57966764 0.33822092
0.17693060 0.57673509 0.32942326
0.17595308 0.57380254 0.32062561
0.17497556 0.57086999 0.31182796
0.17302053 0.56891496 0.30107527
0.17204301 0.56598240 0.28934506
0.17106549 0.56500489 0.27077224
0.16911046 0.56402737 0.23949169
0.16715543 0.56500489 0.16911046
0.23069404 0.56402737 0.06256109
0.31671554 0.55913978 0.06256109
0.39002933 0.55425220 0.06256109
0.46041056 0.54936461 0.06256109
0.53470186 0.54349951 0.06256109
0.61388074 0.53567937 0.06256109
0.70185728 0.52688172 0.06256109
0.80156403 0.51417400 0.06256109
0.91495601 0.49657869 0.06256109
1.00000000 0.48191593 0.17790811
1.00000000 0.56500489 0.48387097
1.00000000 0.65982405 0.62756598
1.00000000 0.74486804 0.72825024
1.00000000 0.79276637 0.78299120
1.00000000 0.82893451 0.82013685
1.00000000 0.85923754 0.85141740
1.00000000 0.90518084 0.89345064
1.00000000 0.94330401 0.92864125
1.00000000 0.97751711 0.96089932
1.00000000 1.00000000 0.98826979
1.00000000 1.00000000 1.00000000
1.00000000 1.00000000 1.00000000
1.00000000 1.00000000 1.00000000
1.00000000 1.00000000 1.00000000
0.19941349 0.67937439 0.38611926
0.19843597 0.67546432 0.37732160
0.19745846 0.67155425 0.36950147
0.19550342 0.66764418 0.35972630
0.19452590 0.66373412 0.34995112
0.19354839 0.65982405 0.34017595
0.19159335 0.65786901 0.32453568
0.18963832 0.65591398 0.30107527
0.18768328 0.65591398 0.26099707
0.18572825 0.65689150 0.16129032
0.27370479 0.65395894 0.06256109
0.36950147 0.64907136 0.06256109
0.45259042 0.64320626 0.06256109
0.53470186 0.63636364 0.06256109
0.62072336 0.62952102 0.06256109
0.71456500 0.62170088 0.06256109
0.81720430 0.61094819 0.06256109
0.93352884 0.59628543 0.06256109
1.00000000 0.58944282 0.25610948
1.00000000 0.65493646 0.54252199
1.00000000 0.73020528 0.67937439
1.00000000 0.77712610 0.74975562
1.00000000 0.81231672 0.79472141
1.00000000 0.84164223 0.82893451
1.00000000 0.86803519 0.85728250
1.00000000 0.89149560 0.88074291
1.00000000 0.93352884 0.91984360
1.00000000 0.96969697 0.95307918
1.00000000 1.00000000 0.98240469
1.00000000 1.00000000 1.00000000
1.00000000 1.00000000 1.00000000
1.00000000 1.00000000 1.00000000
1.00000000 1.00000000 1.00000000
0.22580645 0.79569892 0.44281525
0.22385142 0.79081134 0.43401760
0.22287390 0.78592375 0.42619746
0.22091887 0.78103617 0.41739980
0.21896383 0.77614858 0.40762463
0.21798631 0.77126100 0.39784946
0.21603128 0.76735093 0.38416422
0.21407625 0.76441838 0.36559140
0.21212121 0.76246334 0.33626588
0.21016618 0.76148583 0.28641251
0.20723363 0.76344086 0.13978495
0.32160313 0.75953079 0.06256109
0.43010753 0.75268817 0.06256109
0.52590420 0.74584555 0.06256109
0.62170088 0.73900293 0.06256109
0.72238514 0.73020528 0.06256109
0.83186706 0.72043011 0.06256109
0.95210166 0.70869990 0.06256109
1.00000000 0.70478983 0.33333333
1.00000000 0.74780059 0.61094819
1.00000000 0.78005865 0.70967742
1.00000000 0.80840665 0.76735093
1.00000000 0.83382209 0.80742913
1.00000000 0.85728250 0.83870968
1.00000000 0.87878788 0.86412512
1.00000000 0.90029326 0.88660802
1.00000000 0.91984360 0.90713587
1.00000000 0.95894428 0.94330401
1.00000000 0.99315738 0.97556207
1.00000000 1.00000000 1.00000000
1.00000000 1.00000000 1.00000000
1.00000000 1.00000000 1.00000000
1.00000000 1.00000000 1.00000000
0.30498534 0.92961877 0.52101662
0.29618768 0.92570870 0.51221896
0.28445748 0.91984360 0.50146628
0.27272727 0.91397849 0.48973607
0.26099707 0.90811339 0.47800587
0.24828935 0.90224829 0.46627566
0.24535679 0.89736070 0.45356794
0.24340176 0.89247312 0.43695015
0.24144673 0.88954057 0.41348974
0.23851417 0.88660802 0.37829912
0.23558162 0.88660802 0.31671554
0.23167155 0.88856305 0.06256109
0.37634409 0.88269795 0.06256109
0.50048876 0.87487781 0.06256109
0.61192571 0.86705767 0.06256109
0.72434018 0.85826002 0.06256109
0.83968719 0.84652981 0.06256109
0.95210166 0.82697947 0.13782991
1.00000000 0.80058651 0.28152493
1.00000000 0.80840665 0.62658847
1.00000000 0.82209189 0.72629521
1.00000000 0.83870968 0.78201369
1.00000000 0.85630499 0.81915934
1.00000000 0.87390029 0.84848485
1.00000000 0.89149560 0.87194526
1.00000000 0.91006843 0.89345064
1.00000000 0.92766373 0.91202346
1.00000000 0.94525904 0.93059629
1.00000000 0.98240469 0.96480938
1.00000000 1.00000000 0.99511241
1.00000000 1.00000000 1.00000000
1.00000000 1.00000000 1.00000000
1.00000000 1.00000000 1.00000000
0.41446725 0.99217986 0.58455523
0.41055718 0.99022483 0.57869013
0.40566960 0.98826979 0.57282502
0.40175953 0.98631476 0.56695992
0.39784946 0.98435973 0.56011730
0.39296188 0.98240469 0.55327468
0.38807429 0.98044966 0.54447703
0.38416422 0.97849462 0.53176931
0.37927664 0.97751711 0.51612903
0.37438905 0.97653959 0.49364614
0.36852395 0.97556207 0.46041056
0.36265885 0.97653959 0.40469208
0.35581623 0.97947214 0.28347996
0.47018573 0.97067449 0.25610948
0.58260020 0.95894428 0.26099707
0.68914956 0.94428152 0.26881720
0.79374389 0.92668622 0.28054741
0.90029326 0.90420332 0.29618768
1.00000000 0.87683284 0.31476051
1.00000000 0.85728250 0.57380254
1.00000000 0.86021505 0.72629521
1.00000000 0.86803519 0.79081134
1.00000000 0.87878788 0.82991202
1.00000000 0.89247312 0.85826002
1.00000000 0.90615836 0.88074291
1.00000000 0.92082111 0.90127077
1.00000000 0.93646139 0.91886608
1.00000000 0.95210166 0.93548387
1.00000000 0.96871945 0.95210166
1.00000000 1.00000000 0.98533724
1.00000000 1.00000000 1.00000000
1.00000000 1.00000000 1.00000000
1.00000000 1.00000000 1.00000000
0.47898338 1.00000000 0.62658847
0.47605083 1.00000000 0.62267840
0.47311828 1.00000000 0.61779081
0.47018573 1.00000000 0.61388074
0.46627566 1.00000000 0.60899316
0.46334311 1.00000000 0.60312805
0.45943304 1.00000000 0.59726295
0.45650049 1.00000000 0.58846530
0.45259042 1.00000000 0.57771261
0.44868035 1.00000000 0.56207234
0.44379277 1.00000000 0.54154448
0.43890518 1.00000000 0.51026393
0.43304008 1.00000000 0.45845552
0.42424242 1.00000000 0.35679374
0.52785924 1.00000000 0.34604106
0.63147605 1.00000000 0.34995112
0.73313783 0.98338221 0.35581623
0.83479961 0.96383187 0.36363636
0.93743891 0.94037146 0.37536657
1.00000000 0.91104594 0.38905181
1.00000000 0.89638319 0.69110459
1.00000000 0.89736070 0.79178886
1.00000000 0.90322581 0.83870968
1.00000000 0.91202346 0.86803519
1.00000000 0.92179863 0.89051808
1.00000000 0.93352884 0.90909091
1.00000000 0.94721408 0.92668622
1.00000000 0.96089932 0.94232649
1.00000000 0.97556207 0.95796676
1.00000000 0.99022483 0.97262952
1.00000000 1.00000000 1.00000000
1.00000000 1.00000000 1.00000000
1.00000000 1.00000000 1.00000000
0.52981427 1.00000000 0.66177908
0.52688172 1.00000000 0.65786901
0.52492669 1.00000000 0.65493646
0.52199413 1.00000000 0.65102639
0.51906158 1.00000000 0.64711632
0.51612903 1.00000000 0.64320626
0.51319648 1.00000000 0.63831867
0.51026393 1.00000000 0.63147605
0.50733138 1.00000000 0.62365591
0.50439883 1.00000000 0.61290323
0.50048876 1.00000000 0.59921799
0.49560117 1.00000000 0.57869013
0.49071359 1.00000000 0.54838710
0.48387097 1.00000000 0.50048876
0.47507331 1.00000000 0.40762463
0.57184751 1.00000000 0.40566960
0.66959922 1.00000000 0.40860215
0.76735093 1.00000000 0.41446725
0.86705767 0.99217986 0.42130987
0.96774194 0.96774194 0.43108504
1.00000000 0.93743891 0.46334311
1.00000000 0.92668622 0.76832845
1.00000000 0.92766373 0.84066471
1.00000000 0.93255132 0.87683284
1.00000000 0.93939394 0.90029326
1.00000000 0.94819159 0.91886608
1.00000000 0.95894428 0.93450635
1.00000000 0.97067449 0.94916911
1.00000000 0.98338221 0.96383187
1.00000000 0.99706745 0.97751711
1.00000000 1.00000000 0.99120235
1.00000000 1.00000000 1.00000000
1.00000000 1.00000000 1.00000000
0.69794721 1.00000000 0.76050831
0.69110459 1.00000000 0.75562072
0.68426197 1.00000000 0.74975562
0.67644184 1.00000000 0.74486804
0.66959922 1.00000000 0.73900293
0.66177908 1.00000000 0.73313783
0.65493646 1.00000000 0.72629521
0.64711632 1.00000000 0.71945259
0.64027370 1.00000000 0.71163245
0.63343109 1.00000000 0.70283480
0.62756598 1.00000000 0.69208211
0.62267840 1.00000000 0.68035191
0.61876833 1.00000000 0.66373412
0.61583578 1.00000000 0.64320626
0.61681329 1.00000000 0.61388074
0.62170088 1.00000000 0.56891496
0.63245357 1.00000000 0.48973607
0.70283480 1.00000000 0.45650049
0.79765396 1.00000000 0.46236559
0.89442815 1.00000000 0.46920821
0.99315738 0.99022483 0.47800587
1.00000000 0.96187683 0.63929619
1.00000000 0.95405670 0.82795699
1.00000000 0.95405670 0.88172043
1.00000000 0.95796676 0.91006843
1.00000000 0.96480938 0.92864125
1.00000000 0.97262952 0.94428152
1.00000000 0.98240469 0.95796676
1.00000000 0.99315738 0.97067449
1.00000000 1.00000000 0.98435973
1.00000000 1.00000000 0.99706745
1.00000000 1.00000000 1.00000000
1.00000000 1.00000000 1.00000000
0.81133920 1.00000000 0.83773216
0.80645161 1.00000000 0.83382209
0.80156403 1.00000000 0.82991202
0.79667644 1.00000000 0.82600196
0.79178886 1.00000000 0.82209189
0.78592375 1.00000000 0.81818182
0.78103617 1.00000000 0.81329423
0.77614858 1.00000000 0.80840665
0.77126100 1.00000000 0.80351906
0.76637341 1.00000000 0.79765396
0.76148583 1.00000000 0.79178886
0.75757576 1.00000000 0.78396872
0.75366569 1.00000000 0.77517107
0.75073314 1.00000000 0.76441838
0.74877810 1.00000000 0.75073314
