agilex5e-ed/a5e065b-mod-devkit/src/vds/test_luts/slog3_to_bt709_opt2.cube
# hdr-sdr-cubes 0.1.0
# input=slog3 output=bt709 type=II matrix_comp=709
# chroma_gain=1.0 alpha=0.04 pq_peak=1000.0
# highlight_compression=1.4 sdr_contrast=1.15 highlight_desat=0.35 vibrance=0.25 temp=0.2
# output=BT.709 BT.1886 (BT.2446 Method C + 2020->709)  interpolator=tetrahedral  legalise=AFTER LUT (R103 then 4-1019)
# DOMAIN 0-1 = 10-bit code/1023; output is narrow-range in a full 0-1023 container
# matrix_comp=709 is a locked variant: 709 YCbCr hardware on a BT.2100 SDI input
TITLE "slog3_to_bt709_typeII_mtx709_cg100_hc140_sc115_hd035_vb025_tpw020"
LUT_3D_SIZE 5
DOMAIN_MIN 0.0 0.0 0.0
DOMAIN_MAX 1.0 1.0 1.0
0.06256109 0.06256109 0.06256109
0.06256109 0.06256109 0.06256109
0.59628543 0.10948192 0.21407625
1.00000000 0.89638319 0.88563050
1.00000000 1.00000000 1.00000000
0.10850440 0.26588465 0.17888563
0.25219941 0.26099707 0.06256109
0.70576735 0.11730205 0.16813294
1.00000000 0.89345064 0.88269795
1.00000000 1.00000000 1.00000000
0.30498534 0.92961877 0.52101662
0.24144673 0.88954057 0.41348974
0.83968719 0.84652981 0.06256109
1.00000000 0.89149560 0.87194526
1.00000000 1.00000000 1.00000000
1.00000000 1.00000000 0.98924731
0.98826979 1.00000000 0.97067449
0.96871945 1.00000000 0.94525904
1.00000000 1.00000000 0.58944282
1.00000000 1.00000000 1.00000000
1.00000000 1.00000000 1.00000000
1.00000000 1.00000000 1.00000000
1.00000000 1.00000000 1.00000000
1.00000000 1.00000000 1.00000000
1.00000000 1.00000000 1.00000000
0.06256109 0.06256109 0.06256109
0.06256109 0.06256109 0.06256109
0.59335288 0.11143695 0.27174976
1.00000000 0.89833822 0.88758553
1.00000000 1.00000000 1.00000000
0.11241447 0.25122190 0.23264907
0.24340176 0.24046921 0.23655914
0.68523949 0.11827957 0.27370479
1.00000000 0.89540567 0.88465298
1.00000000 1.00000000 1.00000000
0.31476051 0.93450635 0.53470186
0.24437928 0.89736070 0.43695015
0.83773216 0.85141740 0.06256109
1.00000000 0.89051808 0.87096774
1.00000000 1.00000000 1.00000000
1.00000000 1.00000000 0.99315738
0.99315738 1.00000000 0.97458456
0.97360704 1.00000000 0.95014663
1.00000000 1.00000000 0.58944282
1.00000000 1.00000000 1.00000000
1.00000000 1.00000000 1.00000000
1.00000000 1.00000000 1.00000000
1.00000000 1.00000000 1.00000000
1.00000000 1.00000000 1.00000000
1.00000000 1.00000000 1.00000000
0.06256109 0.06256109 0.06256109
0.06256109 0.06256109 0.06256109
0.51808407 0.12414467 0.53274682
1.00000000 0.92179863 0.92179863
1.00000000 1.00000000 1.00000000
0.06256109 0.06256109 0.06256109
0.06256109 0.06256109 0.06256109
0.64222874 0.13685239 0.62267840
1.00000000 0.91593353 0.91397849
1.00000000 1.00000000 1.00000000
0.31573803 0.90029326 0.79569892
0.26881720 0.84848485 0.77517107
0.81427175 0.80156403 0.78396872
1.00000000 0.87781036 0.87390029
1.00000000 1.00000000 1.00000000
1.00000000 1.00000000 0.99120235
0.98924731 1.00000000 0.97360704
0.96774194 1.00000000 0.94916911
1.00000000 1.00000000 0.58846530
1.00000000 1.00000000 1.00000000
1.00000000 1.00000000 1.00000000
1.00000000 1.00000000 1.00000000
1.00000000 1.00000000 1.00000000
1.00000000 1.00000000 1.00000000
1.00000000 1.00000000 1.00000000
0.06256109 0.06256109 0.06256109
0.06256109 0.06256109 0.06256109
0.06256109 0.06256109 0.06256109
1.00000000 1.00000000 1.00000000
1.00000000 1.00000000 1.00000000
0.06256109 0.06256109 0.06256109
0.06256109 0.06256109 0.06256109
0.06256109 0.06256109 0.06256109
1.00000000 1.00000000 1.00000000
1.00000000 1.00000000 1.00000000
0.48875855 0.51710655 0.98631476
0.41544477 0.45552297 0.97165200
0.53958944 0.52883675 0.99022483
1.00000000 1.00000000 1.00000000
1.00000000 1.00000000 1.00000000
0.95210166 1.00000000 1.00000000
0.91495601 1.00000000 1.00000000
0.87585533 1.00000000 1.00000000
1.00000000 1.00000000 1.00000000
1.00000000 1.00000000 1.00000000
1.00000000 1.00000000 1.00000000
1.00000000 1.00000000 1.00000000
1.00000000 1.00000000 1.00000000
1.00000000 1.00000000 1.00000000
1.00000000 1.00000000 1.00000000
0.06256109 0.06256109 0.06256109
0.06256109 0.06256109 0.06256109
0.06256109 0.06256109 0.06256109
0.06256109 0.06256109 0.06256109
1.00000000 1.00000000 1.00000000
0.06256109 0.06256109 0.06256109
0.06256109 0.06256109 0.06256109
0.06256109 0.06256109 0.06256109
0.06256109 0.06256109 0.06256109
1.00000000 1.00000000 1.00000000
0.06256109 0.06256109 0.06256109
0.06256109 0.06256109 0.06256109
0.06256109 0.06256109 0.06256109
0.06256109 0.06256109 0.06256109
1.00000000 1.00000000 1.00000000
0.96969697 0.95796676 1.00000000
1.00000000 1.00000000 1.00000000
1.00000000 1.00000000 1.00000000
1.00000000 1.00000000 1.00000000
1.00000000 1.00000000 1.00000000
1.00000000 1.00000000 1.00000000
1.00000000 1.00000000 1.00000000
1.00000000 1.00000000 1.00000000
1.00000000 1.00000000 1.00000000
1.00000000 1.00000000 1.00000000
