agilex5e-ed/a5e065b-mod-devkit/src/vds/test_luts/slog3_to_bt709.cube
# hdr-sdr-cubes 0.1.0
# input=slog3 output=bt709 type=II matrix_comp=709
# chroma_gain=1.2 alpha=0.04 pq_peak=1000.0
# output=BT.709 BT.1886 (BT.2446 Method C + 2020->709)  interpolator=tetrahedral  legalise=AFTER LUT (R103 then 4-1019)
# DOMAIN 0-1 = 10-bit code/1023; output is narrow-range in a full 0-1023 container
# matrix_comp=709 is a locked variant: 709 YCbCr hardware on a BT.2100 SDI input
TITLE "slog3_to_bt709_typeII_mtx709_cg120"
LUT_3D_SIZE 5
DOMAIN_MIN 0.0 0.0 0.0
DOMAIN_MAX 1.0 1.0 1.0
0.06256109 0.06256109 0.06256109
0.06256109 0.06256109 0.06256109
0.72727273 0.06256109 0.26783969
0.98631476 0.92668622 0.93059629
0.98631476 0.98631476 0.98631476
0.06256109 0.28054741 0.19159335
0.27077224 0.27761486 0.06256109
0.77517107 0.06256109 0.27370479
0.98631476 0.92570870 0.92961877
0.98631476 0.98631476 0.98631476
0.06256109 0.83675464 0.52003910
0.06256109 0.79178886 0.49364614
0.77810362 0.77614858 0.06256109
0.98631476 0.87683284 0.88172043
0.98631476 0.98631476 0.98631476
0.98631476 0.98631476 0.98631476
0.98631476 0.98631476 0.98631476
0.98631476 0.98631476 0.98631476
0.98631476 0.98631476 0.98631476
0.98631476 0.98631476 0.98631476
0.98631476 0.98631476 0.98631476
0.98631476 0.98631476 0.98631476
0.98631476 0.98631476 0.98631476
0.98631476 0.98631476 0.98631476
0.98631476 0.98631476 0.98631476
0.06256109 0.06256109 0.06256109
0.06256109 0.06256109 0.06256109
0.73900293 0.06256109 0.30694037
0.98631476 0.92961877 0.93352884
0.98631476 0.98631476 0.98631476
0.06256109 0.27565982 0.25806452
0.26197458 0.26197458 0.26197458
0.77517107 0.06256109 0.30205279
0.98631476 0.92864125 0.93157380
0.98631476 0.98631476 0.98631476
0.06256109 0.84848485 0.52688172
0.06256109 0.80156403 0.49951124
0.77712610 0.78494624 0.06256109
0.98631476 0.87585533 0.88172043
0.98631476 0.98631476 0.98631476
0.98631476 0.98631476 0.98631476
0.98631476 0.98631476 0.98631476
0.98631476 0.98631476 0.98631476
0.98631476 0.98631476 0.98631476
0.98631476 0.98631476 0.98631476
0.98631476 0.98631476 0.98631476
0.98631476 0.98631476 0.98631476
0.98631476 0.98631476 0.98631476
0.98631476 0.98631476 0.98631476
0.98631476 0.98631476 0.98631476
0.06256109 0.06256109 0.06256109
0.06256109 0.06256109 0.06256109
0.86608016 0.06256109 0.84261975
0.98631476 0.95405670 0.95698925
0.98631476 0.98631476 0.98631476
0.98631476 0.98631476 0.98631476
0.98631476 0.98631476 0.98631476
0.82013685 0.06256109 0.75464321
0.98631476 0.94819159 0.95210166
0.98631476 0.98631476 0.98631476
0.06256109 0.83870968 0.75464321
0.06256109 0.78885630 0.73607038
0.75171065 0.75171065 0.75171065
0.98631476 0.86412512 0.87487781
0.98631476 0.98631476 0.98631476
0.98631476 0.98631476 0.98631476
0.98631476 0.98631476 0.98631476
0.98631476 0.98631476 0.98631476
0.98631476 0.98631476 0.98631476
0.98631476 0.98631476 0.98631476
0.98631476 0.98631476 0.98631476
0.98631476 0.98631476 0.98631476
0.98631476 0.98631476 0.98631476
0.98631476 0.98631476 0.98631476
0.98631476 0.98631476 0.98631476
0.06256109 0.06256109 0.06256109
0.06256109 0.06256109 0.06256109
0.06256109 0.06256109 0.06256109
0.98631476 0.98631476 0.98631476
0.98631476 0.98631476 0.98631476
0.06256109 0.06256109 0.06256109
0.06256109 0.06256109 0.06256109
0.06256109 0.06256109 0.06256109
0.98631476 0.98631476 0.98631476
0.98631476 0.98631476 0.98631476
0.98631476 0.98631476 0.98631476
0.98631476 0.98631476 0.98631476
0.98631476 0.98631476 0.98631476
0.98631476 0.98631476 0.98631476
0.98631476 0.98631476 0.98631476
0.98631476 0.98631476 0.98631476
0.98631476 0.98631476 0.98631476
0.98631476 0.98631476 0.98631476
0.98533724 0.98533724 0.98533724
0.98631476 0.98631476 0.98631476
0.98631476 0.98631476 0.98631476
0.98631476 0.98631476 0.98631476
0.98631476 0.98631476 0.98631476
0.98631476 0.98631476 0.98631476
0.98631476 0.98631476 0.98631476
0.06256109 0.06256109 0.06256109
0.06256109 0.06256109 0.06256109
0.06256109 0.06256109 0.06256109
0.06256109 0.06256109 0.06256109
0.98631476 0.98631476 0.98631476
0.06256109 0.06256109 0.06256109
0.06256109 0.06256109 0.06256109
0.06256109 0.06256109 0.06256109
0.06256109 0.06256109 0.06256109
0.98631476 0.98631476 0.98631476
0.06256109 0.06256109 0.06256109
0.06256109 0.06256109 0.06256109
0.06256109 0.06256109 0.06256109
0.06256109 0.06256109 0.06256109
0.98631476 0.98631476 0.98631476
0.98631476 0.98631476 0.98631476
0.98631476 0.98631476 0.98631476
0.98631476 0.98631476 0.98631476
0.98631476 0.98631476 0.98631476
0.98631476 0.98631476 0.98631476
0.98631476 0.98631476 0.98631476
0.98631476 0.98631476 0.98631476
0.98631476 0.98631476 0.98631476
0.98631476 0.98631476 0.98631476
0.98631476 0.98631476 0.98631476
